assets/photofx/luts/cinema-style/Cinema Style 04.cube
TITLE "17x17x17 Adobe/IRIDAS cube 3D LUT exported with GrossGrade v0.2.01 (beta) 64 bit"
DOMAIN_MIN 0 0 0
DOMAIN_MAX 1 1 1
LUT_3D_SIZE 17
0.000000000 0.000000000 0.000000000
0.018197812 0.000000000 0.003130313
0.087086126 0.000000000 0.003557750
0.164448261 0.000233187 0.001552063
0.237239510 0.000071750 0.004298001
0.306237400 0.000000000 0.005183687
0.375406772 0.000000001 0.002475251
0.444894463 0.001239750 0.003052564
0.513383031 0.001893000 0.005679500
0.580089629 0.000889875 0.005750125
0.644878745 0.000917625 0.003908875
0.708316267 0.004176063 0.004317313
0.770645976 0.008412249 0.008156500
0.831045032 0.009370562 0.008758936
0.890655816 0.008570380 0.007112253
0.950270414 0.013682568 0.009551316
0.993490994 0.020396000 0.013351000
0.000799687 0.028532812 0.001801875
0.022923751 0.028510312 0.009858750
0.085926816 0.025384812 0.003032438
0.160505012 0.019890876 0.002724313
0.233764395 0.016769936 0.004103375
0.304581702 0.014756500 0.003524688
0.374019593 0.012513749 0.001453376
0.442804009 0.009479249 0.002755001
0.511075079 0.007413749 0.005188688
0.578298807 0.008453750 0.004981938
0.643801570 0.011887500 0.003499562
0.707480609 0.014762312 0.004279812
0.769434154 0.015678002 0.007745249
0.829907477 0.015940566 0.008190062
0.890411854 0.019749755 0.007067002
0.949968278 0.024385568 0.009571441
0.993158162 0.029150374 0.013114749
0.018867500 0.102129877 0.031532001
0.053435810 0.102393508 0.056674127
0.087318994 0.099362761 0.023721501
0.146724269 0.095849067 0.017353998
0.222477004 0.094374754 0.011442250
0.297353625 0.087415874 0.007302000
0.370092988 0.079698123 0.004088001
0.441037714 0.072712131 0.004538313
0.510058761 0.067100875 0.006045125
0.577377319 0.063191503 0.005100562
0.642890513 0.061031751 0.003896125
0.706617594 0.059803996 0.005315562
0.768869281 0.059146002 0.008385125
0.829796255 0.059157625 0.008781812
0.890236914 0.060419627 0.007805503
0.949420452 0.062454812 0.010250378
0.993072987 0.064926505 0.013638875
0.059775576 0.178329140 0.072585329
0.104941323 0.178758636 0.123016506
0.097768068 0.178994268 0.089186385
0.166422829 0.173796207 0.038459316
0.206177697 0.154111892 0.037224062
0.278929502 0.168062881 0.027541695
0.353554368 0.165193141 0.020803442
0.427202344 0.157476574 0.015956003
0.500382841 0.149249822 0.012959316
0.571276128 0.141887456 0.010068504
0.639384925 0.135692075 0.007963441
0.705047607 0.130657464 0.008355941
0.768371880 0.126880080 0.010095252
0.829662144 0.124447450 0.010220126
0.890111685 0.123093814 0.010028441
0.949104369 0.122674763 0.012202129
0.992955089 0.122985080 0.015173626
0.105402753 0.252310246 0.119426012
0.150724873 0.252720118 0.176967308
0.159628376 0.253216624 0.174689263
0.134659767 0.253265440 0.093373939
0.237597257 0.241208255 0.055537753
0.264488131 0.203926682 0.057952315
0.333045542 0.230957627 0.047470748
0.407244653 0.238191560 0.038505122
0.480874002 0.234526992 0.032177001
0.553515553 0.227791563 0.027352626
0.623929143 0.221047491 0.023334127
0.692303121 0.214590818 0.020480312
0.758707762 0.208701998 0.018742749
0.823070049 0.203722805 0.017062936
0.885981381 0.199753374 0.016157500
0.947807133 0.196493506 0.016018189
0.992812276 0.194784999 0.017633250
0.145992815 0.323886424 0.158762380
0.181358382 0.324254215 0.205025256
0.219155073 0.324881911 0.249885812
0.179420620 0.325367600 0.176098421
0.183870822 0.324672282 0.098164059
0.309300691 0.305973887 0.072692625
0.323282599 0.251629204 0.078127936
0.387625277 0.282441318 0.068386741
0.460490525 0.303874522 0.057577625
0.533203721 0.307642728 0.050158814
0.604388297 0.304126441 0.044693060
0.673532963 0.299221128 0.040265560
0.740722775 0.294081569 0.036774874
0.806597173 0.289068490 0.033770435
0.871612728 0.284504056 0.031407621
0.935320556 0.280402422 0.029698374
0.987984598 0.277328700 0.028634937
0.186582506 0.393294275 0.197943643
0.221922815 0.393721133 0.249071121
0.267724156 0.394333392 0.309915781
0.245683432 0.394711703 0.264227986
0.203583896 0.395223260 0.171397895
0.243135378 0.393761098 0.106339835
0.381143540 0.368199527 0.090546384
0.383449614 0.300453901 0.097987875
0.443096519 0.328448147 0.089160010
0.512865484 0.360337496 0.078239575
0.584331512 0.374771267 0.069424257
0.654113293 0.377609581 0.062928699
0.721503913 0.374987751 0.058542259
0.787367225 0.371835679 0.054975443
0.852987051 0.368486881 0.051651753
0.917795718 0.365308642 0.048975691
0.977726161 0.362755269 0.046965882
0.227503821 0.460742533 0.238749072
0.255123734 0.461087704 0.277760327
0.315946847 0.461863369 0.370295584
0.309929401 0.462168574 0.345264584
0.255524963 0.462651402 0.254143357
0.236806214 0.463049352 0.167821735
0.310744971 0.460127413 0.113256946
0.450941145 0.426716775 0.108830638
0.447996318 0.352856159 0.117325000
0.499980062 0.373792171 0.109463014
0.565082192 0.408727139 0.099732324
0.634312868 0.434995502 0.089748643
0.702286243 0.445691198 0.082558081
0.769016623 0.448240459 0.077286631
0.834447920 0.447250903 0.073490694
0.899884403 0.445991963 0.070011199
0.964058697 0.445066839 0.067706391
0.263960510 0.525896490 0.272260487
0.290757000 0.526265204 0.312815905
0.354400992 0.527083158 0.412725151
0.365355968 0.527418017 0.415688992
0.320891261 0.527758002 0.340444267
0.272894889 0.528184175 0.244028151
0.285879195 0.528246522 0.169000879
0.392787218 0.522534847 0.117222317
0.517661512 0.481276512 0.127055019
0.514424026 0.407697201 0.135954499
0.556514740 0.418916106 0.129311383
0.617275119 0.452728301 0.120995253
0.683247268 0.486933529 0.111339256
0.750252604 0.507705927 0.102778688
0.816561103 0.517702162 0.096496627
0.881981850 0.520125091 0.092396885
0.947854519 0.521355510 0.089459009
0.301818073 0.588282824 0.309693247
0.326858014 0.588615239 0.347818732
0.395303637 0.589516819 0.460370451
0.411513507 0.589842856 0.472869754
0.385463774 0.589997172 0.420549273
0.326808572 0.590529382 0.324144304
0.302375525 0.590880156 0.236948237
0.347731203 0.590272069 0.172515288
0.477729470 0.581195295 0.126067996
0.581430912 0.532488465 0.145273685
0.578569710 0.461653829 0.154163808
0.611654937 0.463268191 0.149047554
0.669377327 0.495353103 0.141738310
0.732471466 0.532424510 0.133181185
0.798022568 0.563228667 0.123955742
0.863775969 0.580004275 0.117315814
0.931125283 0.589891672 0.111909442
0.338373989 0.647358894 0.344402492
0.359815568 0.647608578 0.376987368
0.434679240 0.648643494 0.504380345
0.456257373 0.649010122 0.528665483
0.442254126 0.649166524 0.490472257
0.387117565 0.649568141 0.402790993
0.340172857 0.650035977 0.307553619
0.341516167 0.650172293 0.230689287
0.413407683 0.648784220 0.176834866
0.558562100 0.636524558 0.140913561
0.643296778 0.580710471 0.163843125
0.639638960 0.512578011 0.172437489
0.665725589 0.506950140 0.168656260
0.721832931 0.538013518 0.161613867
0.782300293 0.574692607 0.154845610
0.846290886 0.610973120 0.146154359
0.913746119 0.637513101 0.138019383
0.371514946 0.703120470 0.373443753
0.394732445 0.703393221 0.412405312
0.465767324 0.704383910 0.533762813
0.497727692 0.704918981 0.578856647
0.491543174 0.705145657 0.552308619
0.446678489 0.705341578 0.477112561
0.390586615 0.705633163 0.380606920
0.366223752 0.706002951 0.294859856
0.393722206 0.705826759 0.227365300
0.487515390 0.703381360 0.178937376
0.639308274 0.688133657 0.156803742
0.702619255 0.624575794 0.182894379
0.697703063 0.560007274 0.190893129
0.719597936 0.550183415 0.187853187
0.774186850 0.580412030 0.181497931
0.834192514 0.616740823 0.175073057
0.897319257 0.654784381 0.168185309
0.410810262 0.756426275 0.421393007
0.428446501 0.756574571 0.448707312
0.498148859 0.757393241 0.567503870
0.534393549 0.757999063 0.620469391
0.536423504 0.758256257 0.608170509
0.502925992 0.758276284 0.545189321
0.443794847 0.758561552 0.450609118
0.403437734 0.758922637 0.359897047
0.401715755 0.759236693 0.282968998
0.457386792 0.758644462 0.225440562
0.571217477 0.754206777 0.179808125
0.714824498 0.735694051 0.175839871
0.757546306 0.662952483 0.202264994
0.753513694 0.604629517 0.209587812
0.773311973 0.592948020 0.207335636
0.826767802 0.622334719 0.201221257
0.888100028 0.659635007 0.194985747
0.438063443 0.807456672 0.450267911
0.461047381 0.807648659 0.489739656
0.543459415 0.808497131 0.630376160
0.577901244 0.808915138 0.676068068
0.578973174 0.809037387 0.660566330
0.554708779 0.809055626 0.607462347
0.498182654 0.809466124 0.518179417
0.447864026 0.809797645 0.424754560
0.428070664 0.810000360 0.342873305
0.449050963 0.809852064 0.274206370
0.528329313 0.808477104 0.224900782
0.660727441 0.800975561 0.184455544
0.785117567 0.779330254 0.197179437
0.809641123 0.698756218 0.222232074
0.807767034 0.646810472 0.228231877
0.826689124 0.634920657 0.226580590
0.881107032 0.665289462 0.220759720
0.499936670 0.857116699 0.545267582
0.516393781 0.857369781 0.573096812
0.568089068 0.857825398 0.654448688
0.611750007 0.858238935 0.713864565
0.620152414 0.858354151 0.710778475
0.602887630 0.858384192 0.666133285
0.553783298 0.858628631 0.585409760
0.497946173 0.858833909 0.490976512
0.464282423 0.859280407 0.404180557
0.462739348 0.859603405 0.327982008
0.508141100 0.859231710 0.270471931
0.600436032 0.856822431 0.226711661
0.745592475 0.846053243 0.197055653
0.851799965 0.820311487 0.218597397
0.861115575 0.734488368 0.241754636
0.860695899 0.687343299 0.247328132
0.880924582 0.677185357 0.246022388
0.542109430 0.905660927 0.600319803
0.558571279 0.905922890 0.626121879
0.619947433 0.906436265 0.721586883
0.653033853 0.906776845 0.763498724
0.659422755 0.906934142 0.757643461
0.648968935 0.906940758 0.722006381
0.608041286 0.907056749 0.650279820
0.549141407 0.907287061 0.555568695
0.506343484 0.907620013 0.465763152
0.488848835 0.907920599 0.385396659
0.506538868 0.907848835 0.316816658
0.575246692 0.907352507 0.269485235
0.680029988 0.903481483 0.228432298
0.827028930 0.889293969 0.213979453
0.911235094 0.854571700 0.240260825
0.911991537 0.769024789 0.261703640
0.913506508 0.726366699 0.267041773
0.605009973 0.955249012 0.681181014
0.620754361 0.955463707 0.708928168
0.659693241 0.955990732 0.770277143
0.693812430 0.956453979 0.811787248
0.700347006 0.956465244 0.806362510
0.693053544 0.956550419 0.776894450
0.660520077 0.956583500 0.713902831
0.603005767 0.956951559 0.621753335
0.553297997 0.957249999 0.529562950
0.526722133 0.957582593 0.447033495
0.525631666 0.957799137 0.372003496
0.564584434 0.957195401 0.314185053
0.648287773 0.955527484 0.269637257
0.770927668 0.949710488 0.229768932
0.901678801 0.932968199 0.237172782
0.966204226 0.887111247 0.263735235
0.962758005 0.804450989 0.282413006
0.000000000 0.003229687 0.040231876
0.013190624 0.000000000 0.040478442
0.080666691 0.000000000 0.041058123
0.158017322 0.000281937 0.037730001
0.233913064 0.000083000 0.031260312
0.305317134 0.000000000 0.026270250
0.375289291 0.000000001 0.022128686
0.444653511 0.001057500 0.018732058
0.512847185 0.001457750 0.016409749
0.579524040 0.000596375 0.014867750
0.644580424 0.000886875 0.014297875
0.708059669 0.003982625 0.014597937
0.769940495 0.007931937 0.015118250
0.830314398 0.008842562 0.014252313
0.890438199 0.008433006 0.015179377
0.949919581 0.013464756 0.017019816
0.993241608 0.019950686 0.019013500
0.000000000 0.041374691 0.032941878
0.017884687 0.034461562 0.040849686
0.083681621 0.026480686 0.039532375
0.157763883 0.020737438 0.034519311
0.230886251 0.018301999 0.029536249
0.301681638 0.016350999 0.025992187
0.371006757 0.013612499 0.022876499
0.440149784 0.011832562 0.020349998
0.508880198 0.012088438 0.019197814
0.576321781 0.013978500 0.018429751
0.641808450 0.016314751 0.017729126
0.705202162 0.017550437 0.017152626
0.767158210 0.018305376 0.017089313
0.828628600 0.021021815 0.017786127
0.889404297 0.024551878 0.018800564
0.948545814 0.028409692 0.019878626
0.992559135 0.031985376 0.020788187
0.004716188 0.103161000 0.033227373
0.042891253 0.102739491 0.060419314
0.083549559 0.102561243 0.056459814
0.148451880 0.099247560 0.043757498
0.223228127 0.093934059 0.035266500
0.297142118 0.086448938 0.028755873
0.368903816 0.079328373 0.023969000
0.438480407 0.073440559 0.021092437
0.506991386 0.068849310 0.019724876
0.574492455 0.065556623 0.018693186
0.640289485 0.063624874 0.017974064
0.704225659 0.062525436 0.017613875
0.766576052 0.062003125 0.017709563
0.827772915 0.062218625 0.018344440
0.888419747 0.063402504 0.019093189
0.947715223 0.065316878 0.020223001
0.992438078 0.067508616 0.021508314
0.040538199 0.178411022 0.068990879
0.081983380 0.178497091 0.096035197
0.118226573 0.179120079 0.123267569
0.157861754 0.176378012 0.060129434
0.206704125 0.159948081 0.058174059
0.279997110 0.169270515 0.047535695
0.354436159 0.165149137 0.039241064
0.427751541 0.157194629 0.032790124
0.500082135 0.149228767 0.027909316
0.570649505 0.142147139 0.024115443
0.638619483 0.136226133 0.021333754
0.703718722 0.131622195 0.020011941
0.766404986 0.128374711 0.020001002
0.827660918 0.126166582 0.020449251
0.888231516 0.124909207 0.020994438
0.947694659 0.124499269 0.021955375
0.992404580 0.124787822 0.023254501
0.086332127 0.252221376 0.107092060
0.118006691 0.252350956 0.127196759
0.175242960 0.253118694 0.195753813
0.145455092 0.253477871 0.121368550
0.231575325 0.245747447 0.072998874
0.264968693 0.209732130 0.075241253
0.334697992 0.235464752 0.063329875
0.408487976 0.239605129 0.053899623
0.481679320 0.234765932 0.046813376
0.554071605 0.227920696 0.040845253
0.624450147 0.221141815 0.035900939
0.692524970 0.214727312 0.032025501
0.758453071 0.208992884 0.029300500
0.822711468 0.204135701 0.027218498
0.885704398 0.200167760 0.025703374
0.947184086 0.197046384 0.024851501
0.992151320 0.195863143 0.026184000
0.129109681 0.323762357 0.142329067
0.160778195 0.323996693 0.174141765
0.225638106 0.324807554 0.258624315
0.197886258 0.325279027 0.203140229
0.186827123 0.325025260 0.119105175
0.306273818 0.311666161 0.086809494
0.323846936 0.256641895 0.092537314
0.388590842 0.286948264 0.082049809
0.461355984 0.305801272 0.070837811
0.534004033 0.308504701 0.062728807
0.605184019 0.304525375 0.056442060
0.674109995 0.299457043 0.051349375
0.741159022 0.294187218 0.047105063
0.807163179 0.289174139 0.043317247
0.872138500 0.284583062 0.040258434
0.935539603 0.280492604 0.038064249
0.987959564 0.277482867 0.036631439
0.174032509 0.393160194 0.184085816
0.196931884 0.393331140 0.206322402
0.272507221 0.394275397 0.316819280
0.263435960 0.394642293 0.286569297
0.215401769 0.395098239 0.193357348
0.243139878 0.394144177 0.122922577
0.380393505 0.374471098 0.102039516
0.384159774 0.304871351 0.110186443
0.443799108 0.332464546 0.100998193
0.513675451 0.363176256 0.089531571
0.585122287 0.376099318 0.080257505
0.654827714 0.378165215 0.073277138
0.721974313 0.375396192 0.068371437
0.787928879 0.372173607 0.064061560
0.853485048 0.368724257 0.060220934
0.918175697 0.365463436 0.057122000
0.977904260 0.362814337 0.054627132
0.210734770 0.460531414 0.213960648
0.233222395 0.460748315 0.239911765
0.310295045 0.461716652 0.357982218
0.321131140 0.462136537 0.359923750
0.270520270 0.462595880 0.275074720
0.243851528 0.462955892 0.185401291
0.307965755 0.460837841 0.127991334
0.451234400 0.432939172 0.118586063
0.448815465 0.356876433 0.127802819
0.500712335 0.377466351 0.119650513
0.565769553 0.411966175 0.109504074
0.635079324 0.436945021 0.099118449
0.702913105 0.446849585 0.091575518
0.769363165 0.448767930 0.086002193
0.834745467 0.447620451 0.081805632
0.900099814 0.446294993 0.077904955
0.964417934 0.445285082 0.075024888
0.249327689 0.525731266 0.251187563
0.273905724 0.525981605 0.283648431
0.344186962 0.526872158 0.392082602
0.369590223 0.527382374 0.420763433
0.334393412 0.527704060 0.357884079
0.283081710 0.528135240 0.261004716
0.288413227 0.528265595 0.183081195
0.387461215 0.523626506 0.129684120
0.518129647 0.486817986 0.135504559
0.515155911 0.411336005 0.145082623
0.557088256 0.422123581 0.138288751
0.617824137 0.455842465 0.129624262
0.683933973 0.489496469 0.119519942
0.750721633 0.509187758 0.110785246
0.817077696 0.518637061 0.104162946
0.882328033 0.520560145 0.099789515
0.948264062 0.521658003 0.096406259
0.286671221 0.588110566 0.285987437
0.304516912 0.588237524 0.305735886
0.390467376 0.589367926 0.449448943
0.414310008 0.589789391 0.475976855
0.396328896 0.589961469 0.434155256
0.337864071 0.590486228 0.339831561
0.308891416 0.590843260 0.250822902
0.347654283 0.590389669 0.183873594
0.472937942 0.582254648 0.135543495
0.581598461 0.537018955 0.152813241
0.579091489 0.464828134 0.162267253
0.612112820 0.466070563 0.157046691
0.669792056 0.498110265 0.149447933
0.732855082 0.534933388 0.140586048
0.798666418 0.565210819 0.130919233
0.864428818 0.581100821 0.124006622
0.931531012 0.590245366 0.118567504
0.322272629 0.647170246 0.318031937
0.339013010 0.647319674 0.337703139
0.424208194 0.648436904 0.481893480
0.460180759 0.648974121 0.533975661
0.450395405 0.649121106 0.501286507
0.398021698 0.649544597 0.417102367
0.348205745 0.650012970 0.320765853
0.345105648 0.650148511 0.242104858
0.412601888 0.648901939 0.186640799
0.554831326 0.637438118 0.148587644
0.643353224 0.584548831 0.170697182
0.640114784 0.515405715 0.179670379
0.666140020 0.509467781 0.175777003
0.722102404 0.540396094 0.168583080
0.782679856 0.576987445 0.161489755
0.846882403 0.613014162 0.152326733
0.914215088 0.638525069 0.144235194
0.360642433 0.702985704 0.357753754
0.379150867 0.703166664 0.383527160
0.449193001 0.704099894 0.499881804
0.497368842 0.704829216 0.576100230
0.497580558 0.705102921 0.560673654
0.456489682 0.705339015 0.489672869
0.399146944 0.705595672 0.393056929
0.371466875 0.705977440 0.305843771
0.394696683 0.705814123 0.236751169
0.485207438 0.703586221 0.188014671
0.635738730 0.689142883 0.163618818
0.703078628 0.628292382 0.189051867
0.698136091 0.562610328 0.197376877
0.719978690 0.552422345 0.194276884
0.774610281 0.582520068 0.187735379
0.834577560 0.618818879 0.180987850
0.897695780 0.656726241 0.173883751
0.396607518 0.756174862 0.396569908
0.407622963 0.756142020 0.407251835
0.487480074 0.757250428 0.546851516
0.536412239 0.757955611 0.622517765
0.541328728 0.758244812 0.614855230
0.511051357 0.758349955 0.555535674
0.452375561 0.758542776 0.462100655
0.409597665 0.758900464 0.370319843
0.405165792 0.759260237 0.292428076
0.457283258 0.758716106 0.233764872
0.568094790 0.754457474 0.187870950
0.712595165 0.736810386 0.181468129
0.758157432 0.666332185 0.207911134
0.753891945 0.606841683 0.215470880
0.773724377 0.594937086 0.213112444
0.827189505 0.624310672 0.206729814
0.888356328 0.661466002 0.200427443
0.432273984 0.807270348 0.441709846
0.457372010 0.807600915 0.485333771
0.525282264 0.808438838 0.599554002
0.577244818 0.808904171 0.674021304
0.582612753 0.809004366 0.665644586
0.560875475 0.809075475 0.615720034
0.506498277 0.809430301 0.528919995
0.454969525 0.809748888 0.435138494
0.432390600 0.810033023 0.351869166
0.450483590 0.809985161 0.281957239
0.527623177 0.808637083 0.232120290
0.657371700 0.801317036 0.191043213
0.783359408 0.780643702 0.202175260
0.810109079 0.701211154 0.227446079
0.808096290 0.648809910 0.233585149
0.827068746 0.636739254 0.231769532
0.881399691 0.666960955 0.225914270
0.488925487 0.856876969 0.526434720
0.503582239 0.857254744 0.551856458
0.560318172 0.857828617 0.641015410
0.612725735 0.858258247 0.714653492
0.623331726 0.858359277 0.715176046
0.608304858 0.858390510 0.673431277
0.561153889 0.858642995 0.594876647
0.504405618 0.858861446 0.500207424
0.469341785 0.859232247 0.412881374
0.465869099 0.859568417 0.336032987
0.508673668 0.859248817 0.277447075
0.599271297 0.856983602 0.233365983
0.742664278 0.846630156 0.202388614
0.850589812 0.821785688 0.223322272
0.861363530 0.736545146 0.246619642
0.861037254 0.689092815 0.252215266
0.881174743 0.678784966 0.250856072
0.533566475 0.905572236 0.582681715
0.553936779 0.905674338 0.614227772
0.614538789 0.906314373 0.712585688
0.653366983 0.906753063 0.763466060
0.661569417 0.906933308 0.760386944
0.652652442 0.906979620 0.727419734
0.614441693 0.907067299 0.658511281
0.555593073 0.907356083 0.564286232
0.511472106 0.907665789 0.473878562
0.492643774 0.907983243 0.393056244
0.508133769 0.907944560 0.323645800
0.574592710 0.907357514 0.275970697
0.677387714 0.903727651 0.234796911
0.825253308 0.890035510 0.218251660
0.910944641 0.856771588 0.244576186
0.912243128 0.770807683 0.266166598
0.913767755 0.727964163 0.271564215
0.596579075 0.955034316 0.666391909
0.616245031 0.955371857 0.702507257
0.655481398 0.955850780 0.763646185
0.695055842 0.956460834 0.813406050
0.702628136 0.956429183 0.809477806
0.696694791 0.956550121 0.782336831
0.666433275 0.956511617 0.721575379
0.609404981 0.956924379 0.630104363
0.558507204 0.957246304 0.537336290
0.530855060 0.957586348 0.454400808
0.528142810 0.957858324 0.378820807
0.564954758 0.957225323 0.320011914
0.647223353 0.955601752 0.275587231
0.767290950 0.950115860 0.235695630
0.899850428 0.933436692 0.241236717
0.966185510 0.888963342 0.267749280
0.963014901 0.806074739 0.286593318
0.000000000 0.016780876 0.096153378
0.004413499 0.001850687 0.096255571
0.075730376 0.000000000 0.096655250
0.144252270 0.001104187 0.095260374
0.220283002 0.001093750 0.092274003
0.296163708 0.000220125 0.085137755
0.370508015 0.000000001 0.076696247
0.442391843 0.001080000 0.068825871
0.512060940 0.001468500 0.062274002
0.579397321 0.000573687 0.057024501
0.644447982 0.000906750 0.053000875
0.707764030 0.003951375 0.049880873
0.769554377 0.007786875 0.047593374
0.830071747 0.008777500 0.045650687
0.890142143 0.008325379 0.044546373
0.949099720 0.013022256 0.044033438
0.992819905 0.019249000 0.043951377
0.000000000 0.068132252 0.095980622
0.014439812 0.053990748 0.096640810
0.074913681 0.031617813 0.097011618
0.147277370 0.028466437 0.095565744
0.223127693 0.022004876 0.089798942
0.297525167 0.017700063 0.081778817
0.369773507 0.013913500 0.073891193
0.439711660 0.011834187 0.067351751
0.508209705 0.011827688 0.062030062
0.575352430 0.013457937 0.057576064
0.640762508 0.015779501 0.053942375
0.704440117 0.017197687 0.051064186
0.766624749 0.018083937 0.048910439
0.827744901 0.020453691 0.047354683
0.888125718 0.023661379 0.046378314
0.947235763 0.027303753 0.045700874
0.991962314 0.030993190 0.045335814
0.001578500 0.108217999 0.068773866
0.021563189 0.107357249 0.079021439
0.080086380 0.104225866 0.095793873
0.149471760 0.100505248 0.094211683
0.221709996 0.094221123 0.087349877
0.292443037 0.089055814 0.081171252
0.362005144 0.084647372 0.075918250
0.431218415 0.080897376 0.071443126
0.500101566 0.078137249 0.067631252
0.567942262 0.076217622 0.064402685
0.634063542 0.075061746 0.061623000
0.698320627 0.074258752 0.059272375
0.760948300 0.073558241 0.057243124
0.822435856 0.073639564 0.055696063
0.883298039 0.074390754 0.054440752
0.942825496 0.075553752 0.053667501
0.990424156 0.077458240 0.053259127
0.008311572 0.179133892 0.070650816
0.039897755 0.179012239 0.087606631
0.116242133 0.178922638 0.125372693
0.139823645 0.179619685 0.114353873
0.207703754 0.172975689 0.103750318
0.282098025 0.172823220 0.092460260
0.355784416 0.166536644 0.083277628
0.428035617 0.158746704 0.075809442
0.498726964 0.151650071 0.070033319
0.567245960 0.145911813 0.065853320
0.633421659 0.141380087 0.062808998
0.697640657 0.137774885 0.060413562
0.760303319 0.135081634 0.058386061
0.821874022 0.133150131 0.056847624
0.882820249 0.131986573 0.055654436
0.942672849 0.131385833 0.054958686
0.990413189 0.131475076 0.054487936
0.049920879 0.252572387 0.104599506
0.082238302 0.252389848 0.121661320
0.150290623 0.252651125 0.155152753
0.182765633 0.253524572 0.187072933
0.213605508 0.250225008 0.116253376
0.266574949 0.223712012 0.116393432
0.337490141 0.242814749 0.104069620
0.410589784 0.242838547 0.094122745
0.483347386 0.236613616 0.085844375
0.555341065 0.229493439 0.078459814
0.625003099 0.222778514 0.072365001
0.692283750 0.216623873 0.067288749
0.757831931 0.211067632 0.062901244
0.821566522 0.206408516 0.059532560
0.882708967 0.203375757 0.058127627
0.942367256 0.201290250 0.057403814
