assets/photofx/luts/cinema-style/Cinema Style 11.cube
TITLE "17x17x17 Adobe/IRIDAS cube 3D LUT exported with GrossGrade v0.2.01 (beta) 64 bit"
DOMAIN_MIN 0 0 0
DOMAIN_MAX 1 1 1
LUT_3D_SIZE 17
-0.044578999 -0.046831999 -0.043253001
0.012841936 -0.046275128 -0.042551748
0.037488878 -0.042472877 -0.040198497
0.068480447 -0.034757372 -0.035323061
0.104841754 -0.024935748 -0.029142501
0.146812186 -0.014179875 -0.022615375
0.191151887 -0.004594246 -0.017007872
0.233762950 0.005172067 -0.010560496
0.275059998 0.015575003 -0.002806998
0.315014362 0.025618751 0.005143375
0.351782739 0.034463122 0.012056501
0.385623664 0.042125624 0.017545875
0.416891754 0.048992254 0.022275999
0.443121731 0.053970940 0.025711564
0.464453012 0.058051631 0.028462000
0.479864925 0.060923439 0.030281125
0.486764014 0.062249999 0.031107999
-0.041915562 0.021440502 -0.038500812
0.016464436 0.023698937 -0.037625186
0.049903374 0.035814561 -0.033194687
0.086852141 0.043867938 -0.027189372
0.133453310 0.054352187 -0.019995313
0.180885553 0.064345121 -0.013471188
0.227576897 0.075481385 -0.005779435
0.272452116 0.086246505 0.002267879
0.313005269 0.095488690 0.009808252
0.350166202 0.103044815 0.016071187
0.385759085 0.109435186 0.021198064
0.419174314 0.115049683 0.025606500
0.448309004 0.119837806 0.029192001
0.471873492 0.123477936 0.031927004
0.490611553 0.126512870 0.034452688
0.503259122 0.128362864 0.036432438
0.506992459 0.127214059 0.036687065
-0.037027873 0.065113254 -0.027347125
0.026000123 0.068855688 -0.026340250
0.056626875 0.075577497 -0.025844377
0.103770010 0.085612431 -0.021525308
0.158950254 0.095603250 -0.009826374
0.214619309 0.108313441 0.000187188
0.266923159 0.119953997 0.008379001
0.311746359 0.129414812 0.015612004
0.353970528 0.137636632 0.022056751
0.394335330 0.144383684 0.026937751
0.431067497 0.150194764 0.030771751
0.463632554 0.156786874 0.035356000
0.491523862 0.163910866 0.040641375
0.513881087 0.169607937 0.045308255
0.531615376 0.173423618 0.048957504
0.543605268 0.175169259 0.051449627
0.546785831 0.173243999 0.051512249
-0.027640123 0.102314755 -0.017712185
0.036154564 0.106870890 -0.017663624
0.069514260 0.114793129 -0.019906249
0.111692443 0.120495573 -0.021962749
0.173655942 0.133385628 -0.008938063
0.238010749 0.145290643 0.006847688
0.296735197 0.156857699 0.017424004
0.346526027 0.165482879 0.024774380
0.391171843 0.172226697 0.030024754
0.432257235 0.179023698 0.034960065
0.468123943 0.186589137 0.040529940
0.499203444 0.195500821 0.047171753
0.525827885 0.204115331 0.053748004
0.547445178 0.209963828 0.058887944
0.563956916 0.213254020 0.062788941
0.574352741 0.213601202 0.064713255
0.576124072 0.209795699 0.063959122
-0.015128249 0.138535246 -0.010731000
0.050464310 0.143888757 -0.011261063
0.086373873 0.152728125 -0.014910749
0.131882459 0.159294188 -0.018961247
0.186012000 0.166991264 -0.015517999
0.250352681 0.180413321 0.005166686
0.319884151 0.193331748 0.022724252
0.376346409 0.202333003 0.032287128
0.423551768 0.210501999 0.040167253
0.465541184 0.218662888 0.046958629
0.501215994 0.227697760 0.054188378
0.531503618 0.237138689 0.061943751
0.556795001 0.244975522 0.068768002
0.577391505 0.250117302 0.073983751
0.592903256 0.252460003 0.077577129
0.602380991 0.251478106 0.078976378
0.602977276 0.245961994 0.077665001
0.002983438 0.176724762 -0.003487500
0.071478941 0.183623999 -0.004573938
0.117241129 0.193542182 -0.010876625
0.161974311 0.200358495 -0.014630999
0.217458069 0.208036184 -0.012879249
0.269749820 0.217213571 -0.001489063
0.335628271 0.228670135 0.020155629
0.400593102 0.241451696 0.038488947
0.451737821 0.251026452 0.049657568
0.494923979 0.260713309 0.059595250
0.531197667 0.270073056 0.068514004
0.562049270 0.279592127 0.077383377
0.587219834 0.286722332 0.084562622
0.606718540 0.290856302 0.089584321
0.621191502 0.291976750 0.092580318
0.629759431 0.289824069 0.093538001
0.629142582 0.282484055 0.091581129
0.027386263 0.217687264 0.005391254
0.102506883 0.225923523 0.002781566
0.155044764 0.236487284 -0.004775370
0.200399086 0.244719580 -0.007509993
0.247786403 0.251866132 -0.004990744
0.304709494 0.259795785 0.004257816
0.360110134 0.268976390 0.019208759
0.420570284 0.281124145 0.040249635
0.475942641 0.293288022 0.058463633
0.521435201 0.303444207 0.071162194
0.559736371 0.313539028 0.081833385
0.590992093 0.322548091 0.091164634
0.616398573 0.329445779 0.099170506
0.635861874 0.333203435 0.104927696
0.649763227 0.333376914 0.108132750
0.657106161 0.329633027 0.108697005
0.654897213 0.319823742 0.105770506
0.058429144 0.259945631 0.015603632
0.137202382 0.269870758 0.011863383
0.190002516 0.281591147 0.007880946
0.236544222 0.290827155 0.006021697
0.285734087 0.299453676 0.008700883
0.337714612 0.304682910 0.013807133
0.396804869 0.314499915 0.027874449
0.448366433 0.324897885 0.044041637
0.498396158 0.336649537 0.063502386
0.545679271 0.347796082 0.081115566
0.585775852 0.358426541 0.094905511
0.619628608 0.368525833 0.105641760
0.645434320 0.375039399 0.113604888
0.665135324 0.378240019 0.119777516
0.679077685 0.377714336 0.123897322
0.686087489 0.372697294 0.124967575
0.682163298 0.360064656 0.121284828
0.090286508 0.302340508 0.026774004
0.168262392 0.314134389 0.025660880
0.223508745 0.328028768 0.024698630
0.271936357 0.338442743 0.022949882
0.323435247 0.347510517 0.025013003
0.377164394 0.353232801 0.028439254
0.432679534 0.363168538 0.039626509
0.485245466 0.374061763 0.055009574
0.529808044 0.384993494 0.071142510
0.571180940 0.395060778 0.088509381
0.611451983 0.406071126 0.105340630
0.645928323 0.416765779 0.120243445
0.673875988 0.423881531 0.130483747
0.693884134 0.425995231 0.136439562
0.707733393 0.423818111 0.139994636
0.714456320 0.417017698 0.140839070
0.709745526 0.402247012 0.136990517
0.118437812 0.344861388 0.041086063
0.196995124 0.358292818 0.042767249
0.256894797 0.374594659 0.042697128
0.308378249 0.386061490 0.040240064
0.360266447 0.396010011 0.041282374
0.414536059 0.405121446 0.045839503
0.469332695 0.415373504 0.054988690
0.520827353 0.427948445 0.069338381
0.565827370 0.438363492 0.084146127
0.605567336 0.449676305 0.099629372
0.639151394 0.457331181 0.115369998
0.672246933 0.466686875 0.131091133
0.700382471 0.473310500 0.145420447
0.721350193 0.474762857 0.153617173
0.735855937 0.470987380 0.156754017
0.741589546 0.461387604 0.156016424
0.736197591 0.444582939 0.151749879
0.146035746 0.387206018 0.058333624
0.226426944 0.402076066 0.060581192
0.289324641 0.420085132 0.060235374
0.342365444 0.432914555 0.057335187
0.393834740 0.444539368 0.058019750
0.446697116 0.458034694 0.064386375
0.501018524 0.471364021 0.073791757
0.552165151 0.483147830 0.085290946
0.597905278 0.494716346 0.098631129
0.637813985 0.503885210 0.112278506
0.673202336 0.515144348 0.127603620
0.699374855 0.518285275 0.141461447
0.726825416 0.522844017 0.155654132
0.748056650 0.523186862 0.166099623
0.763322413 0.518679380 0.171711013
0.768963695 0.507350206 0.171429425
0.762418330 0.487617761 0.166362882
0.176546380 0.429461002 0.075284250
0.255557626 0.444989115 0.078408942
0.319614500 0.464670211 0.078549623
0.373521268 0.479088962 0.074715942
0.424618751 0.493364185 0.075570494
0.475949913 0.509978414 0.082711056
0.527738690 0.526028097 0.092340127
0.578023016 0.538253844 0.102139816
0.623570800 0.548224866 0.113008380
0.663408339 0.557655811 0.124472499
0.698784590 0.564823747 0.136743307
0.730944216 0.574244022 0.151804253
0.752511263 0.572475016 0.163287431
0.773553371 0.571547806 0.174086079
0.788459063 0.566049159 0.181985945
0.794162154 0.554203153 0.185035259
0.787949920 0.532046497 0.180704445
0.207755506 0.471772999 0.091819756
0.283325255 0.486440420 0.095802568
0.348402262 0.508390903 0.097544253
0.403592765 0.524795294 0.093174197
0.453987539 0.541256487 0.093730256
0.503934801 0.559631526 0.100469440
0.552221000 0.576728106 0.109434128
0.599137783 0.589848161 0.117838949
0.643695712 0.598604083 0.126250014
0.683736026 0.606084228 0.135970503
0.719601393 0.612848520 0.145481631
0.752054572 0.618852079 0.156790823
0.781499028 0.626863778 0.170664757
0.795958638 0.618914723 0.179218695
0.809071839 0.611855745 0.187709376
0.815097928 0.599249363 0.193527818
0.809902489 0.576110482 0.191925243
0.237543285 0.511060119 0.107488953
0.309387833 0.524678409 0.111709386
0.374746978 0.547803462 0.114065766
0.430157393 0.566592634 0.111030206
0.478139192 0.583788991 0.110963076
0.526126862 0.602604747 0.116245709
0.571841896 0.619814396 0.124097392
0.615674198 0.633875549 0.131374449
0.658353329 0.642706573 0.137636572
0.698455870 0.648055971 0.144413456
0.734510481 0.653653502 0.152745739
0.767005563 0.659205973 0.161431625
0.794563413 0.664364576 0.172340065
0.819866717 0.671235681 0.185487196
0.828152597 0.656898975 0.191536143
0.833751559 0.642540455 0.197886884
0.828011274 0.617810369 0.198487937
0.265679508 0.546836674 0.122233391
0.334926844 0.560746670 0.127401829
0.398846030 0.583305180 0.129149511
0.452863216 0.602775037 0.127680823
0.497150391 0.618765950 0.127022266
0.542025626 0.636790872 0.130697757
0.585879385 0.654070258 0.137525141
0.627845049 0.668649316 0.143065572
0.668388247 0.678314388 0.146592766
0.707271934 0.682685912 0.150582373
0.743201375 0.686531961 0.157096133
0.774741471 0.692576945 0.165721998
0.801281333 0.697923124 0.174815759
0.825916171 0.702508688 0.185253635
0.849899769 0.708551049 0.197868377
0.850758135 0.685762763 0.201251447
0.845064521 0.658857584 0.202671871
0.287182808 0.574663937 0.134545445
0.354309738 0.588365555 0.140022695
0.415110797 0.609517395 0.141923070
0.467495054 0.628740370 0.141247764
0.509759605 0.644575477 0.140814558
0.551351786 0.661312103 0.142389253
0.592954874 0.678069413 0.147533253
0.633436859 0.692312717 0.151981816
0.672168136 0.702563643 0.153594062
0.708918273 0.708300233 0.155379191
0.743397772 0.711500287 0.160196885
0.773844719 0.715732932 0.168010697
0.800453365 0.721712232 0.176432118
0.824608505 0.726509154 0.185138002
0.847985208 0.730418384 0.195579514
0.869277239 0.734515667 0.206819817
0.860995352 0.700682282 0.205708876
0.288170010 0.583453000 0.135122001
0.351137191 0.595737100 0.140145123
0.410661250 0.616764128 0.142525747
0.461487740 0.635657251 0.141912058
0.502507508 0.651128232 0.141461492
0.541866720 0.666906476 0.142066434
0.581803620 0.683473408 0.146356136
0.620480895 0.698113978 0.151400819
0.657942533 0.709480047 0.153513998
0.693927050 0.716833770 0.154577628
0.727620602 0.720610023 0.157822505
0.758631885 0.723785639 0.163725942
0.785827279 0.728666246 0.171726257
0.809984028 0.734229565 0.179749385
0.832615018 0.738453746 0.188446641
0.854170382 0.742263198 0.198972955
0.874680996 0.746510983 0.209592000
-0.044711187 -0.047627937 0.016271684
0.013142874 -0.046592936 0.019026998
0.041970558 -0.041071314 0.027546372
0.072904885 -0.033805810 0.032656688
0.109868437 -0.024420312 0.038287368
0.149590001 -0.014406625 0.043695625
0.189235315 -0.005642372 0.047938377
0.228092387 0.002892442 0.052771188
0.265859067 0.011646752 0.058702812
0.303166986 0.021057000 0.065387942
0.338808864 0.030258626 0.071862064
0.371796817 0.038052812 0.077111192
0.402764380 0.045260563 0.081528567
0.429736435 0.051006753 0.084609628
0.452073038 0.055441812 0.086434558
0.469075561 0.058934249 0.087595627
0.477199614 0.060315937 0.087194875
-0.041866809 0.021785501 0.026542936
0.016707249 0.024549250 0.029797934
0.050286189 0.029756742 0.031048685
0.083615512 0.034739438 0.032360565
0.122330070 0.042226937 0.035864495
0.163626507 0.050062120 0.039817374
0.207589686 0.058833882 0.044882756
0.250175595 0.068374760 0.051306061
0.291130781 0.078509197 0.058898557
0.330225438 0.087928630 0.066186562
0.366550833 0.096067376 0.072352186
0.400674939 0.103431880 0.077665254
0.431716651 0.109877877 0.082162008
0.457668334 0.114580691 0.085288003
0.478923529 0.118499503 0.087794192
0.494548708 0.121772006 0.089806065
0.500918388 0.123100318 0.090715185
-0.036821622 0.065053128 0.042313125
0.019377684 0.068248250 0.036295749
0.059524443 0.078332685 0.035835244
0.108420387 0.087003186 0.040460192
0.163399994 0.096424997 0.049130313
0.217193753 0.108699434 0.057627313
0.267443329 0.120170742 0.065228432
0.310915500 0.129311442 0.071819566
0.352048397 0.137555629 0.077864818
0.391916007 0.144731373 0.082964621
0.428425014 0.150760189 0.087127127
0.461011738 0.156726316 0.091267064
0.489124894 0.162834674 0.095652752
0.511913121 0.168591008 0.100077003
0.530060410 0.172774374 0.103597872
0.542394400 0.174653128 0.105971061
0.545320451 0.172697634 0.105923623
-0.032046560 0.102930129 0.052932687
0.027122628 0.106021196 0.044175439
0.070011251 0.117115945 0.041134872
0.118211634 0.124476381 0.039208315
0.179442748 0.136777192 0.051777996
0.242364332 0.148444444 0.065761127
0.299564898 0.159858122 0.075284690
0.348519534 0.168832004 0.082029939
0.392817855 0.175958812 0.086998194
0.433832765 0.182751268 0.091605626
0.469817698 0.190093949 0.096764877
0.501355827 0.198998764 0.103069872
0.528588891 0.207832143 0.109629750
0.550444901 0.214135215 0.115235373
0.566980898 0.217422143 0.119000241
0.577352285 0.217729405 0.120891869
0.578756988 0.213545501 0.119974121
-0.023294061 0.138000503 0.058316626
0.040021870 0.142992318 0.050337002
0.086541064 0.155675814 0.046201561
0.137439504 0.163696989 0.042782187
0.194210425 0.172719941 0.047106441
0.256771296 0.184539750 0.065497436
0.324343085 0.197277814 0.081083804
0.379907399 0.206545383 0.089683130
0.426741153 0.214984879 0.096677691
0.468557924 0.223764256 0.103256568
0.504383266 0.233013555 0.110398442
0.535020530 0.242292240 0.117839187
0.560772419 0.250252575 0.124446131
0.581554234 0.255782247 0.129885375
0.597104967 0.258239001 0.133563936
0.606695056 0.257411718 0.135210693
0.607033849 0.251595825 0.133902252
-0.010672312 0.173634127 0.065021500
0.058625065 0.182219312 0.057362251
0.115858875 0.196643248 0.051293440
0.165388077 0.204660550 0.047399938
0.223536253 0.213244319 0.050215937
0.276626617 0.222651884 0.061518312
0.341631979 0.233542174 0.080655254
0.404864848 0.246296987 0.096897438
0.455074072 0.256232232 0.107204817
0.498021424 0.266300768 0.116508946
0.534516096 0.276048511 0.125094444
0.565775752 0.285629869 0.133611500
0.591489494 0.293124408 0.140617386
0.611477554 0.297759891 0.145723119
0.625902534 0.298967808 0.148730874
0.634527981 0.296957374 0.149823815
0.634010255 0.289569855 0.147949427
0.008805010 0.211420387 0.073486872
0.082990013 0.223707587 0.066373751
0.152382374 0.239444450 0.058114562
0.203424945 0.249750629 0.055665314
0.253008634 0.257581055 0.058391690
0.313154221 0.265617430 0.066668943
0.367524207 0.274984837 0.080871254
0.425976962 0.287031770 0.100049071
0.479385138 0.299103826 0.116952628
0.524150431 0.309554696 0.128937006
0.562565684 0.320156336 0.139317572
0.594690502 0.329654962 0.148363695
0.621057987 0.337311029 0.156269878
0.641150773 0.341685385 0.162163705
0.655076444 0.341829091 0.165362328
0.662642717 0.338151425 0.166041315
0.660654426 0.328435332 0.163067073
0.035054266 0.251867056 0.083058253
0.113741070 0.265968531 0.076367311
0.185312465 0.284035653 0.070151761
0.237920344 0.296083391 0.069443077
0.289675117 0.305458724 0.071251824
0.345227420 0.311718851 0.076127008
0.404978842 0.321798861 0.088765070
0.455172867 0.332230657 0.104655325
0.503045976 0.343654394 0.122728691
0.548927367 0.354854345 0.139419004
0.588861108 0.365821153 0.152644813
0.623034537 0.376519084 0.163669884
0.650023520 0.384019792 0.172079504
0.670501888 0.387992263 0.178600013
0.684704185 0.387463689 0.182545692
0.691981137 0.382473886 0.183630139
0.688163280 0.369704396 0.179766640
0.064655632 0.292790145 0.093375757
0.145294428 0.308504522 0.087598316
0.215482563 0.329704493 0.086892068
0.270633787 0.343455642 0.086334512
0.325031906 0.353950739 0.087157004
0.382097334 0.361124098 0.090313636
0.439590722 0.371904343 0.100850761
0.491902649 0.382973641 0.115262762
0.535637677 0.393724024 0.130861700
0.575536251 0.403226435 0.147131741
0.615292192 0.414541870 0.163973063
0.649611235 0.425430894 0.178795189
0.677828789 0.433150262 0.189470753
0.698660314 0.436235309 0.196050435
0.713191986 0.434317023 0.199414372
0.720305324 0.427373111 0.199842066
0.715652645 0.412441880 0.195919558
0.092522562 0.332950711 0.104200497
0.173782185 0.351392418 0.102308057
0.245864943 0.375676513 0.105371311
0.304740816 0.391046196 0.103933945
0.359636039 0.402745128 0.103790119
0.417321831 0.413768828 0.107503995
0.474723101 0.425457120 0.116577700
0.526637614 0.437998891 0.129818127
0.571701705 0.448633999 0.144002706
0.610771418 0.459258199 0.158948690
0.643585145 0.466523081 0.174231440
0.676708102 0.476360798 0.190706328
0.704662085 0.483186543 0.204755738
0.726183772 0.485381603 0.213102743
0.741436899 0.482151359 0.216382816
0.747514427 0.472219676 0.215113878
0.742220223 0.455176383 0.210557312
0.119227752 0.373528808 0.116921939
0.200625986 0.394407302 0.120515749
0.276005805 0.421064258 0.124278307
0.337108970 0.438238382 0.122291312
0.392288059 0.451537430 0.120738126
0.448198617 0.466856807 0.125848383
0.505352259 0.482136995 0.135161132
0.557344019 0.494165123 0.145988435
0.603401423 0.505868852 0.158654496
0.643617690 0.515338778 0.172146827
0.678694844 0.525803030 0.187214941
0.704563558 0.528667748 0.201005057
0.731753469 0.533574343 0.215092689
0.753179312 0.534466028 0.225562423
0.769033253 0.530235469 0.231159687
0.774780154 0.518768847 0.230921179
0.768475354 0.498817682 0.225464553
0.147763252 0.415434748 0.132897049
0.228241995 0.437111616 0.138831437
0.304272592 0.465407431 0.143616870
0.366229147 0.484403938 0.141529888
0.422252804 0.500318825 0.138718992
0.476464182 0.518280268 0.143975690
0.530823946 0.536337852 0.153141066
0.582286716 0.549532533 0.162723318
0.628308475 0.559559405 0.172797501
0.669124424 0.569702268 0.184189931
0.705181122 0.576934159 0.196390957
0.737135530 0.585862160 0.210887998
0.757831872 0.583649218 0.222140685
0.778364360 0.582875729 0.233122587
0.793232083 0.577571273 0.241376698
0.799267888 0.565548718 0.244450495
0.793406188 0.543734312 0.240436316
0.177186638 0.457442135 0.150699690
0.257146776 0.479129523 0.156074435
0.331967771 0.508681357 0.162736505
0.394648373 0.529338360 0.160706997
0.450526625 0.547494233 0.157538310
0.503031850 0.566889942 0.162204817
0.553767383 0.585775018 0.170335501
0.602202892 0.600571275 0.178275064
0.647562027 0.609676957 0.185763136
0.688777149 0.617491543 0.194632933
0.725499094 0.624962449 0.204059184
0.758148670 0.630555689 0.215062708
0.786620498 0.637979627 0.228573889
0.800156415 0.630161703 0.237641826
0.813699424 0.623211622 0.247032866
0.819722950 0.610605061 0.253074825
0.814627647 0.587675393 0.251895756
0.207401901 0.497030646 0.165862396
0.285731137 0.519252181 0.172661319
0.358584702 0.549374342 0.181379020
0.421035349 0.571026802 0.179668516
0.474823266 0.589749217 0.176836878
0.524904907 0.609373987 0.179961324
0.572954237 0.628277123 0.186577961
0.618598044 0.644237757 0.193031952
0.662319005 0.654016912 0.197764710
0.703397393 0.659330368 0.203119203
0.740532815 0.665328264 0.210861385
0.772995889 0.671542585 0.219515115
0.799836040 0.676373363 0.230194330
0.824764132 0.683142543 0.243900567
0.832507968 0.668489575 0.250553608
0.838246226 0.653961301 0.257340550
0.832875192 0.629553139 0.258667380
0.236862898 0.533927321 0.178815827
0.313802540 0.556531429 0.188198775
0.383113623 0.585553110 0.198535085
0.443022430 0.606360853 0.197272375
0.493900806 0.624487758 0.195344582
0.540769815 0.643339276 0.196823761
0.586565197 0.662073970 0.201568633
0.630233467 0.678162158 0.206072956
0.672115088 0.689085662 0.208055392
0.711890519 0.694385767 0.210414499
0.748356640 0.698891759 0.216113120
0.780061126 0.705147564 0.224218756
0.806565344 0.710501552 0.232601389
0.830908895 0.714745462 0.242725641
0.854373991 0.720757484 0.255924374
0.854923010 0.697374642 0.259543121
0.849529266 0.670512676 0.262126327
0.261403650 0.563699484 0.188816994
0.336394131 0.585929096 0.201491952
0.400028288 0.611336350 0.210611686
0.456842154 0.631739020 0.210984811
0.506666601 0.650510788 0.210756391
0.550004542 0.667595446 0.210905805
0.592831194 0.685069799 0.213357314
0.634946346 0.700721920 0.216191500
0.675451398 0.712704778 0.216323689
0.713165760 0.720009327 0.216729313
0.747902930 0.724374950 0.220554128
0.778837025 0.729165077 0.227403015
0.805775821 0.734612167 0.235187247
0.830070376 0.739026785 0.242800266
0.852893412 0.742356122 0.252137452
0.873302996 0.746370316 0.263251245
0.865307271 0.712653339 0.264177322
0.265648454 0.573952377 0.187958553
0.340912819 0.597410500 0.206158251
0.396136254 0.620296955 0.215937003
0.449318141 0.639576375 0.217193991
0.498951763 0.658420861 0.217498183
0.540751219 0.674757779 0.217095494
0.581575811 0.691656470 0.218290180
0.621845186 0.707689226 0.221345261
0.661487877 0.720973849 0.221501946
0.698662400 0.730059206 0.220507115
0.732587099 0.735234618 0.222298890
0.764070332 0.739198744 0.226858109
0.791611254 0.743851244 0.233782187
0.816088617 0.748903453 0.240796000
0.838594913 0.752557039 0.248136103
0.859549761 0.755827546 0.257579625
0.879115343 0.759821594 0.268156677
-0.044737499 -0.047141999 0.039930128
0.014912937 -0.045359749 0.045103937
0.040837374 -0.040590249 0.052734748
0.070601314 -0.033430245 0.059288125
0.107774757 -0.023478623 0.066360876
0.147994429 -0.013787375 0.071829557
0.188577265 -0.005089997 0.075586006
0.227651149 0.004003005 0.079940692
0.265325487 0.013679877 0.085707374
0.301540494 0.022997813 0.091704816
0.336084604 0.031989001 0.097586624
0.368621826 0.040212564 0.102835752
0.399232388 0.047675878 0.106993623
0.425918072 0.053655878 0.109707817
0.447646916 0.057883877 0.110779747
0.463911057 0.060951374 0.110965312
0.471092373 0.061860874 0.109666005
-0.041396126 0.025173815 0.056184623
0.016106062 0.023613308 0.057754371
0.048158128 0.027719559 0.063139945
0.082412511 0.033477500 0.066953562
0.121480882 0.041097119 0.071168751
0.161822632 0.049268056 0.075004064
0.202677250 0.057194002 0.078296505
0.242089212 0.065679945 0.083156817
0.280431569 0.075161323 0.089720502
0.317648739 0.084481195 0.096183248
0.352916062 0.093018003 0.101770498
0.386101067 0.100844756 0.106604494
0.416531622 0.107847929 0.110516936
0.442322552 0.113056950 0.112952560
0.463675410 0.116824806 0.114141628
0.479973376 0.119779319 0.114475816
0.486956239 0.120650880 0.113323689
-0.034827750 0.065869756 0.077323377
0.020709185 0.068538129 0.079881877
0.056161374 0.080236502 0.088470876
0.105223328 0.092662938 0.093666568
0.161840007 0.103381127 0.096492499
0.215776995 0.110084698 0.097734749
0.263396263 0.116612494 0.100341626
0.305523098 0.123099506 0.103232995
0.343000978 0.128892004 0.105748877
0.378494889 0.134335369 0.108349003
0.412208021 0.139435247 0.111096874
0.443415582 0.144053191 0.113745309
0.471256614 0.148283988 0.116126120
0.494992554 0.152348489 0.118287943
0.514519393 0.155796617 0.119985007
0.528560340 0.158609316 0.121227250
0.534423411 0.159809381 0.121700250
-0.028114187 0.104042821 0.090214565
0.025779253 0.106460884 0.089925937
0.060796935 0.122887135 0.095272936
0.121395208 0.136942267 0.093735501
0.190140396 0.148451447 0.101564810
0.255130082 0.161058709 0.110252373
0.309328169 0.171590120 0.116307616
0.354953587 0.179531261 0.120388120
0.397190362 0.186528519 0.123582378
0.436788619 0.192831650 0.126533747
0.472345293 0.198264495 0.129433885
0.503860831 0.204071313 0.132967874
0.530933917 0.210029140 0.136880681
0.552725792 0.214697823 0.140263930
0.568788767 0.217197701 0.142419636
0.579198658 0.217283338 0.143264562
0.581076205 0.213909641 0.142220438
-0.023195375 0.142030388 0.100760996
0.030787187 0.144960925 0.099354751
0.070079744 0.161852866 0.096884742
0.136865005 0.177184880 0.090547942
0.209070742 0.189232126 0.093169123
0.272830576 0.199233443 0.108317822
0.336921155 0.211798877 0.120409504
0.389666051 0.221150756 0.127172127
0.436063409 0.229175001 0.131879866
0.478314459 0.237375438 0.136511683
0.514737248 0.245482773 0.141791999
0.546048820 0.253474504 0.147530884
0.572432518 0.260564476 0.152871117
0.593663037 0.265309632 0.157064438
