assets/photofx/luts/cinema-style/Cinema Style 07.cube
TITLE "17x17x17 Adobe/IRIDAS cube 3D LUT exported with GrossGrade v0.2.01 (beta) 64 bit"
DOMAIN_MIN 0 0 0
DOMAIN_MAX 1 1 1
LUT_3D_SIZE 17
0.000000000 0.000000000 0.000000000
0.011369063 0.002098125 0.001743750
0.030072376 0.004200625 0.002992250
0.071894392 0.006710501 0.004225688
0.134920999 0.012274750 0.007057501
0.202830061 0.018886687 0.010164374
0.270128518 0.026442628 0.013775626
0.335482776 0.035635568 0.018541314
0.399130523 0.046417005 0.023950500
0.462381870 0.058984749 0.029825188
0.525474489 0.075086124 0.036778253
0.588322937 0.094838314 0.044842627
0.652131021 0.115517750 0.053568751
0.717032492 0.137262881 0.063184701
0.782982349 0.158211634 0.073742643
0.850932717 0.177010328 0.085182577
0.923901975 0.197160006 0.097640999
0.003318750 0.012742500 0.001936875
0.012692813 0.013971562 0.002448750
0.035869125 0.017370813 0.003504750
0.084812887 0.020949939 0.005358188
0.147375509 0.026393687 0.008062501
0.213012874 0.033197127 0.011038188
0.278335690 0.040950440 0.014722815
0.342209518 0.049591944 0.019466816
0.404802769 0.060216878 0.024817001
0.466978759 0.073361255 0.030761687
0.528972507 0.089511998 0.037797127
0.591074824 0.108163632 0.045819812
0.654341042 0.127265066 0.054489192
0.718758643 0.147429332 0.064121261
0.784376919 0.167089209 0.074715570
0.852087259 0.184995443 0.086016074
0.924630404 0.204219371 0.098330997
0.007158125 0.028868627 0.002690750
0.014245813 0.031547561 0.003031125
0.037287373 0.042521499 0.004385625
0.101270705 0.060698807 0.007765001
0.168430388 0.072163507 0.010871250
0.233190492 0.081090003 0.014077688
0.295928746 0.090028755 0.018160377
0.357601851 0.099206634 0.022909440
0.418262780 0.108934879 0.028236626
0.478469759 0.120613679 0.034388810
0.538668215 0.134072617 0.041505374
0.599340618 0.148685560 0.049439248
0.661302507 0.164037377 0.058125753
0.724539280 0.180283785 0.067628071
0.789331436 0.196303383 0.078050390
0.856372774 0.211814761 0.089096203
0.928412616 0.228608996 0.101114877
0.010491126 0.057530381 0.003655875
0.016166687 0.062248260 0.004010001
0.035120562 0.078687444 0.004662438
0.098161146 0.109982580 0.006583314
0.184157446 0.138767391 0.012731438
0.253564924 0.150940821 0.018337188
0.315741569 0.158271194 0.023271628
0.375344843 0.165350080 0.028387005
0.433830649 0.173282444 0.034040693
0.491900116 0.182409570 0.040353067
0.550436854 0.192598879 0.047470003
0.609915853 0.203371644 0.055329066
0.670611203 0.215155944 0.063995063
0.732650697 0.227655828 0.073429883
0.796598673 0.239747584 0.083539069
0.862666070 0.252521008 0.094087198
0.934055030 0.266630381 0.105625376
0.013505750 0.104994506 0.004874250
0.018278187 0.109705627 0.005095875
0.036614377 0.126295120 0.005713751
0.090418711 0.153331637 0.006891751
0.176416516 0.191370502 0.010249501
0.266387939 0.220740885 0.019626874
0.333388865 0.230935380 0.027221628
0.392205209 0.235834494 0.034091502
0.448954493 0.240701497 0.040847003
0.505529702 0.246795684 0.047829002
0.562652886 0.254213631 0.055244498
0.620910287 0.262480259 0.063201688
0.680487812 0.271607757 0.071760498
0.741601050 0.281262815 0.080987446
0.804887414 0.290701866 0.090647884
0.870176494 0.301063299 0.100640699
0.940909982 0.312775999 0.111516997
0.019147750 0.160125256 0.006309562
0.024008501 0.164100945 0.006483312
0.044444688 0.178636491 0.007161313
0.095944077 0.204535335 0.008769563
0.167930573 0.236298323 0.010964375
0.257438749 0.274367005 0.015107375
0.342219710 0.299298882 0.026733004
0.405766636 0.306830078 0.037274882
0.462357432 0.309786081 0.046679750
0.517737269 0.312846243 0.055246126
0.573877037 0.317134559 0.063522622
0.631333649 0.322725505 0.071964815
0.690299690 0.329302996 0.080603376
0.750848413 0.336630285 0.089584939
0.813340425 0.344473243 0.098824389
0.877998412 0.353190184 0.108269632
0.948079944 0.363124251 0.118413061
0.032453388 0.216081530 0.009164252
0.038377136 0.219758093 0.009418003
0.062723882 0.233479142 0.010634128
0.112007141 0.258141696 0.013392880
0.177063018 0.288534909 0.016947504
0.249357194 0.318284810 0.020061756
0.332960665 0.352299511 0.024366757
0.410378098 0.372230768 0.035459634
0.471475989 0.377508283 0.047997128
0.527672946 0.379393786 0.059930317
0.583355010 0.381257147 0.070459753
0.640297651 0.384194255 0.080046684
0.698937356 0.388242662 0.089231499
0.759379148 0.393290877 0.098286264
0.821503282 0.399393260 0.107313640
0.886040092 0.406518966 0.116413325
0.955889642 0.415317386 0.126025870
0.059655517 0.273137033 0.015483006
0.066452205 0.276608974 0.015990758
0.092960402 0.289980710 0.018137444
0.137384892 0.312524408 0.022578321
0.195729271 0.340973407 0.028693259
0.259335190 0.368716538 0.034312136
0.324966788 0.393393904 0.037456699
0.400274873 0.422434270 0.039634325
0.472046494 0.438816786 0.048117198
0.532869279 0.443104595 0.060326252
0.590204775 0.444635332 0.073691688
0.647510111 0.445968091 0.085714377
0.706004202 0.448138714 0.096199684
0.766289294 0.451308846 0.105857693
0.828498662 0.455661476 0.115145326
0.893296719 0.461216033 0.124274701
0.963105023 0.469059587 0.133897126
0.100016013 0.331349492 0.027961504
0.106905073 0.334766328 0.028942753
0.131125629 0.346937776 0.032544002
0.169703782 0.366787195 0.039289758
0.220081508 0.391877770 0.048125505
0.276374191 0.417397738 0.056243882
0.333630145 0.440011501 0.061408885
0.391964197 0.460191786 0.062070630
0.460763514 0.485323519 0.059865005
0.529776752 0.500277996 0.063160881
0.592221379 0.504842639 0.073270746
0.651630759 0.506500483 0.086816877
0.711273074 0.507877231 0.099847250
0.771839857 0.509888053 0.111113638
0.834230721 0.513007641 0.121345133
0.899255872 0.517406046 0.131186575
0.969187498 0.524399996 0.141586006
0.146264806 0.389615357 0.050530940
0.152082011 0.392645001 0.051791310
0.171881258 0.402887672 0.056370564
0.204825640 0.419843763 0.064134561
0.247886196 0.441096485 0.073814809
0.296857059 0.463445127 0.083118945
0.347816467 0.484186232 0.089685626
0.398759574 0.502401233 0.091756314
0.451936185 0.519992709 0.088480122
0.517119527 0.543356478 0.081255503
0.585983753 0.558798969 0.078206375
0.651149035 0.564393640 0.085543692
0.713223279 0.566654205 0.098504938
0.775625944 0.568372071 0.112487569
0.838849664 0.570809424 0.124918193
0.904214323 0.574529886 0.136528388
0.974323690 0.581067801 0.148266435
0.191146493 0.446140260 0.081871003
0.195594177 0.448427737 0.083023369
0.211696744 0.456628263 0.087268002
0.239501491 0.470440060 0.094095372
0.276470900 0.487967759 0.102476627
0.319197237 0.506981373 0.110839874
0.364412636 0.525547266 0.117541380
0.410278141 0.542672753 0.121010311
0.456703007 0.558469355 0.119493127
0.507523119 0.575696349 0.112460002
0.571842372 0.599216461 0.100776121
0.642212093 0.616073966 0.092883319
0.710765839 0.623091161 0.097222626
0.776313484 0.626283944 0.109751768
0.841818571 0.628702283 0.124764264
0.908381581 0.632160127 0.139152199
0.978689969 0.638616621 0.152933121
0.231736809 0.498902440 0.114761934
0.235474631 0.500667453 0.115689129
0.249165311 0.507161319 0.119005933
0.272357702 0.517907739 0.124330439
0.303963125 0.532002211 0.131074131
0.341319442 0.547962308 0.137990817
0.381736308 0.564477563 0.144038633
0.423281610 0.580538034 0.148006126
0.465405524 0.595958531 0.148619860
0.509442568 0.611356735 0.144036815
0.560549259 0.629923999 0.133943632
0.626402736 0.654535532 0.118702374
0.699531078 0.673092544 0.107123189
0.772379577 0.681928098 0.109618828
0.842178345 0.686394334 0.121774577
0.911171794 0.690308988 0.137892261
0.982164681 0.696901321 0.154470310
0.266871005 0.547154486 0.145926014
0.269991070 0.548515379 0.146614313
0.281716019 0.553590238 0.149163634
0.301391155 0.562035501 0.153308764
0.328750998 0.573510528 0.158742994
0.361426443 0.587002873 0.164453194
0.397617280 0.601579905 0.169597372
0.435587287 0.616496682 0.173553631
0.474470735 0.631375730 0.175250009
0.514815152 0.646487176 0.173290819
0.558939517 0.662874639 0.166208372
0.612515032 0.683764577 0.153661504
0.681720734 0.710388958 0.135648757
0.759760559 0.731342494 0.121710375
0.837402940 0.742329597 0.122203268
0.911356211 0.748849392 0.134629384
0.983653009 0.756298006 0.152333498
0.292551756 0.590746403 0.175816894
0.295219511 0.591847658 0.176268578
0.305116981 0.595851779 0.177932844
0.322360039 0.602836251 0.180837154
0.346615404 0.612498760 0.184827343
0.376030952 0.624228477 0.189274415
0.409110457 0.637170613 0.193499520
0.444594473 0.650916040 0.197236031
0.481421620 0.665241897 0.199817598
0.519832134 0.680264592 0.199813470
0.561114550 0.696544826 0.195795894
0.607818186 0.715228081 0.186682656
0.665664554 0.739317715 0.171825036
0.740334988 0.768857718 0.151396513
0.824019253 0.792262614 0.135846645
0.906292737 0.806084931 0.135795072
0.981735229 0.816593885 0.149460822
0.310203493 0.632551551 0.202264771
0.312505990 0.633406997 0.202554211
0.321261883 0.636729419 0.203656152
0.337138593 0.642709613 0.205720335
0.359134614 0.650892079 0.208476126
0.386644810 0.661192417 0.211632326
0.418058902 0.672877431 0.215159401
0.451931149 0.685624540 0.218945771
0.487322152 0.699341714 0.222224891
0.524445713 0.714127839 0.223750517
0.564303994 0.730419040 0.222296789
0.608244479 0.748949528 0.216779917
0.658978522 0.770804107 0.206019402
0.722618222 0.798687100 0.189254403
0.803313255 0.830880046 0.166935921
0.892828703 0.857671261 0.150870100
0.974730730 0.876125455 0.152513415
0.321336627 0.673837662 0.224516079
0.323441386 0.674585700 0.224742264
0.331430912 0.677340925 0.225447133
0.346472174 0.682668030 0.226798072
0.367631018 0.689967990 0.228665516
0.393936694 0.699162543 0.230989650
0.424084753 0.709750056 0.234132454
0.457041562 0.721546471 0.238273069
0.491851360 0.734636843 0.242458940
0.528485179 0.749233902 0.245398894
0.567741632 0.765649915 0.246111512
0.610509455 0.784258842 0.243696094
0.658447742 0.805765927 0.237007707
0.714691639 0.831368685 0.225018024
0.785246670 0.862982750 0.206844598
0.870339572 0.896876872 0.195977822
0.960001945 0.927635252 0.183313146
0.327841014 0.718936026 0.241842002
0.329907268 0.719591320 0.241887927
0.337339878 0.721911728 0.242197245
0.351592422 0.726403534 0.242917806
0.371968985 0.732849002 0.244742751
0.397728562 0.741086602 0.247849628
0.427657008 0.750975609 0.251745254
0.460710466 0.762286186 0.256577522
0.495840490 0.775047481 0.261613011
0.532738030 0.789440274 0.265839577
0.572047234 0.805780530 0.268600881
0.614681304 0.824647963 0.268986195
0.661838233 0.846479237 0.265866756
0.715380609 0.871306300 0.258324176
0.777879715 0.899983525 0.245655134
0.854282022 0.933176816 0.239538714
0.926837027 0.952643991 0.403872013
0.000735938 0.001635000 0.008125313
0.010234687 0.002401875 0.012861563
0.027736625 0.003329250 0.013023312
0.068781383 0.004890688 0.013803750
0.133703366 0.008732687 0.015489563
0.202602372 0.014246751 0.018135313
0.269151956 0.020210439 0.021234063
0.334248096 0.027543254 0.024866628
0.398312688 0.037277441 0.029466312
0.461556613 0.049379252 0.035239499
0.524344623 0.063750252 0.041775685
0.587656081 0.082521752 0.049112622
0.652427971 0.106005192 0.057880498
0.717308700 0.128860086 0.067448437
0.783365011 0.150099218 0.077951014
0.851795316 0.171550706 0.089423828
0.924726963 0.193201870 0.101921625
0.002039063 0.013600313 0.011875313
0.011645625 0.014421562 0.013019063
0.034982938 0.017280936 0.014916813
0.086699888 0.020374628 0.016285187
0.151466370 0.024896875 0.018466875
0.217538878 0.030369248 0.021114938
0.282286942 0.036142312 0.024051562
0.345582634 0.043644253 0.028019063
0.407282412 0.054005567 0.033208001
0.468428940 0.066316061 0.038877502
0.529981434 0.080161572 0.044906933
0.592400134 0.098109253 0.052136999
0.655981064 0.119787060 0.060862377
0.719885290 0.139755324 0.070392005
0.785763621 0.160787314 0.080935076
0.853650570 0.181420773 0.092204832
0.926095724 0.200775936 0.104248501
0.005108438 0.029702814 0.009417063
0.013237125 0.032169063 0.010747188
0.036388941 0.042846374 0.013215562
0.103617519 0.061569307 0.018849626
0.172343120 0.071816057 0.021822497
0.237880439 0.079124756 0.024346063
0.300869763 0.086047120 0.027389502
0.361902922 0.093982950 0.031726316
0.421772510 0.103178568 0.036998004
0.481273562 0.113943875 0.042493690
0.541077971 0.126483068 0.048668809
0.601653695 0.141624689 0.056278128
0.663373291 0.158519000 0.064965442
0.726162732 0.174313456 0.074165381
0.790945351 0.191636890 0.084507376
0.857801318 0.209119394 0.095549203
0.929696798 0.225566313 0.107069120
0.008190625 0.056807760 0.008186501
0.014892626 0.061690886 0.009464125
0.033258002 0.078226700 0.010740500
0.096748456 0.109920718 0.014643000
0.186250508 0.139697641 0.024361247
0.256853193 0.151001781 0.028896376
0.319266438 0.157325521 0.033071067
0.378784090 0.163601890 0.037807882
0.437033772 0.170663148 0.042854816
0.494954318 0.178774878 0.048540067
0.553252816 0.188538581 0.055149879
0.612444222 0.199603081 0.062806249
0.672837555 0.211520270 0.071354873
0.734608412 0.223636106 0.080487259
0.798406959 0.236811712 0.090381444
0.864308894 0.250507265 0.100744069
0.935348213 0.264177769 0.111738250
0.010845126 0.103260882 0.007342875
0.016491124 0.108752005 0.008461876
0.033710312 0.125226885 0.009465750
0.086779021 0.152739763 0.011270689
0.175397813 0.191462010 0.016710563
0.267934263 0.221550882 0.030341811
0.335686773 0.231300309 0.038039941
0.394647777 0.235606313 0.043824814
0.451507270 0.239910200 0.049537253
0.508011758 0.245636180 0.055977128
0.564928949 0.252844334 0.063305125
0.623000622 0.261068612 0.071191818
0.682484508 0.269881576 0.079555817
0.743488014 0.279323131 0.088439062
0.806573331 0.289279133 0.097809762
0.871726751 0.299767852 0.107419387
0.942161560 0.311084747 0.117732622
0.015883500 0.158176005 0.007801375
0.021317001 0.162930429 0.008661876
0.040356997 0.177196324 0.009644375
0.091514215 0.203474209 0.011817063
0.165168568 0.236022621 0.014927813
0.256686568 0.274505883 0.021418437
0.343291134 0.299973875 0.037310816
0.407451093 0.307175189 0.045952003
0.464205265 0.309757292 0.054329503
0.519621134 0.312556744 0.062931001
0.575677395 0.316769660 0.071531877
0.633063734 0.322312683 0.080019750
0.691919386 0.328788191 0.088497810
0.752262950 0.336088896 0.097156130
0.814632952 0.344081312 0.106051572
0.879343569 0.352593422 0.115014888
0.949263215 0.362301648 0.124666937
0.027102761 0.213189021 0.009874565
0.032565888 0.217090592 0.010518939
0.056023758 0.230840653 0.011706440
0.105676904 0.255887091 0.014724378
0.172807649 0.287508279 0.018801754
0.247096241 0.318172216 0.022591691
0.332216591 0.352423906 0.028620817
0.411081344 0.372734398 0.043856446
0.472700953 0.377796650 0.055820003
0.529125929 0.379408449 0.067054436
0.584822297 0.381177872 0.077747121
0.641744852 0.384060204 0.087563872
0.700244188 0.388170183 0.096729062
0.760443628 0.393262655 0.105584882
0.822604358 0.399409562 0.114282571
0.887124538 0.406400710 0.122966200
0.956705272 0.415103018 0.132206500
0.052693833 0.269874901 0.015744943
0.059087962 0.273434222 0.016509382
0.085302144 0.286787540 0.018563570
0.130989909 0.309951723 0.023117635
0.191018686 0.339442074 0.029641446
0.256398767 0.368264884 0.035790704
0.323274016 0.393358648 0.039503824
0.399681747 0.422513068 0.042610325
0.472516179 0.439155906 0.054296445
0.533785284 0.443318278 0.066464871
0.591339707 0.444688439 0.079443440
0.648656368 0.445956528 0.092091501
0.707150578 0.448131919 0.102862820
0.767282307 0.451345563 0.112548634
0.829491794 0.455737859 0.121666141
0.894175708 0.461335450 0.130545512
0.963624001 0.469105899 0.139887556
0.092648074 0.328103155 0.027825441
0.099677578 0.331687570 0.029062130
0.123969756 0.343842387 0.032606006
0.163943782 0.364382386 0.039537571
0.215679377 0.390266448 0.048804317
0.273448259 0.416720897 0.057507068
0.331861198 0.439923644 0.063121825
0.390805781 0.460194767 0.064062633
0.460267842 0.485375524 0.062375881
0.530088305 0.500531673 0.068087630
0.592942595 0.505020976 0.078332499
0.652533472 0.506625354 0.092110813
0.712184906 0.507913589 0.105394877
0.772753775 0.509930372 0.116951138
0.835037827 0.513060153 0.127247691
0.900038660 0.517547429 0.137028456
0.969724834 0.524475694 0.147239313
0.140198439 0.386889637 0.050124500
0.146201566 0.390047520 0.051662184
0.166234419 0.400383383 0.056307498
0.199899524 0.417790651 0.064267941
0.243871510 0.439599752 0.074319378
0.293909520 0.462587714 0.084103562
0.345861405 0.483914822 0.091074936
0.397500038 0.502436638 0.093416691
0.451062948 0.520021498 0.090237193
0.516647458 0.543407619 0.083211616
0.586177766 0.559009194 0.081739992
0.651683509 0.564573169 0.089982122
0.713998973 0.566768050 0.102687009
0.776380002 0.568445742 0.117303893
0.839523911 0.570852518 0.130046010
0.904906154 0.574593663 0.141793951
0.974819124 0.581125557 0.153494492
0.186802879 0.444187611 0.081492066
0.191299126 0.446592152 0.082946122
0.207546055 0.454867780 0.087322868
0.235709265 0.468963474 0.094350129
0.273136735 0.486822665 0.102962255
0.316628426 0.506271422 0.111662999
0.362570703 0.525188148 0.118659250
0.408956110 0.542617619 0.122388825
0.455797195 0.558535457 0.121053502
0.506818950 0.575708568 0.114057496
0.571428955 0.599263728 0.102398746
0.642325699 0.616224885 0.095019065
0.711225331 0.623218596 0.100303814
0.776996732 0.626354456 0.113667518
0.842472374 0.628746927 0.129027069
0.908946395 0.632218480 0.143756330
0.978982151 0.638687551 0.157677814
0.228213683 0.497382104 0.114585690
0.232114613 0.499348044 0.115853816
0.245835617 0.505892396 0.119235747
0.269243568 0.516829014 0.124694750
0.301162988 0.531138718 0.131580994
0.339081526 0.547404587 0.138712183
0.380091310 0.564168215 0.144978330
0.422077268 0.580415547 0.149149939
0.464555204 0.595959067 0.149952009
0.508800089 0.611389875 0.145504236
0.559964895 0.629904330 0.135436803
0.626005828 0.654574931 0.120312057
0.699664235 0.673170805 0.109052122
0.772846341 0.682029903 0.113018759
0.842739999 0.686439812 0.125133380
0.911664069 0.690427840 0.141790390
0.982385278 0.697027266 0.158675313
0.264233381 0.546177208 0.146102890
0.267665088 0.547747612 0.147161514
0.279461473 0.552922368 0.149770945
0.299115360 0.561385572 0.153945580
0.326559246 0.572925091 0.159441948
0.359596491 0.586559415 0.165273577
0.396122813 0.601314187 0.170526370
0.434383094 0.616369307 0.174596563
0.473580807 0.631304741 0.176433444
0.514159441 0.646497130 0.174645513
0.558400452 0.662898004 0.167684957
0.612018168 0.683719397 0.155204207
0.681300640 0.710418224 0.137341574
0.759897828 0.731379092 0.123673506
0.837618351 0.742509604 0.124712326
0.911847115 0.748891115 0.137817323
0.983871579 0.756463945 0.156006992
0.290233701 0.590015352 0.176268950
0.293068707 0.591247976 0.177084208
0.302866787 0.595243514 0.178739473
0.320392102 0.602327228 0.181681395
0.344783515 0.612083077 0.185706720
0.374511421 0.623894811 0.190243274
0.407851547 0.636992812 0.194528967
0.443571121 0.650831342 0.198313966
0.480633587 0.665155530 0.200971723
0.519288182 0.680185795 0.201112419
0.560682178 0.696552694 0.197235540
0.607452631 0.715195537 0.188211530
0.665209413 0.739172697 0.173482910
0.739938796 0.768868983 0.153207585
0.824060917 0.792354584 0.137888834
0.906418204 0.806131065 0.138391703
0.981880724 0.816628039 0.152592435
0.308564931 0.632125735 0.203043461
0.311235934 0.633271337 0.203754604
0.319905579 0.636484623 0.204815894
0.335841119 0.642532468 0.206856832
0.357884943 0.650752902 0.209596261
0.385521948 0.661026597 0.212757200
0.417067528 0.672798634 0.216262758
0.451113284 0.685573101 0.220063329
0.486688882 0.699279130 0.223397583
0.523906648 0.714070499 0.225026965
0.563866735 0.730419397 0.223705098
0.607830942 0.748961508 0.218286529
0.658583462 0.770754993 0.207655653
0.722278237 0.798550189 0.191019356
0.803200305 0.830868185 0.168884739
0.892836154 0.857789159 0.153065294
0.974818826 0.876179814 0.155141041
0.319895387 0.673603296 0.225543827
0.322230399 0.674512625 0.226215333
0.330204427 0.677276194 0.226936087
0.345354736 0.682598233 0.228235319
0.366589516 0.689980924 0.230030075
0.392997801 0.699209154 0.232248023
0.423330307 0.709873259 0.235244587
0.456377536 0.721678674 0.239338830
0.491324157 0.734746277 0.243609011
0.528089404 0.749305129 0.246665895
0.567379832 0.765671670 0.247494698
0.610195398 0.784297049 0.245193109
0.658151209 0.805772066 0.238622025
0.714384317 0.831306458 0.226745889
0.784792423 0.862908900 0.208716109
0.870239973 0.896865964 0.198124558
0.959961832 0.927758217 0.185690016
0.326841652 0.718925714 0.242978245
0.329159141 0.719597876 0.243561387
0.336580396 0.722080171 0.243763059
0.350879252 0.726590037 0.244394690
0.371326059 0.733081520 0.246122360
0.397088319 0.741413474 0.249065742
0.427058905 0.751270890 0.252837121
0.460197657 0.762528002 0.257607251
0.495462447 0.775168359 0.262728482
0.532431304 0.789463162 0.267106444
0.571746945 0.805832624 0.269988745
0.614453197 0.824719548 0.270472437
0.661676764 0.846476972 0.267433494
0.715184152 0.871283412 0.260009050
0.777770638 0.899955034 0.247440383
0.854045093 0.933151960 0.241592720
0.926879227 0.952704012 0.406765133
0.000850625 0.004443375 0.021254750
0.007058500 0.005546250 0.037071124
0.024795374 0.004747750 0.042644747
0.059703633 0.004054250 0.038808934
0.123390757 0.005989500 0.041049749
0.194480821 0.009422312 0.045081690
0.262639523 0.013571251 0.048855502
0.328032136 0.019037627 0.052931942
0.391952515 0.025821250 0.057302877
0.455105990 0.033661440 0.061666936
0.518106341 0.042932376 0.065937497
0.581853747 0.054784123 0.070110314
0.647523284 0.071600504 0.075565256
0.714375973 0.093512326 0.083759069
0.782220066 0.118072644 0.093443260
0.851635098 0.142007843 0.102660701
0.926235378 0.169747874 0.115149125
0.001678625 0.016056938 0.034522999
0.009137062 0.018776063 0.044620626
0.028468190 0.017449938 0.049047999
0.076701447 0.017191000 0.047079004
0.144207358 0.019115314 0.047823809
0.212624937 0.023292188 0.050246064
0.278266490 0.028196126 0.053408124
0.341336221 0.034016378 0.057119939
0.403026223 0.041276876 0.061293811
0.464525431 0.050009370 0.065583631
0.526520848 0.059980310 0.069651753
0.589288592 0.072102070 0.073955685
0.653387308 0.088842385 0.079833120
0.718499780 0.109526083 0.087614760
0.785237670 0.131622016 0.096465193
0.854086101 0.153570578 0.105123267
0.927527964 0.179657310 0.117761247
0.002809375 0.039877627 0.036124002
0.010469938 0.042803250 0.039747499
0.030915126 0.047683626 0.047553502
0.096600078 0.060376626 0.057143629
0.170483992 0.068729378 0.061172251
0.239801615 0.074855246 0.063650623
0.304376006 0.080663875 0.066107497
0.366175592 0.087084815 0.069339871
0.426074266 0.094755255 0.073153377
0.485013187 0.104139812 0.077335939
0.544151008 0.114844628 0.081567995
0.604279757 0.126813367 0.085956000
0.666069865 0.141003877 0.091176882
0.729174018 0.156227127 0.097352132
0.794148624 0.172666505 0.104286261
0.861349106 0.189670935 0.112288952
0.932589233 0.210737377 0.124666996
0.006257438 0.070157751 0.027936498
0.012729375 0.075348318 0.028888812
0.030785063 0.089003377 0.030648500
0.093852766 0.113029778 0.041209377
0.186444193 0.141325012 0.064104870
0.258592874 0.151257828 0.071248814
0.322464675 0.156343833 0.074448816
0.383010536 0.161032826 0.077119812
0.441825718 0.166495383 0.080415308
0.499954104 0.173029572 0.084090620
0.558271468 0.180794507 0.087840937
0.617417574 0.189699322 0.092230372
0.677710652 0.199982330 0.097580872
0.739388406 0.211058974 0.103416070
0.803093195 0.223483592 0.110317819
0.868611574 0.237412214 0.119172066
0.938929737 0.253227860 0.129779130
0.009018501 0.109697625 0.021372875
0.014523250 0.114789248 0.021965124
0.031512626 0.130805880 0.023502626
0.082974583 0.156033397 0.027344253
0.174994767 0.193396509 0.041643750
0.270957887 0.224030584 0.071228251
0.338939250 0.232655764 0.080934122
0.398279846 0.236070633 0.085215747
0.455546379 0.239531741 0.087998502
0.512450576 0.243905619 0.090625063
0.569857597 0.249496609 0.094420500
0.628370941 0.256210387 0.099422067
0.688070893 0.263654649 0.104943506
0.749010205 0.272016644 0.110668384
0.811662912 0.281534374 0.117665514
0.876337945 0.292032361 0.126842260
