assets/photofx/luts/cinema-style/Cinema Style 10.cube
TITLE "17x17x17 Adobe/IRIDAS cube 3D LUT exported with GrossGrade v0.2.01 (beta) 64 bit"
DOMAIN_MIN 0 0 0
DOMAIN_MAX 1 1 1
LUT_3D_SIZE 17
0.002689000 0.000000000 0.000000000
0.058595877 0.019491563 0.016218750
0.101643756 0.036654748 0.032950252
0.146580324 0.051054876 0.048641004
0.192284748 0.063391998 0.060638748
0.238320008 0.075277500 0.072957814
0.284486890 0.087751880 0.087792501
0.329073846 0.100339882 0.103328757
0.373565495 0.113609001 0.118591502
0.419027567 0.126672938 0.133013815
0.467492729 0.139544994 0.147484884
0.522138655 0.154005304 0.163573623
0.582860470 0.169962004 0.180921763
0.651656747 0.189511538 0.201458097
0.727754951 0.214261651 0.225006402
0.805876255 0.241496399 0.250069588
0.871849000 0.271427006 0.275593013
0.012281500 0.060131248 0.031246876
0.046463691 0.063343123 0.033524998
0.103222817 0.068526685 0.045413375
0.149285823 0.075385064 0.056811877
0.194812641 0.083166309 0.067775749
0.240823254 0.091483943 0.079732381
0.286653161 0.101089068 0.093550317
0.331097901 0.112092949 0.108567320
0.375510216 0.124506325 0.123939812
0.420927644 0.136831313 0.138413310
0.469431698 0.149094000 0.152693242
0.524073958 0.163062200 0.168475494
0.584834933 0.178568006 0.185458496
0.653760135 0.197783083 0.205774337
0.730203211 0.221690461 0.228987888
0.808316827 0.248327643 0.253502637
0.873716474 0.277650118 0.278605193
0.016879499 0.102674127 0.046516251
0.033972062 0.105144002 0.046107247
0.085803874 0.110465504 0.057488874
0.149246573 0.114104629 0.071387626
0.197689503 0.119187996 0.082464881
0.244766504 0.124798372 0.093699813
0.290989399 0.130965874 0.106279001
0.335907966 0.138820320 0.119699009
0.380599409 0.148432881 0.133699253
0.426296622 0.159398064 0.147958994
0.475110769 0.171442628 0.162604868
0.530066967 0.185311556 0.178538993
0.591481745 0.201071873 0.195765764
0.661060214 0.220429346 0.216241032
0.738416016 0.243371278 0.239254653
0.816655517 0.268958896 0.262638032
0.880749106 0.296165258 0.286010742
0.017920313 0.145003140 0.059086815
0.028620621 0.147116140 0.060448878
0.061704494 0.151863813 0.067492381
0.130386442 0.159347758 0.081164680
0.196097493 0.162329763 0.094740063
0.247062743 0.165852949 0.108493805
0.294787794 0.169832319 0.121454880
0.341230035 0.174618810 0.134460062
0.387319088 0.181730255 0.147552058
0.433557570 0.190421700 0.160496622
0.482450426 0.200693518 0.173839867
0.537881613 0.213526770 0.188853890
0.600791097 0.229094207 0.205836266
0.671967626 0.248646542 0.226064146
0.750263691 0.272830963 0.249586657
0.827926159 0.300042510 0.274156332
0.890532911 0.327181995 0.297518820
0.017281499 0.188179493 0.076171257
0.024181686 0.189576000 0.077366561
0.047066998 0.193733752 0.082605623
0.104733452 0.200586304 0.093798056
0.179690510 0.209584996 0.107096493
0.244442075 0.211288437 0.119469881
0.296303391 0.213280007 0.134688497
0.346114039 0.215808451 0.149676248
0.394469023 0.220343500 0.163968503
0.442091316 0.227786437 0.176902622
0.491850376 0.237332880 0.189243376
0.548252881 0.249619141 0.202958882
0.612787545 0.265363008 0.219210997
0.685047805 0.285391688 0.238690391
0.762635708 0.310187906 0.261434793
0.840225935 0.338567019 0.287391603
0.901603520 0.365851998 0.311951250
0.014259312 0.232336119 0.095284879
0.017764250 0.233264059 0.096209683
0.029987624 0.236491755 0.099837556
0.078118145 0.242631063 0.109549813
0.158452064 0.251568258 0.124472938
0.231835946 0.260391116 0.136344999
0.297116876 0.261506438 0.147808760
0.349470884 0.263648331 0.163475513
0.399269760 0.266613483 0.179724887
0.449823409 0.272450358 0.195208311
0.502930760 0.281706810 0.208272696
0.561965168 0.294668376 0.221234873
0.628564000 0.311055392 0.236760512
0.701590002 0.330635428 0.255791783
0.777085721 0.354239166 0.277694285
0.852983534 0.382052183 0.303658515
0.912450373 0.409372807 0.328609437
0.013613376 0.277156770 0.115970507
0.015500562 0.277818322 0.116747074
0.022197625 0.280185997 0.119504131
0.047939006 0.286801964 0.127658516
0.125838369 0.295696139 0.143200010
0.210728109 0.304755509 0.157894701
0.284116298 0.314983636 0.170104384
0.350888789 0.316886961 0.181094512
0.404501677 0.319557011 0.195699885
0.455677003 0.324215382 0.211761832
0.513461113 0.332946897 0.228725895
0.577272952 0.345660269 0.243530825
0.646569192 0.362291902 0.258903503
0.720142543 0.381421238 0.277737141
0.792978168 0.403678179 0.299607158
0.865150332 0.429876298 0.324121773
0.922329128 0.456060648 0.347586632
0.015265063 0.321989149 0.135916203
0.016619375 0.322492421 0.136567205
0.021251749 0.324462146 0.139038637
0.035084192 0.329847306 0.145282015
0.080566809 0.338693738 0.158121258
0.185124859 0.348177224 0.180943146
0.266246378 0.358266741 0.193998814
0.341150224 0.369977206 0.206998572
0.406295449 0.373084873 0.217339575
0.463744640 0.377361596 0.230651200
0.521468878 0.386023849 0.246819645
0.589030683 0.399407774 0.265768379
0.661308527 0.415762275 0.283406705
0.736316025 0.434761822 0.302573055
0.808565974 0.456569999 0.324464798
0.876680434 0.481028587 0.346991330
0.932298481 0.505561590 0.368284553
0.017216999 0.365443528 0.153652504
0.018321812 0.365869522 0.154246628
0.022071874 0.367471397 0.156562388
0.030686192 0.371527761 0.161720514
0.061864253 0.379930496 0.173361748
0.150035322 0.390061021 0.196514636
0.252985388 0.400804013 0.219552889
0.329241812 0.412061006 0.232228011
0.403182507 0.424541473 0.244145006
0.466963172 0.429915905 0.254838198
0.531971812 0.438558012 0.268150628
0.597298920 0.452863097 0.285888761
0.670085073 0.470320225 0.306551278
0.745911717 0.489428103 0.326795340
0.819727421 0.511384904 0.348093420
0.885953784 0.534587622 0.369369596
0.940867484 0.557616472 0.390248477
0.018941438 0.407712698 0.171247497
0.019897062 0.408069998 0.171726570
0.023198999 0.409354359 0.173594683
0.029198879 0.412373602 0.177901372
0.050687816 0.419985503 0.188511863
0.128504992 0.431917250 0.212801248
0.240451634 0.444292009 0.243009374
0.323887229 0.455746949 0.257548869
0.396794528 0.468136877 0.269709587
0.469153613 0.481625795 0.281602502
0.535053730 0.491058171 0.294133306
0.607117414 0.505119264 0.308622539
0.676105738 0.523603678 0.327748954
0.750501692 0.543434978 0.348392695
0.824451327 0.565248430 0.368879795
0.890710890 0.587819695 0.389380008
0.944725037 0.609936118 0.410582304
0.020874001 0.451583743 0.190487623
0.021739874 0.451867461 0.190846682
0.024801999 0.453050613 0.192292631
0.029893003 0.455355376 0.195730194
0.043454878 0.461044878 0.204185128
0.098830566 0.474065244 0.226411507
0.219060168 0.489875495 0.262177855
0.324423343 0.503061056 0.285886109
0.396381378 0.515109658 0.295479268
0.467803985 0.528338075 0.307889074
0.539967179 0.542947471 0.321031868
0.609187722 0.556430280 0.334619999
0.684266031 0.574012518 0.350267500
0.754927218 0.594692409 0.368500799
0.826332450 0.616196871 0.388664007
0.891638577 0.638159990 0.408454776
0.944311976 0.660231888 0.428462893
0.023423063 0.499035925 0.210716993
0.024213376 0.499250948 0.211012304
0.027051250 0.500382960 0.212278381
0.031998064 0.502281725 0.214965433
0.042046316 0.506188571 0.221194685
0.078820564 0.517715514 0.239274308
0.182340622 0.536219597 0.274091810
0.312740296 0.553169787 0.308294207
0.401445985 0.566765964 0.324010700
0.472551078 0.579438925 0.335551322
0.542985559 0.592498124 0.347535938
0.614337742 0.607091844 0.360021561
0.686111391 0.623115540 0.373860687
0.761045635 0.642726958 0.390455842
0.828889966 0.664544880 0.409395337
0.891939044 0.685933053 0.428505898
0.944189847 0.708022177 0.447081000
0.026504751 0.549320757 0.232597768
0.027249439 0.549484491 0.232756078
0.029950000 0.550490797 0.233715758
0.035067067 0.552319527 0.235843077
0.043937005 0.555660009 0.240632251
0.071679875 0.564492941 0.254643142
0.158413932 0.582512259 0.286614776
0.291334212 0.602819324 0.327503890
0.403896004 0.619607270 0.351939797
0.480644166 0.632716656 0.362948656
0.550749779 0.645130634 0.374245763
0.620131969 0.657514930 0.384841144
0.689679503 0.671344519 0.396910042
0.760485411 0.689123273 0.412988335
0.830533683 0.709601760 0.431607544
0.893401384 0.730554998 0.448856831
0.947008491 0.752004266 0.466803014
0.030182566 0.602934897 0.259778351
0.030929754 0.603196859 0.259985536
0.033779815 0.604163408 0.260746717
0.039396632 0.606355786 0.263000429
0.048593696 0.609859109 0.267637849
0.068302684 0.616311908 0.277825952
0.134180859 0.631538153 0.304466486
0.268243164 0.652473271 0.347959727
0.395732552 0.671887219 0.378916889
0.485885322 0.686578333 0.390106887
0.559051752 0.697442234 0.399038672
0.628433108 0.708890140 0.410997361
0.696148634 0.720592558 0.423367232
0.763681889 0.734504879 0.436607540
0.829373956 0.751408637 0.451780230
0.894748509 0.770022273 0.468259186
0.950561047 0.790212512 0.486294568
0.034828756 0.661365688 0.294884175
0.035500694 0.661682248 0.295131087
0.038300380 0.662605941 0.295704156
0.043675449 0.664812028 0.297302097
0.053168010 0.668219090 0.300958902
0.068660006 0.673155725 0.308008403
0.109059431 0.684755206 0.327431917
0.233604386 0.702969193 0.367020667
0.378421247 0.721703827 0.401993275
0.485666394 0.736861825 0.419053644
0.567519367 0.748488605 0.429568529
0.639496624 0.758512437 0.440332979
0.707349241 0.768301308 0.450566262
0.771065414 0.778162241 0.459081084
0.833522439 0.791246414 0.469816178
0.895979047 0.807231784 0.486083090
0.951398015 0.825065196 0.505565643
0.040611632 0.718464673 0.330970556
0.041348383 0.718644559 0.331144035
0.044218570 0.719517112 0.331943423
0.049937509 0.721709251 0.333724499
0.060294196 0.725029111 0.337203234
0.076556884 0.729651630 0.343628794
0.115736127 0.738830149 0.360916436
0.238159940 0.753593862 0.397381991
0.380584776 0.769903302 0.431528360
0.484696686 0.784293890 0.450489610
0.573697448 0.795736372 0.460866719
0.653157890 0.804582238 0.466323435
0.724491656 0.812603831 0.471556842
0.784195960 0.820707858 0.479167461
0.840988755 0.830005825 0.489888340
0.897706568 0.842156649 0.504008412
0.952358961 0.859048545 0.524913788
0.046530999 0.777724028 0.376758009
0.047174126 0.777980864 0.377063602
0.049907625 0.778960466 0.378430635
0.056142814 0.780808270 0.380960584
0.066719502 0.783783734 0.385265768
0.083692811 0.787721932 0.392515332
0.134775043 0.795262873 0.410211265
0.252688766 0.807135224 0.442053467
0.385856539 0.819844484 0.468015492
0.492054194 0.831810057 0.481174111
0.585127115 0.842836022 0.489143252
0.671637416 0.851362288 0.492853582
0.743739247 0.858059764 0.496970743
0.803236008 0.865199924 0.504567504
0.855840802 0.873152494 0.516932487
0.907889724 0.881630063 0.530148745
0.953544021 0.890825987 0.544589996
0.006890875 0.008962500 0.046154063
0.046878058 0.022083748 0.070035934
0.105446681 0.036250062 0.066568941
0.149393186 0.051664628 0.072065502
0.193996996 0.064528249 0.079278119
0.239750504 0.076407373 0.088278309
0.285406888 0.088623129 0.099842504
0.329760671 0.100931823 0.112847388
0.374324948 0.114097945 0.126516625
0.419815451 0.127310634 0.139865309
0.468238264 0.140406176 0.153511882
0.522852123 0.154990315 0.168956757
0.583506644 0.171001881 0.185782641
0.652314901 0.190515965 0.205920041
0.728682339 0.215192467 0.229182586
0.806626916 0.242272466 0.254103571
0.872241855 0.272095442 0.279547364
0.010577125 0.061223440 0.076554373
0.043978374 0.064362191 0.079119369
0.106316492 0.070990384 0.073305622
0.152268559 0.079160936 0.080084875
0.197140262 0.087966681 0.089273371
0.242700040 0.097079687 0.099515438
0.288082838 0.106871568 0.110757507
0.332467198 0.117351010 0.122966945
0.376991600 0.128849491 0.135951683
0.422472924 0.140870005 0.148848444
0.470993757 0.153440058 0.162206635
0.525585294 0.167567179 0.177272707
0.586393118 0.183149770 0.193656057
0.655661047 0.202285528 0.213476092
0.732324958 0.225770041 0.236187652
0.810165584 0.251893938 0.260188639
0.875052452 0.280639827 0.284946442
0.014394625 0.104807563 0.078316376
0.032297000 0.108272694 0.081477255
0.088105686 0.111724317 0.084661871
0.152464464 0.115865566 0.093188196
0.200013995 0.121814370 0.101873383
0.246428519 0.128436387 0.111510992
0.292113453 0.135377765 0.122381687
0.336966693 0.143731758 0.134408250
0.381669581 0.153787941 0.147354886
0.427381247 0.165160507 0.160507694
0.476294696 0.177583799 0.174200997
0.531289399 0.191540882 0.189398363
0.592779994 0.207032382 0.205756962
0.662665606 0.225988403 0.225379527
0.740211070 0.248426333 0.247662917
0.818209708 0.273236990 0.270282358
0.881966949 0.299655408 0.292846382
0.016757686 0.147182509 0.081463188
0.028405812 0.150163129 0.084690191
0.060044743 0.154016748 0.087924190
0.133572951 0.160484776 0.100964688
0.199254110 0.163725376 0.113566056
0.248838887 0.168023884 0.125005558
0.295900136 0.172767505 0.136349887
0.342002898 0.178152815 0.147960886
0.388147205 0.185936391 0.160205632
0.434494376 0.195389017 0.172730640
0.483529747 0.206100807 0.185444131
0.539018035 0.218959510 0.199617386
0.601978540 0.234372318 0.215775251
0.673474491 0.253661007 0.235180780
0.751877129 0.277264357 0.257706910
0.829404891 0.303802699 0.281424105
0.891572475 0.330212325 0.304158181
0.017180625 0.189886495 0.090581752
0.025278375 0.192109481 0.094116129
0.046735935 0.195627511 0.097331434
0.105574325 0.202013940 0.108441815
0.181419984 0.210693881 0.122277632
0.246331856 0.212815821 0.135074943
0.297906250 0.215311065 0.149092883
0.347255737 0.218520254 0.162783071
0.395292252 0.223888874 0.176332429
0.443021834 0.232018366 0.188813180
0.492891937 0.241917834 0.200441241
0.549284220 0.254146814 0.213169813
0.613759935 0.269661635 0.228523746
0.686171651 0.289437532 0.247036397
0.764023721 0.313793898 0.268840909
0.841693819 0.341594279 0.294358969
0.902675390 0.368317813 0.318318009
0.014405938 0.233496442 0.105308808
0.018764313 0.235003695 0.108644806
0.030620938 0.238036752 0.111473434
0.078723580 0.244004384 0.120918192
0.160077006 0.252841502 0.136443630
0.232803568 0.261667430 0.148750186
0.298370868 0.263178259 0.160527334
0.350613922 0.265812069 0.175826505
0.400238663 0.269429356 0.191335887
0.450692117 0.275833368 0.206125066
0.503790438 0.285402328 0.218457311
0.562617719 0.298315525 0.230472311
0.629150569 0.314411014 0.245026201
0.702443600 0.333748043 0.263150245
0.778230906 0.357065022 0.284596413
0.854218543 0.384540737 0.310299844
0.913167775 0.411279291 0.334555984
0.013660250 0.277922720 0.123647071
0.016069001 0.278935194 0.126465827
0.022908937 0.281437129 0.128994256
0.048121944 0.288058370 0.136947885
0.125989810 0.296798199 0.151889250
0.212294117 0.305982441 0.167717129
0.285138160 0.316320211 0.180581570
0.352093965 0.318467230 0.191536769
0.405411750 0.321792662 0.205886766
0.456592500 0.327004135 0.221411631
0.514339089 0.335933000 0.237712249
0.577989817 0.348606497 0.251762986
0.647114158 0.364908397 0.266270459
0.720886648 0.383769810 0.284337282
0.793854058 0.405763566 0.305873781
0.866171539 0.431796551 0.330169767
0.922917902 0.457423151 0.352902561
0.015282689 0.322556704 0.142003015
0.017034875 0.323370457 0.144623712
0.021727813 0.325415581 0.146983013
0.035488822 0.330943465 0.153246194
0.080440059 0.339662910 0.165665507
0.186887980 0.349210501 0.189188242
0.268032193 0.359531969 0.202639446
0.342465162 0.371231616 0.215893209
0.407451391 0.374499649 0.225962192
0.464507759 0.379513413 0.239007115
0.522258639 0.388437152 0.254772455
0.589949429 0.401730865 0.273330510
0.662249863 0.417849332 0.290331066
0.737257540 0.436602682 0.308885574
0.809351206 0.458106995 0.330180079
0.877468109 0.482408911 0.352448344
0.932855725 0.506457627 0.373151690
0.017256625 0.365958214 0.158720180
0.018741313 0.366684735 0.161207497
0.022410875 0.368301302 0.163423136
0.031126192 0.372473598 0.168604806
0.062333748 0.380821317 0.180141568
0.150713816 0.391012013 0.203437880
0.255420893 0.401865363 0.227436140
0.330865264 0.413242400 0.240101770
0.404118568 0.425676018 0.251909018
0.467741311 0.431326449 0.262248248
0.532420158 0.440396458 0.275277704
0.597905278 0.454630971 0.292688370
0.671142161 0.471915841 0.313082993
0.747073650 0.490798205 0.332908899
0.820633888 0.512370706 0.353500098
0.886679113 0.535397887 0.374424487
0.941280842 0.558141887 0.394669861
0.018966187 0.408192813 0.175626129
0.020284187 0.408794224 0.177826434
0.023500813 0.410127550 0.179655641
0.029469879 0.413193554 0.183908999
0.051117439 0.420818388 0.194549546
0.128621623 0.432678282 0.218628690
0.242020816 0.445348561 0.249819249
0.325726122 0.456877679 0.264727771
0.397882402 0.469262183 0.276822537
0.469583064 0.482611567 0.288407952
0.535498381 0.492269963 0.300490886
0.607388020 0.506370008 0.314597428
0.676800251 0.524823427 0.333514303
0.751590252 0.544469893 0.354004413
0.825346053 0.565821767 0.373938471
0.891532540 0.588202357 0.394085974
0.945079386 0.610176265 0.414670736
0.020881876 0.451997757 0.194410875
0.022082251 0.452526122 0.196402684
0.025089875 0.453755081 0.197860003
0.030099129 0.456102937 0.201251447
0.043652877 0.461834431 0.209691241
0.098812304 0.474728465 0.231810808
0.219029546 0.490686804 0.267781466
0.326158077 0.504195809 0.292502999
0.397591770 0.516118765 0.301805228
0.468594939 0.529301524 0.313939750
0.540296912 0.543694913 0.326660424
0.609507203 0.557202876 0.339781046
0.684519529 0.574872136 0.355100781
0.755581021 0.595576108 0.373312593
0.826882780 0.616711378 0.393171579
0.892259061 0.638493359 0.412680537
0.944643736 0.660379469 0.432384044
0.023429314 0.499440014 0.214470133
0.024530251 0.499962807 0.216319829
0.027322249 0.501091540 0.217586324
0.032220691 0.503015757 0.220213443
0.042214874 0.506930709 0.226368189
0.079062000 0.518421531 0.244552121
0.182053730 0.536912143 0.279193997
0.312954754 0.554065824 0.313711733
0.402623236 0.567711353 0.329727292
0.473325193 0.580102623 0.340711713
0.543570876 0.593119085 0.352309257
0.614564598 0.607545972 0.364474356
0.686320245 0.623655379 0.378067881
0.761064112 0.643395901 0.394438028
0.829086304 0.665108621 0.413255811
0.892112315 0.686336756 0.432252705
0.944350421 0.708193421 0.450701952
0.026504878 0.549784303 0.236207515
0.027529314 0.550268531 0.237830952
0.030200623 0.551237643 0.238769144
0.035270192 0.553003311 0.240783572
0.044052873 0.556277096 0.245457262
0.072103806 0.565159678 0.259698600
0.159189835 0.583168030 0.291708469
0.292058587 0.603465438 0.332361341
0.404779315 0.620349884 0.356813699
0.481346399 0.633392453 0.367525369
0.551162004 0.645628572 0.378338248
0.620370328 0.657921553 0.388658464
0.689811110 0.671616793 0.400575459
0.760523856 0.689458132 0.416460514
0.830617785 0.710089982 0.435010493
0.893447518 0.730924308 0.452159107
0.947007656 0.752121806 0.470021218
0.030201878 0.603375196 0.263120353
0.031230127 0.603907526 0.264682204
0.034073565 0.604873955 0.265429378
0.039634008 0.606997192 0.267635077
0.048706196 0.610426247 0.272119284
0.068623744 0.616932154 0.282375246
0.135191470 0.632127702 0.309148252
0.269543439 0.652899086 0.352230787
0.396441251 0.672266960 0.382723749
0.486309916 0.686979949 0.393816054
0.559285939 0.697798908 0.402578652
0.628547907 0.709222078 0.414317608
0.696103036 0.720854521 0.426570982
0.763817489 0.734749556 0.439759612
0.829531312 0.751675606 0.454780787
0.894799173 0.770331383 0.471201748
0.950471818 0.790417433 0.489172876
0.034823444 0.661710560 0.297590405
0.035762068 0.662185848 0.298948795
0.038539130 0.663246870 0.299560100
0.043875203 0.665423691 0.301163793
0.053385012 0.668763041 0.304879248
0.068824194 0.673714757 0.311954916
0.109136872 0.685216010 0.331414938
0.234141707 0.703293860 0.370767981
0.378993094 0.722044826 0.405382872
0.485819608 0.737320185 0.422238529
0.567604721 0.748941183 0.432692021
0.639540792 0.758874953 0.443381697
0.707387507 0.768614054 0.453503639
0.771156847 0.778372109 0.461963654
0.833490491 0.791324556 0.472635090
0.895965338 0.807406306 0.488730043
0.951458514 0.825215995 0.508164048
0.040627386 0.718756735 0.333422184
0.041661572 0.719194710 0.334701747
0.044517506 0.720217586 0.335553050
0.050219260 0.722290814 0.337328374
0.060522635 0.725619197 0.340769142
0.076788694 0.730251789 0.347224623
0.115963191 0.739222467 0.364452451
0.238576084 0.753810883 0.400558978
0.380934596 0.770078480 0.434345424
0.484785497 0.784425378 0.453149527
0.573727667 0.795869648 0.463494003
0.653201640 0.804775357 0.468926907
0.724495113 0.812867761 0.474133879
0.784284711 0.820952713 0.481732488
0.841092765 0.830191731 0.492448896
0.897699833 0.842109621 0.506508112
0.952265680 0.859078526 0.527257681
0.046557248 0.777969599 0.378829867
0.047461938 0.778567731 0.380120784
0.050143812 0.779388189 0.381395906
0.056386691 0.781359434 0.384117544
0.066871375 0.784238636 0.388312250
0.083724998 0.788153768 0.395461261
0.134764731 0.795746922 0.413099080
0.252864242 0.807486773 0.444695711
0.385960907 0.820083022 0.470444500
0.491901755 0.831938386 0.483453929
0.585011065 0.842866182 0.491292924
0.671713710 0.851400375 0.495027930
0.743777752 0.858117104 0.499249130
0.803222597 0.865437150 0.506826878
0.855888307 0.873399019 0.519194901
0.907864571 0.881761491 0.532398164
0.953299344 0.890881300 0.546726525
0.010584375 0.019072127 0.082660377
0.033521313 0.029492248 0.108356997
0.085841626 0.038865000 0.122649759
0.152748138 0.051473629 0.114910938
0.199556887 0.064796381 0.115303002
0.243510455 0.078009687 0.120114811
0.287610769 0.090914622 0.128226995
0.331868708 0.102772072 0.137624055
0.376872987 0.115349002 0.148095131
0.422633290 0.128866613 0.159415692
0.470950246 0.142641127 0.171815753
0.525470436 0.157735318 0.186137676
0.586341381 0.174376756 0.201896742
0.655035436 0.194119349 0.220940650
0.731504321 0.218404159 0.243374914
0.808829904 0.244837090 0.267758161
0.873435259 0.274246126 0.293781251
0.011167875 0.060741186 0.114190318
0.031565748 0.066491812 0.130410567
0.084551051 0.071582317 0.131493449
0.154885024 0.078307882 0.120823696
0.201499492 0.088257939 0.122360498
0.245467320 0.098563313 0.128548995
0.289754212 0.108725570 0.136800125
0.334352970 0.118758015 0.145548761
0.379295319 0.129843071 0.155643314
0.424953490 0.142204627 0.166900396
0.473448753 0.155448496 0.179322496
0.528082967 0.170098633 0.193515256
0.589098930 0.186258256 0.208941191
0.658174634 0.205735475 0.227818891
0.734969795 0.228916347 0.249894470
0.812076986 0.254390419 0.273430765
0.876271248 0.282734513 0.298820704
0.012267625 0.105358995 0.130138248
0.026788998 0.108943999 0.141236246
0.079480499 0.112749502 0.141061634
0.155938581 0.118266314 0.128901511
0.203863010 0.126528502 0.134675875
0.249364689 0.135021314 0.143523186
0.294513643 0.142995641 0.152634874
0.339249343 0.151483685 0.162097931
0.384230405 0.161599502 0.172929883
0.430344939 0.173950896 0.185231119
0.479599476 0.187338993 0.198301867
0.534854650 0.201437503 0.212316245
0.596708119 0.217044994 0.227504387
0.667089939 0.235631526 0.245726764
0.744510710 0.257426649 0.266780764
0.821899116 0.281785429 0.289200097
0.884924293 0.307831258 0.312171757
0.013317999 0.150515586 0.126864314
0.023249125 0.154510632 0.131285489
0.045502316 0.158898443 0.137055442
0.137652695 0.162350953 0.141355380
0.204903007 0.167083636 0.149414495
0.252413571 0.173083335 0.157582879
0.298308015 0.179656863 0.167216063
0.344208777 0.186652511 0.177524507
0.390422851 0.195934206 0.189080447
0.437029243 0.207064629 0.201512992
0.486618400 0.219214275 0.213989377
0.542438447 0.232531562 0.227217257
0.605509281 0.247641578 0.241834134
0.677441299 0.265993983 0.259054542
0.755428135 0.287891328 0.279157907
0.832369387 0.312397003 0.301218033
0.894538403 0.337729186 0.323241830
0.014799500 0.193591386 0.129880011
0.022398748 0.196550369 0.132638618
0.040022753 0.201006621 0.137104869
0.101488024 0.205414876 0.141549200
0.187670752 0.212999746 0.155859619
0.251431942 0.216264620 0.169535682
0.301813602 0.220502123 0.181317121
0.350271463 0.225750819 0.193172067
0.397670358 0.232937872 0.205439761
0.445421457 0.242288440 0.217216060
0.495605618 0.253002614 0.228321016
0.552153885 0.265479624 0.239978313
0.616646528 0.280753642 0.253584772
0.689560592 0.300067216 0.270048171
0.767704725 0.323302776 0.290143549
0.844882548 0.349316776 0.314378291
