assets/photofx/luts/cinema-style/Cinema Style 09.cube
TITLE "17x17x17 Adobe/IRIDAS cube 3D LUT exported with GrossGrade v0.2.01 (beta) 64 bit"
DOMAIN_MIN 0 0 0
DOMAIN_MAX 1 1 1
LUT_3D_SIZE 17
0.000000000 0.000000000 0.000000000
0.028138125 0.009958126 0.003437812
0.065721005 0.019752625 0.006124000
0.116028696 0.027842190 0.007817251
0.174167007 0.034741249 0.010373251
0.236326069 0.038626876 0.013378375
0.299618274 0.038671874 0.016958376
0.361026406 0.038543627 0.021364816
0.420442015 0.040837001 0.026676502
0.479611307 0.045962751 0.032911312
0.539674163 0.053646501 0.040254749
0.601192594 0.063021503 0.048798501
0.664532781 0.073348500 0.058237255
0.729365826 0.084664322 0.068677455
0.795571327 0.096508265 0.080827393
0.863757670 0.108703889 0.093920633
0.937222004 0.122877002 0.107685000
0.008287501 0.032390624 0.008660625
0.033603746 0.037011564 0.009424688
0.079414248 0.043596562 0.009611000
0.131199330 0.049703501 0.010185625
0.188680992 0.054155558 0.012515250
0.249120250 0.055456374 0.015359000
0.310158610 0.053500000 0.018737126
0.369605482 0.050812125 0.022878127
0.427555978 0.050750375 0.027837064
0.485655993 0.054482691 0.033835188
0.544838488 0.061407689 0.041103374
0.605548143 0.070249632 0.049559437
0.668231189 0.080132008 0.058919813
0.732494235 0.091182575 0.069349453
0.798418164 0.102823637 0.081366271
0.866084516 0.114675514 0.094217077
0.939127922 0.128779501 0.108102188
0.014913375 0.066808626 0.015448749
0.037443623 0.069570184 0.017662687
0.090992622 0.077185377 0.015501624
0.149373025 0.088242754 0.016988061
0.210023001 0.094625622 0.019302249
0.270860493 0.095980257 0.021479499
0.330287904 0.093766749 0.024266750
0.388498783 0.088817872 0.028159814
0.445577860 0.084143877 0.032576002
0.502460122 0.082920685 0.037660562
0.559972763 0.086453378 0.044225376
0.618902743 0.093902186 0.052300625
0.680041134 0.103347130 0.061302252
0.742832899 0.113696948 0.071349643
0.807331502 0.124471635 0.082730763
0.873852849 0.136411384 0.095414579
0.945302129 0.153327376 0.111044623
0.029888444 0.100706816 0.023692377
0.048387133 0.103577688 0.025260752
0.099664450 0.110826075 0.019504748
0.159159318 0.128193885 0.021496253
0.224476814 0.144695386 0.027276687
0.287779808 0.151821643 0.031499438
0.348402709 0.152356148 0.034469064
0.406737924 0.149773702 0.037568815
0.463905156 0.145131573 0.041200504
0.520800233 0.140750200 0.045596253
0.578213453 0.138847634 0.051165566
0.636511624 0.140648574 0.058045689
0.696314871 0.145626009 0.065855935
0.757546782 0.153190523 0.074817136
0.820066571 0.165056586 0.086168393
0.884443879 0.180841729 0.100467518
0.953232288 0.202441335 0.118317693
0.057801753 0.137451753 0.031222751
0.071677312 0.140197128 0.029932376
0.115018375 0.147317126 0.023174250
0.166463390 0.165257946 0.022127751
0.231488004 0.190272510 0.030756501
0.298066378 0.209977061 0.039935753
0.360371292 0.218148381 0.045475125
0.419585228 0.219215438 0.049244627
0.477109283 0.217818767 0.052933503
0.534380794 0.215711370 0.057220004
0.592124283 0.214346752 0.062428877
0.650444031 0.214873374 0.068530813
0.709433794 0.218015254 0.075753257
0.769496739 0.223410577 0.084503010
0.830980837 0.232719257 0.095896140
0.894065976 0.245984718 0.110448956
0.960636497 0.263522267 0.128117755
0.094142504 0.177168995 0.032684375
0.104955435 0.179508612 0.030523188
0.138721868 0.186089635 0.025068188
0.182695881 0.202697068 0.021794001
0.237796932 0.231725574 0.025239127
0.306789100 0.259104431 0.037913501
0.370021015 0.279221624 0.050209753
0.428752333 0.288118452 0.058762815
0.485820651 0.290257126 0.065051436
0.542741120 0.290230185 0.070436381
0.600249648 0.290095687 0.075841501
0.658410251 0.290850997 0.081755251
0.717303455 0.293186605 0.088770069
0.777168334 0.297247261 0.097499952
0.838484764 0.303682089 0.108345330
0.901457489 0.312920392 0.121759824
0.966602087 0.326178789 0.138777003
0.136861265 0.219329014 0.031341877
0.145609707 0.221524030 0.029880939
0.172568023 0.228376895 0.025990628
0.209895760 0.242224351 0.022205438
0.255765527 0.272062898 0.022723377
0.314862579 0.304410994 0.030612251
0.381762892 0.330334127 0.046326626
0.439371347 0.348600000 0.060962316
0.493738145 0.357117623 0.072309002
0.548525095 0.359946728 0.081091747
0.604778588 0.360780537 0.088474751
0.662424982 0.361567259 0.095395885
0.721416771 0.363233626 0.102665633
0.781789362 0.366096944 0.111164823
0.843522251 0.370615542 0.121219642
0.906910956 0.377337158 0.133452266
0.971794009 0.388554156 0.149823248
0.184409410 0.264447153 0.033294316
0.191351026 0.266524851 0.032367319
0.213947773 0.273662090 0.029148441
0.247219920 0.285897583 0.024673503
0.286378741 0.312245488 0.023853753
0.334219396 0.349903852 0.028608877
0.392122090 0.377557695 0.040040504
0.452508718 0.399041086 0.056718253
0.504586041 0.414516956 0.072925061
0.555838645 0.422684819 0.086358130
0.609141171 0.426316649 0.097304881
0.665223658 0.428030699 0.106624000
0.723673761 0.429605335 0.115096509
0.784180582 0.431854695 0.123782448
0.846669436 0.435338289 0.133470148
0.910909116 0.440877080 0.145076826
0.976196468 0.450829834 0.160816565
0.235367522 0.312596500 0.042406507
0.241114259 0.314577937 0.041497633
0.260744154 0.321578145 0.038069382
0.291020632 0.333300769 0.032505564
0.325815022 0.355426520 0.028480001
0.364152074 0.391095400 0.031437628
0.410435915 0.425889015 0.039316006
0.463747382 0.445899397 0.052357756
0.518069983 0.463336021 0.068847999
0.566636801 0.477029085 0.085571930
0.616558850 0.485612512 0.100514382
0.669501424 0.490276873 0.113237754
0.726328492 0.493150771 0.124139003
0.786113024 0.495766580 0.134216338
0.848818779 0.499042630 0.144504145
0.913643360 0.504001498 0.156130642
0.979429007 0.512808025 0.171260506
0.288975567 0.363415956 0.063260309
0.293853849 0.365203142 0.062324315
0.311268300 0.371721864 0.058308750
0.338607699 0.382717669 0.050569501
0.369505942 0.401244640 0.041536249
0.401036322 0.431626827 0.037738811
0.436971217 0.467671901 0.042945251
0.480394870 0.494938165 0.052166194
0.529772401 0.509204686 0.065590873
0.580506206 0.524422765 0.081770934
0.627836704 0.537944317 0.098700874
0.677727461 0.547427416 0.114814498
0.731333673 0.553321183 0.128928751
0.789282084 0.557560563 0.141611457
0.851047099 0.561386406 0.153570905
0.915350378 0.566182017 0.166089267
0.981482029 0.574215293 0.180734500
0.343255132 0.415460140 0.097368248
0.347354054 0.416965574 0.096501626
0.362558126 0.422603756 0.092643626
0.386697143 0.432209820 0.084628500
0.414209008 0.447687387 0.072624750
0.441192001 0.472652435 0.059964560
0.469492912 0.505579889 0.053724624
0.503635347 0.537654161 0.056280069
0.545530736 0.558994889 0.065344371
0.593360305 0.570304155 0.078646809
0.642311513 0.584366441 0.094900250
0.689629972 0.598382711 0.112963066
0.740256131 0.609024048 0.130310491
0.794831157 0.616168559 0.145849884
0.854107916 0.621568680 0.160249025
0.916905403 0.626952827 0.174427524
0.983002245 0.634976864 0.189011872
0.395063251 0.466623247 0.140267938
0.398622632 0.467922300 0.139535129
0.411675930 0.472594351 0.136611685
0.432756871 0.480656683 0.130724996
0.457649648 0.493470281 0.120684624
0.482100129 0.513866186 0.106051750
0.505920768 0.542381167 0.089962997
0.532666862 0.574654579 0.077447683
0.566185117 0.603027105 0.073339313
0.608026028 0.620742500 0.079745188
0.655934572 0.630747497 0.092585564
0.704314947 0.644248366 0.110734940
0.752121508 0.658835053 0.130295008
0.803378582 0.670404434 0.148506388
0.859179258 0.678861082 0.165254772
0.919408619 0.686040580 0.181168392
0.984453797 0.695064068 0.196209371
0.442851245 0.516303778 0.187638015
0.445855618 0.517404556 0.187129706
0.457209259 0.521423638 0.184888765
0.476073295 0.528334498 0.180346578
0.499248266 0.538821518 0.172983512
0.522528410 0.555207372 0.161825269
0.544344902 0.579072177 0.146344751
0.566510618 0.608942032 0.127619565
0.592600465 0.640016317 0.109274015
0.626137972 0.665699005 0.097094387
0.668655038 0.681093276 0.097622760
0.717539549 0.690674305 0.110762879
0.766308308 0.704141736 0.132503763
0.814650536 0.719558239 0.152757704
0.866860688 0.732727289 0.170633256
0.923505664 0.743154049 0.187497333
0.985547245 0.754245281 0.203199506
0.486577034 0.564976573 0.237229750
0.489175975 0.565969348 0.236786872
0.499125540 0.569496572 0.235078186
0.516226292 0.575607419 0.231639504
0.538234353 0.584329844 0.226153240
0.561420083 0.597287953 0.217751995
0.583127797 0.616537690 0.205366418
0.603203416 0.642385721 0.188653424
0.623980224 0.672574580 0.168142125
0.649410486 0.702549398 0.145616814
0.683564126 0.726587296 0.126185998
0.728225172 0.741197169 0.121690974
0.779420137 0.751429141 0.137581453
0.828535080 0.765701592 0.160850599
0.877107859 0.782593966 0.179917544
0.929127097 0.797766626 0.196906656
0.986539483 0.812293828 0.213246331
0.526994169 0.614127815 0.289417922
0.529323578 0.614996970 0.289112926
0.538283288 0.618153811 0.287715316
0.553978920 0.623819172 0.285113364
0.575003803 0.631566226 0.281002700
0.598545909 0.641893387 0.274719059
0.621376932 0.656890392 0.264761180
0.641421914 0.678217351 0.250010669
0.659507155 0.705494940 0.230289176
0.679094613 0.736214399 0.206333637
0.704888403 0.766011536 0.179935947
0.741263211 0.789442778 0.157648683
0.789310873 0.804106295 0.154121667
0.841899455 0.815890193 0.173742533
0.889126599 0.831049681 0.196059808
0.936422408 0.849724531 0.216452777
0.987241864 0.868996918 0.235818431
0.565290332 0.664775491 0.343710929
0.567465127 0.665459752 0.343463123
0.575684965 0.668316782 0.342375815
0.590211153 0.673532724 0.340293497
0.609932184 0.680783629 0.336930692
0.633050740 0.689870656 0.332145423
0.657052457 0.701915622 0.324739784
0.678683758 0.719307780 0.312831789
0.696711481 0.743436038 0.295081496
0.713330507 0.773136020 0.271692932
0.733017623 0.805195153 0.244042560
0.760883987 0.834913909 0.215599507
0.800757349 0.857483268 0.195614874
0.851000190 0.872422040 0.198206827
0.901458263 0.885500431 0.223304898
0.943395674 0.900392592 0.254450738
0.986635029 0.923080981 0.292634100
0.603273988 0.719651997 0.402013987
0.605354309 0.720465779 0.401827425
0.612941027 0.723295510 0.400932997
0.626173019 0.728668571 0.399103194
0.643932223 0.736404240 0.396217018
0.665013790 0.746536493 0.392079145
0.688435376 0.758933365 0.386442244
0.711935461 0.774696469 0.377933115
0.732715487 0.795851946 0.363978982
0.750247955 0.822875261 0.343124181
0.767588496 0.853892624 0.316176862
0.789718807 0.885453880 0.286155939
0.821000993 0.913233519 0.259820998
0.862858713 0.934141815 0.249817327
0.910188437 0.949212134 0.270306557
0.952075958 0.962689400 0.317610949
0.982270002 0.971949995 0.409303993
0.004443750 0.006428437 0.014534062
0.024179064 0.013607813 0.019613437
0.062580064 0.020811437 0.021159500
0.114446886 0.026575811 0.021674437
0.174841076 0.030160625 0.020811938
0.238166362 0.031326875 0.021786375
0.301243573 0.030738749 0.024544626
0.361724466 0.032142188 0.028616004
0.420372576 0.036454566 0.033908065
0.479102612 0.042977251 0.040437751
0.538841784 0.051243875 0.047795814
0.600298524 0.060725562 0.055727251
0.663917363 0.071313567 0.064624503
0.728837609 0.082814455 0.074904136
0.795032799 0.094551630 0.086964823
0.863361061 0.107309632 0.099950694
0.937231421 0.121598251 0.113440312
0.009677812 0.035993434 0.024911251
0.028036872 0.040612504 0.028090313
0.075312130 0.046342626 0.029483251
0.130457520 0.051073063 0.028866813
0.191479802 0.052978251 0.027575437
0.253799647 0.051153310 0.027469624
0.315022945 0.046922810 0.028927753
0.373476595 0.045156565 0.032495566
0.430240571 0.047749441 0.037864130
0.487445921 0.053416375 0.044389874
0.546008289 0.060947370 0.051546186
0.606478214 0.069876187 0.059240375
0.669134378 0.080018066 0.067990378
0.732972026 0.091130644 0.078323200
0.798706770 0.102643080 0.090068392
0.866514385 0.114968322 0.102588825
0.939499259 0.129181698 0.116091557
0.015130313 0.069572307 0.029806750
0.032145374 0.073837876 0.033657812
0.085045122 0.079682939 0.036175378
0.147275776 0.090065002 0.037303563
0.210831329 0.095210440 0.037479810
0.273769319 0.094463937 0.036770750
0.334272295 0.089492425 0.036565751
0.392381966 0.082742557 0.038676880
0.448673397 0.078730568 0.042560440
0.504605830 0.079670809 0.047676250
0.561490297 0.085038438 0.054089185
0.620257974 0.093311250 0.061694749
0.681212246 0.103000060 0.070386693
0.743527174 0.113275133 0.080306269
0.807989419 0.124178201 0.091523767
0.874611616 0.136253461 0.103708267
0.945671678 0.153186202 0.118953504
0.023651568 0.103283815 0.031781625
0.041467633 0.107030131 0.037727375
0.092121691 0.113298945 0.038120627
0.155442566 0.129637644 0.040606380
0.223254830 0.146389633 0.047243185
0.288620591 0.152847514 0.049289942
0.350396186 0.152163520 0.049632940
0.409286618 0.148222640 0.050612375
0.466558456 0.142270893 0.052642941
0.523223341 0.137101635 0.055751003
0.580232739 0.135300830 0.060383312
0.638206840 0.137749076 0.066743255
0.697667003 0.143609509 0.074570000
0.758454859 0.152210712 0.083708383
0.820840061 0.164518535 0.094949767
0.885305941 0.180214226 0.108915508
0.953795910 0.201599941 0.126222432
0.048755623 0.139267504 0.037874125
0.065038688 0.142289072 0.044386003
0.106579497 0.149380550 0.038880251
0.162243247 0.166083053 0.036695126
0.229184374 0.191383243 0.046676002
0.297552735 0.211552858 0.057172686
0.360952497 0.219446123 0.061803125
0.420676827 0.220003128 0.064088061
0.478659064 0.217995435 0.065879814
0.536158800 0.215130061 0.068334125
0.593811512 0.213219315 0.072274879
0.651963949 0.213617995 0.077749744
0.710779011 0.216747746 0.084815443
0.770581067 0.222546577 0.093554564
0.831905067 0.232284322 0.104786769
0.894760609 0.245595977 0.119064823
0.961256146 0.263074875 0.136051267
0.086476751 0.177937180 0.041060187
0.098437063 0.180944368 0.043055438
0.131466940 0.187663808 0.037293877
0.178401887 0.203070879 0.032783501
0.235346377 0.232120678 0.036099002
0.305403709 0.260240942 0.051334810
0.369850844 0.280652761 0.065137938
0.429331779 0.289311439 0.072521687
0.486751348 0.291142255 0.077619307
0.543873131 0.290813535 0.081962563
0.601400673 0.290403634 0.086612932
0.659480214 0.291040868 0.092022069
0.718285501 0.293273032 0.098639876
0.778005064 0.297330171 0.106980324
0.839222729 0.303859264 0.117453583
0.901970625 0.312996835 0.130416885
0.967030406 0.326302290 0.146767810
0.129888758 0.219603717 0.038697813
0.139420331 0.222549021 0.038956560
0.167226374 0.229421034 0.034254748
0.206452265 0.242419153 0.028912190
0.253578633 0.271643460 0.028363749
0.313468784 0.305046886 0.036652438
0.381206959 0.331312925 0.055391945
0.439415395 0.349760145 0.072552890
0.494222790 0.358082891 0.083852619
0.549230158 0.360717833 0.092217751
0.605560720 0.361415565 0.099296562
0.663181841 0.362099469 0.105833694
0.722065151 0.363732278 0.112618819
0.782351911 0.366605967 0.120627642
0.844075322 0.371111721 0.130276769
0.907420635 0.377700716 0.141937956
0.972083449 0.388948828 0.157681689
0.178875342 0.264297158 0.038436316
0.186620608 0.267107040 0.038847879
0.209956095 0.274260342 0.035052814
0.244355291 0.286250412 0.029496942
0.284570664 0.311512142 0.027215065
0.332895398 0.349725455 0.031621560
0.391178280 0.378328443 0.043850131
0.452209681 0.399821669 0.063004754
0.504713714 0.415419161 0.081880942
0.556202531 0.423453897 0.095795251
0.609633923 0.426960319 0.106813371
0.665797532 0.428577721 0.116155185
0.724197984 0.430075705 0.124449193
0.784657538 0.432315052 0.132879198
0.847125888 0.435795099 0.142223388
0.911305904 0.441284478 0.153262004
0.976380467 0.451214194 0.168411255
0.231207073 0.312194407 0.046690002
0.237703204 0.314869016 0.047034193
0.257618576 0.321880698 0.043405317
0.288554639 0.333597064 0.037166126
0.324332863 0.354937315 0.031625438
0.363067091 0.390477657 0.033521440
0.409494400 0.426151901 0.041496068
0.463137954 0.446616828 0.055366501
0.517860651 0.463933706 0.073724374
0.566769600 0.477712065 0.092919752
0.616856039 0.486213446 0.108476996
0.669832647 0.490800470 0.121523559
0.726736844 0.493604898 0.132528067
0.786559582 0.496167392 0.142660648
0.849197030 0.499427348 0.152692139
0.913929522 0.504382968 0.163868204
0.979559958 0.513162792 0.178494066
0.285624951 0.362950802 0.067168877
0.291188329 0.365376920 0.067348570
0.308677554 0.371826142 0.063522436
0.336558878 0.382828027 0.055697624
0.368288428 0.400904506 0.045837998
0.400314540 0.430986941 0.040520310
0.436278284 0.467401773 0.044850688
0.479701608 0.495434493 0.053990696
0.529380262 0.509860575 0.068161190
0.580372691 0.524901390 0.085816063
0.627923071 0.538470089 0.104781002
0.677911520 0.547891557 0.121733814
0.731534183 0.553745568 0.136107683
0.789690495 0.557918906 0.149080887
0.851328969 0.561716437 0.160999835
0.915568590 0.566498339 0.173257828
0.981662810 0.574513614 0.187520057
0.340377390 0.414975256 0.100503817
0.345075011 0.417024255 0.100636378
0.360289425 0.422610819 0.097147495
0.384927720 0.432226330 0.089569628
0.413071454 0.447374642 0.077896878
0.440631002 0.472008049 0.064980567
0.469070375 0.505040824 0.057410251
0.503105044 0.537600398 0.058715314
0.544991732 0.559537470 0.067243882
0.593013465 0.570853651 0.081222557
0.642182469 0.584768653 0.098729745
0.689651728 0.598790109 0.118129633
0.740320444 0.609377265 0.136186063
0.795106828 0.616471171 0.152216449
0.854387343 0.621836126 0.166833460
0.917037308 0.627210557 0.180940136
0.983148277 0.635181487 0.195282057
0.392380744 0.466201067 0.142756060
0.396564484 0.467891067 0.142855138
0.409660548 0.472600490 0.140171811
0.431157321 0.480682611 0.134669557
0.456519812 0.493217498 0.125335932
0.481517911 0.513268232 0.111530825
0.505617023 0.541695237 0.095526434
0.532359719 0.574203014 0.082295001
0.565771103 0.603048682 0.077089623
0.607606828 0.621195078 0.082424812
0.655631244 0.631180882 0.095466122
0.704202116 0.644570231 0.114672750
0.752047598 0.659132898 0.135267943
0.803520918 0.670699596 0.153976008
0.859361351 0.679127455 0.170919150
0.919545412 0.686361253 0.186937839
0.984523177 0.695262194 0.201909691
0.440676868 0.515970230 0.189604267
0.444241881 0.517382801 0.189766452
0.455563158 0.521422327 0.187674642
0.474665403 0.528363883 0.183347374
0.498186350 0.538685620 0.176411077
0.521929443 0.554799259 0.165857211
0.544077158 0.578454971 0.151119053
0.566350400 0.608275354 0.133206487
0.592357218 0.639621973 0.115344584
0.625784934 0.665718794 0.102662392
0.668240845 0.681476951 0.101783134
0.717229247 0.691100240 0.114454947
0.766100645 0.704462528 0.136745572
0.814613104 0.719832778 0.157190844
0.866974473 0.733032644 0.175342396
0.923542321 0.743550777 0.192496389
0.985706210 0.754439712 0.208288699
0.484572649 0.564745426 0.238857061
0.487578839 0.565900028 0.238948911
0.497542411 0.569463432 0.237273425
0.514785409 0.575630426 0.233997881
0.537080050 0.584304571 0.228783876
0.560717344 0.597073436 0.220746547
0.582831740 0.616105616 0.208836675
0.603143036 0.641781747 0.192761749
0.623952091 0.672001719 0.173000306
0.649273992 0.702285886 0.150998071
0.683384717 0.726616502 0.131515294
0.727952659 0.741516590 0.126159102
0.779200792 0.751730859 0.141531453
0.828287005 0.766046464 0.164741039
0.877082050 0.782999635 0.183904588
0.929174185 0.797990918 0.201126710
0.986553550 0.812386930 0.217712775
0.525374293 0.613939524 0.290753007
0.528027236 0.615029812 0.290849626
0.537102580 0.618212700 0.289495498
0.552865267 0.623884559 0.286966532
0.573996246 0.631648064 0.283015817
0.597815096 0.641889870 0.276990891
0.620985031 0.656682372 0.267427593
0.641307533 0.677810252 0.253145248
0.659584939 0.704929113 0.233963504
0.679191113 0.735728741 0.210604012
0.704856813 0.765783787 0.184872553
0.741152704 0.789505243 0.163097814
0.788997233 0.804509282 0.158969417
0.841538906 0.816318870 0.177571982
0.889032960 0.831427097 0.199595481
0.936429977 0.849812329 0.220062017
0.987202644 0.869116902 0.239762872
0.563821793 0.664578259 0.344798058
0.566277802 0.665570438 0.344871104
0.574582338 0.668358505 0.343906552
0.589185536 0.673663855 0.341860622
0.608959913 0.680950522 0.338598400
0.632246912 0.690055609 0.333899617
0.656556487 0.701937258 0.326744109
0.678544164 0.719161630 0.315220058
0.696826577 0.743134141 0.297906309
0.713549912 0.772826374 0.275052249
0.733123899 0.805014193 0.248020992
0.760797977 0.834856272 0.220185503
0.800662816 0.857642293 0.200465396
0.850894451 0.872737110 0.202419758
0.901273787 0.885864079 0.226903096
0.943573534 0.900505781 0.257954031
0.986636102 0.923291326 0.295950174
0.602036476 0.719659507 0.402951509
0.604397118 0.720564187 0.402944952
0.611997783 0.723463953 0.402130991
0.625388443 0.728741288 0.400341064
0.643141150 0.736504197 0.397561371
0.664452195 0.746629179 0.393531293
0.687907577 0.758920908 0.387972534
0.711631238 0.774662197 0.379742861
0.732696652 0.795767069 0.366200507
0.750434339 0.822690964 0.345842272
0.767884314 0.853630126 0.319463968
0.789901912 0.885225415 0.289983451
0.820914626 0.913239658 0.264035642
0.862609684 0.934345961 0.254016042
0.909980536 0.949471116 0.273993224
0.951937079 0.962826133 0.320920020
0.982220352 0.972151577 0.412831813
0.008673125 0.012790374 0.034925375
0.020560563 0.019617125 0.041655876
0.053465497 0.026588250 0.047315374
0.104729392 0.029759314 0.048186813
0.167620376 0.030307749 0.048435375
0.235019177 0.026131375 0.048032563
0.300105125 0.022655502 0.049775504
0.360603571 0.025268378 0.054676879
0.418473005 0.031339251 0.061079126
0.476337731 0.038150750 0.067617126
0.535343409 0.045895875 0.073972002
0.596211135 0.054580621 0.080365002
0.659586430 0.064403005 0.087717384
0.724896908 0.075781949 0.096887819
0.791466832 0.087586887 0.107996516
0.860043883 0.100593634 0.120525770
0.934948266 0.115327626 0.133431882
0.015470812 0.038298000 0.052754063
0.026611125 0.045558684 0.059536371
0.061988816 0.050561938 0.059586253
0.119051643 0.053080127 0.059531879
0.183485374 0.052354001 0.058847625
0.249879867 0.046313312 0.057110187
0.313621372 0.038881563 0.056324128
0.372678906 0.037636068 0.059007809
0.428987026 0.042076003 0.064432181
0.485462010 0.048695751 0.070867941
0.543326318 0.056138624 0.077247500
0.603118241 0.064288437 0.083590627
0.665456355 0.073659629 0.090968378
0.729758739 0.084663577 0.100122191
0.795563459 0.096124701 0.111047082
0.863387644 0.108539015 0.123092696
0.937460184 0.122954808 0.135746256
0.022293001 0.073071003 0.064201377
0.030954435 0.078978941 0.066535190
0.069144495 0.084857129 0.072113499
0.135647058 0.093136311 0.077894121
0.204079390 0.098185495 0.080367118
0.271663010 0.096689686 0.079433501
0.335429996 0.089320734 0.077039376
0.395500302 0.079668306 0.075054877
0.452398241 0.075257003 0.075897880
0.507844269 0.077903189 0.080000058
0.563923776 0.084376380 0.085699998
0.621985197 0.092277184 0.091981374
0.682282150 0.101392373 0.099415377
0.744115829 0.111155637 0.108071938
0.808032751 0.121466398 0.117971256
0.874543428 0.133073449 0.128634393
0.945701599 0.149536252 0.142453998
0.028114188 0.108379260 0.067114376
0.035303254 0.113681011 0.067957312
0.072677441 0.120803080 0.077344686
0.143499270 0.133104771 0.086331502
0.216537952 0.149813697 0.095068127
0.285530627 0.156263456 0.097241879
0.350051403 0.155182511 0.095560133
0.410939574 0.149811760 0.092737630
0.469441324 0.141800061 0.090732634
0.526603222 0.134648189 0.090315320
0.583679736 0.131353498 0.092082262
0.641400516 0.133499697 0.096390188
0.700189769 0.140326142 0.103052944
0.760397732 0.149383709 0.111205578
0.822417676 0.160791457 0.121233776
0.886608243 0.174927294 0.133642957
0.954679728 0.196175694 0.149468571
0.033639751 0.145646885 0.062315375
0.043116942 0.149783701 0.064149879
0.084043249 0.155994147 0.079960749
0.148181960 0.168860674 0.082753316
0.221159995 0.194026858 0.093117371
0.293940753 0.215488955 0.105585314
0.359597623 0.223322272 0.109527618
0.420908511 0.223504812 0.109152317
0.480045170 0.220783129 0.107499123
0.538429618 0.216596201 0.106205180
0.596632779 0.212901637 0.106547132
0.655102432 0.211668491 0.109112941
0.713957727 0.213692889 0.114083886
0.773495436 0.218711644 0.121232077
0.834256589 0.228056148 0.131133884
0.896763802 0.241453022 0.144140452
