assets/photofx/luts/cinema-style/Cinema Style 06.cube
TITLE "17x17x17 Adobe/IRIDAS cube 3D LUT exported with GrossGrade v0.2.01 (beta) 64 bit"
DOMAIN_MIN 0 0 0
DOMAIN_MAX 1 1 1
LUT_3D_SIZE 17
0.000855000 0.000907000 0.000899000
0.034924686 0.019027000 0.021618688
0.077055752 0.039426371 0.039707251
0.129996896 0.063244253 0.056385063
0.185183004 0.085798256 0.072195247
0.238870949 0.107425690 0.086115442
0.293933153 0.129712880 0.100747004
0.349571347 0.151524946 0.115586884
0.404384524 0.173115507 0.130230993
0.458050132 0.194801882 0.145102620
0.510280490 0.216092870 0.160151750
0.561268330 0.237374127 0.175521746
0.611926794 0.259104252 0.191550002
0.663400590 0.281243712 0.208087891
0.717088699 0.304407656 0.225614384
0.774349988 0.329167485 0.243771210
0.839299023 0.356204003 0.264189005
0.013732500 0.034539811 0.019141812
0.035094373 0.047256060 0.032175876
0.079293065 0.063583195 0.049798060
0.135449082 0.081821635 0.063778378
0.190366060 0.100167498 0.077008188
0.242761865 0.118653506 0.089780062
0.296272218 0.138272569 0.103622004
0.351070195 0.158412009 0.117966257
0.405374378 0.178795949 0.132139251
0.458720207 0.199487880 0.146603987
0.510790288 0.220124885 0.161401629
0.561596096 0.240923494 0.176570177
0.612230301 0.262251645 0.192498311
0.663610101 0.284071028 0.208891511
0.717353523 0.307004839 0.226365879
0.774538100 0.331552327 0.244491577
0.839653373 0.358403385 0.264849007
0.029471248 0.075947873 0.038215000
0.040214997 0.085006624 0.046780437
0.073516250 0.104388624 0.066214249
0.128219336 0.118991137 0.079659939
0.195162877 0.135765374 0.091358498
0.251173139 0.150062814 0.102308311
0.302950174 0.164853245 0.113768622
0.355646551 0.180970013 0.125968069
0.408668280 0.198354259 0.138838261
0.460914940 0.216379255 0.152167991
0.512253642 0.234871253 0.166119486
0.562864065 0.254193366 0.180884808
0.613441050 0.274303138 0.196332008
0.664660454 0.295189530 0.212270021
0.718421459 0.317141265 0.229370505
0.775762618 0.340845019 0.247299463
0.840809226 0.367062896 0.267695636
0.042865563 0.125905514 0.062342755
0.049410753 0.132255763 0.066588260
0.073736750 0.149402946 0.080084443
0.112980306 0.165612131 0.098521814
0.177111119 0.175269514 0.112645254
0.250006437 0.191272452 0.123659067
0.309981823 0.203463510 0.131407753
0.362436652 0.215846777 0.140330672
0.413457513 0.229611278 0.150663137
0.464394063 0.244692937 0.162618443
0.515124619 0.260765821 0.175639570
0.565429926 0.278088003 0.189536244
0.615694582 0.296403766 0.204147190
0.666886270 0.315718889 0.219284818
0.720649421 0.336420536 0.235876456
0.778071582 0.358690232 0.253538936
0.843062401 0.383322448 0.273335010
0.057658751 0.178654507 0.088298000
0.062361438 0.183063745 0.090797752
0.080727503 0.196816891 0.098672248
0.112699449 0.214806691 0.111632004
0.160888240 0.228579506 0.128307506
0.231979370 0.233456060 0.147564322
0.306714028 0.250339627 0.157890245
0.369297653 0.262170315 0.163768560
0.421075046 0.272216260 0.170031264
0.470185339 0.283579558 0.178706557
0.519416511 0.296688765 0.189824134
0.568952501 0.311447889 0.202258319
0.618988514 0.327769279 0.215970516
0.670229375 0.345400333 0.230682760
0.724006414 0.364437878 0.246496260
0.781606615 0.385316223 0.263763040
0.846664250 0.409071237 0.283480257
0.073262684 0.233950570 0.116949685
0.076932378 0.237287372 0.118477315
0.091699623 0.248855621 0.123029500
0.118817382 0.266603619 0.131008565
0.157045320 0.283452928 0.140534371
0.222690508 0.293763638 0.160419554
0.297016770 0.295183957 0.185125500
0.369360387 0.313271433 0.193727806
0.430163383 0.325453997 0.197813004
0.480207443 0.334107637 0.202811748
0.527336597 0.343701065 0.210641444
0.574596345 0.354971051 0.220487684
0.623484194 0.368116677 0.232189387
0.674401104 0.383323520 0.245920271
0.728074551 0.400434703 0.261218399
0.786144555 0.419533610 0.277886093
0.851329148 0.442326367 0.297172308
0.092261128 0.297466516 0.149415642
0.095317073 0.300243080 0.150274381
0.107833140 0.310208499 0.152931005
0.131612390 0.326013774 0.157448322
0.165407881 0.342493415 0.164044887
0.205345809 0.355402708 0.172656447
0.297285527 0.361222416 0.198158637
0.368599653 0.360635906 0.223727629
0.435366035 0.378787518 0.231399760
0.492464989 0.392220318 0.235113457
0.540460885 0.400730014 0.239783138
0.585395038 0.408797950 0.246254593
0.631281197 0.418103635 0.254832387
0.680155098 0.429502726 0.265753895
0.733262181 0.443652421 0.279240280
0.791150331 0.460684866 0.295371264
0.856512606 0.481260151 0.313820124
0.116970077 0.369419664 0.185045898
0.119571075 0.371739596 0.185481250
0.130150005 0.379552007 0.187222451
0.150296777 0.391912341 0.190966398
0.179741964 0.405270964 0.196951956
0.209432930 0.418214887 0.198085457
0.264535844 0.427920818 0.208156705
0.378328681 0.430184156 0.241107568
0.441694379 0.428173780 0.263482839
0.501851916 0.445176721 0.272011667
0.554768801 0.459817290 0.276414484
0.600498974 0.468783796 0.280362636
0.644504368 0.476154089 0.285482943
0.690090358 0.484029025 0.292707205
0.740793467 0.494179070 0.302615076
0.797048926 0.507784843 0.316421092
0.862087190 0.525812387 0.333502173
0.146149516 0.444059014 0.222898006
0.148301885 0.445784688 0.223284990
0.156947494 0.451488733 0.225383997
0.173499763 0.460090816 0.230611712
0.197043508 0.470165491 0.237688750
0.220820367 0.479866326 0.239602759
0.254075527 0.490176767 0.234965891
0.348213255 0.498089969 0.246844515
0.459144533 0.498998046 0.288222015
0.512625396 0.495624363 0.305308759
0.565997481 0.510106027 0.315359533
0.615019202 0.525197625 0.320805520
0.659940243 0.535362780 0.323964268
0.704390049 0.542602897 0.327268183
0.752145767 0.550271749 0.333193898
0.805643201 0.560213923 0.342835188
0.868654490 0.575283527 0.357335508
0.176475197 0.513082206 0.265691251
0.178189620 0.514261425 0.266345561
0.184948877 0.518382430 0.269304186
0.197735697 0.524629653 0.275609136
0.215638071 0.532467067 0.282866269
0.233973816 0.540571988 0.286464870
0.255671859 0.548766851 0.280522943
0.328433752 0.557296515 0.273119003
0.443705887 0.563784838 0.296847731
0.534378767 0.564521492 0.337977201
0.579022467 0.560292542 0.350583583
0.626525760 0.571767986 0.361351311
0.673673391 0.587286055 0.367230177
0.719112337 0.598336577 0.368528992
0.766000569 0.606975198 0.370520830
0.817174077 0.615791619 0.375851333
0.877292514 0.628147423 0.386456877
0.204737246 0.572542787 0.314790756
0.206009448 0.573430777 0.315660536
0.210901633 0.576647282 0.318978876
0.219977319 0.581985414 0.324592173
0.232246757 0.588954329 0.330597252
0.244224876 0.596687078 0.333436608
0.265725374 0.604469776 0.329198867
0.327473313 0.612211585 0.316861570
0.427655876 0.619136214 0.320193022
0.532162547 0.624076307 0.357159555
0.601897478 0.624418139 0.387867749
0.640649080 0.620492160 0.398113400
0.684590340 0.630390227 0.407630503
0.731494069 0.645699084 0.412523836
0.779078007 0.658894122 0.413061500
0.829405427 0.670154870 0.414803505
0.887558103 0.682584465 0.421326637
0.226930067 0.625873685 0.367972940
0.227757871 0.626610577 0.368785739
0.230800942 0.629309475 0.371677935
0.236299872 0.634027064 0.375713438
0.243664503 0.640454888 0.379955322
0.253613651 0.647887707 0.381378502
0.282959908 0.655826092 0.376374751
0.344855845 0.663989902 0.363039643
0.434186906 0.671070337 0.356524229
0.527821124 0.676449358 0.377833188
0.610179663 0.680691242 0.415080577
0.663636267 0.680689335 0.435404629
0.699084580 0.677952051 0.443524122
0.741472602 0.687192261 0.451586306
0.789557159 0.702804089 0.456679106
0.840328634 0.719187498 0.457674444
0.897494376 0.735603571 0.461554438
0.238979265 0.676999807 0.423927754
0.239494830 0.677590370 0.424544573
0.241652906 0.679675758 0.426472127
0.246280342 0.683421433 0.428946376
0.254914522 0.688885033 0.431297511
0.273851275 0.695755422 0.431010306
0.314877659 0.704130888 0.423420608
0.380870998 0.713150144 0.407568753
0.460086286 0.721452236 0.395197511
0.539851725 0.727791905 0.404133081
0.615303516 0.732717752 0.435060859
0.677292168 0.737651527 0.464382201
0.722297251 0.738340020 0.479517758
0.756356716 0.736202121 0.487038583
0.798838139 0.744479895 0.495278895
0.848989964 0.761556149 0.500988841
0.905717254 0.783038020 0.505264759
0.252711833 0.726412475 0.479104370
0.253417760 0.726928055 0.479483485
0.257505506 0.728650272 0.480293185
0.267671704 0.732037008 0.481247872
0.287147701 0.737289965 0.481662989
0.321834981 0.744415045 0.479376435
0.371478885 0.753350616 0.469447613
0.431684792 0.763081491 0.452633888
0.497169673 0.772154033 0.438408405
0.562668622 0.779831648 0.438151598
0.625528216 0.786193848 0.455974966
0.684405029 0.792045474 0.482414275
0.736432672 0.797512472 0.506301761
0.779496849 0.799540818 0.521581709
0.814193845 0.796735823 0.530531287
0.858009040 0.804382563 0.540005147
0.912010133 0.823980927 0.548548818
0.307830721 0.778818846 0.531850398
0.309714556 0.779320300 0.531955719
0.317725569 0.781318545 0.531537950
0.333381385 0.785294294 0.530552745
0.357621074 0.791478038 0.528234422
0.391251892 0.799751401 0.523105621
0.433945835 0.808602095 0.511544824
0.482950211 0.817230463 0.495433629
0.534498096 0.825657070 0.481855154
0.585780561 0.833753824 0.476198494
0.636810362 0.841104507 0.481176645
0.689634860 0.847536504 0.498087972
0.742624104 0.853786230 0.521813393
0.793063223 0.859260559 0.545815170
0.837639749 0.861703455 0.563248217
0.874330640 0.859376252 0.574135959
0.920433879 0.866566420 0.585856676
0.382277757 0.841355383 0.578125656
0.383825749 0.841829717 0.577731788
0.390448838 0.843959808 0.576209486
0.403116047 0.847824633 0.573327184
0.423400551 0.853401124 0.568410158
0.452335864 0.860143304 0.560759127
0.487942159 0.867029965 0.549788356
0.526807725 0.873996377 0.537487209
0.566715419 0.881239712 0.527266204
0.607051313 0.888504207 0.519999444
0.648883760 0.895559311 0.516604662
0.695027351 0.902357757 0.521881938
0.747126162 0.908453882 0.539663434
0.801579654 0.913820803 0.564957559
0.852907419 0.918570757 0.590556264
0.895678222 0.918734848 0.608821988
0.932972848 0.913712680 0.620977581
0.449757993 0.908349991 0.619849026
0.451006770 0.908705354 0.619441152
0.455967247 0.910152614 0.617861748
0.465691686 0.913003922 0.614873409
0.481446743 0.916696787 0.609904528
0.503520846 0.920895457 0.603077173
0.531558037 0.924911380 0.594876230
0.562949061 0.928769529 0.585823178
0.596405029 0.932683468 0.578284502
0.632241368 0.936783373 0.572751701
0.671124756 0.941215515 0.569215894
0.715232551 0.945905149 0.572260857
0.767070532 0.950451732 0.588149786
0.823496997 0.954362810 0.617040217
0.875688791 0.956360340 0.651271820
0.915836334 0.953151405 0.681130290
0.942780972 0.944981992 0.708824992
0.005552812 0.010040125 0.017731812
0.028078126 0.019575436 0.035868686
0.072430819 0.040253937 0.054886501
0.124055952 0.062306691 0.069249250
0.180825680 0.084877819 0.081882820
0.236503482 0.106957689 0.093681440
0.292660296 0.129446000 0.106886379
0.348847598 0.151665390 0.120886751
0.404010266 0.173523948 0.135003254
0.457972944 0.195347250 0.149348125
0.510390937 0.216798991 0.163926885
0.561437368 0.238112867 0.179003313
0.612135231 0.259824991 0.194746569
0.663458943 0.281918138 0.210944265
0.717105210 0.305089593 0.228392139
0.774588466 0.329814225 0.246463627
0.839344978 0.356835902 0.266631186
0.013364062 0.035926376 0.025448374
0.031372499 0.046475124 0.040801816
0.074771442 0.064603001 0.061574873
0.133142889 0.084118947 0.076737374
0.187414244 0.102173552 0.088445693
0.241438806 0.121501617 0.099782869
0.295696855 0.140886322 0.112246074
0.350709081 0.161090270 0.125665188
0.405346900 0.181504577 0.139160201
0.458914489 0.202005312 0.152922735
0.511026025 0.222562939 0.167052865
0.561898351 0.243252560 0.181737065
0.612597644 0.264505804 0.197315440
0.663797975 0.286147028 0.213211328
0.717576981 0.309011847 0.230526581
0.774872184 0.333400071 0.248470888
0.839794993 0.360000849 0.268416196
0.029217437 0.078061558 0.045558434
0.040263500 0.087496437 0.056802001
0.071608253 0.105477564 0.076287441
0.125200391 0.119983628 0.089487754
0.195058435 0.137476191 0.100406244
0.250722319 0.152076244 0.110703997
0.302754313 0.167156368 0.121586569
0.355618238 0.183378324 0.133169889
0.408692390 0.200772136 0.145415574
0.461006016 0.218705937 0.158213750
0.512395859 0.237117320 0.171595991
0.563065410 0.256314009 0.185836121
0.613694906 0.276364207 0.201011002
0.664775252 0.297110230 0.216496333
0.718485653 0.319015414 0.233457834
0.775885820 0.342556238 0.251171768
0.841161728 0.368602633 0.271186680
0.042449318 0.127980143 0.068986751
0.049987756 0.135344833 0.075200692
0.073600374 0.151299134 0.089223005
0.111871384 0.167001203 0.108443268
0.176281065 0.176809952 0.120857075
0.251031429 0.192928031 0.130368933
0.310114831 0.205098212 0.137682498
0.362437338 0.217683583 0.146564186
0.413465947 0.231526330 0.156485379
0.464382976 0.246572822 0.167935252
0.515150428 0.262664318 0.180630133
0.565503657 0.279926181 0.194121063
0.615823627 0.298192948 0.208478376
0.666981101 0.317474753 0.223474205
0.720700741 0.337945461 0.239562839
0.778050661 0.360301137 0.257271469
0.843273044 0.384935260 0.276937634
0.057129253 0.180010885 0.094211750
0.062685810 0.185471818 0.098527059
0.080761127 0.198695302 0.106179684
0.112195894 0.216056004 0.119641557
0.159691066 0.229780450 0.137953430
0.231515303 0.235138685 0.154259264
0.307315528 0.251734555 0.163253874
0.369266182 0.263114929 0.168547004
0.421008468 0.273389935 0.174879000
0.470131278 0.284930885 0.183403134
0.519378781 0.298104376 0.194277436
0.568949938 0.312918901 0.206502080
0.619029999 0.329226553 0.219963193
0.670295775 0.346858710 0.234570026
0.724059165 0.365826249 0.250174403
0.781640112 0.386613667 0.267192185
0.846801281 0.410318702 0.286787391
0.072692186 0.234617308 0.122049257
0.077084616 0.238893047 0.125302747
0.091688499 0.250114501 0.129432872
0.118320510 0.267427057 0.136938125
0.156277195 0.283978134 0.148578167
0.220511198 0.294733763 0.167317629
0.296659559 0.296679199 0.190424308
0.369778723 0.314474791 0.198367923
0.430140108 0.326135278 0.201978758
0.480113626 0.334942013 0.206966013
0.527276993 0.344684958 0.214680314
0.574583173 0.356035829 0.224383622
0.623484373 0.369251966 0.235963821
0.674448729 0.384479374 0.249554768
0.728189290 0.401566237 0.264766783
0.786164463 0.420656979 0.281216651
0.851491034 0.443442345 0.300262868
0.091584258 0.297716498 0.154000327
0.095277064 0.301352769 0.156425953
0.107657135 0.310996830 0.158782810
0.131099015 0.326454699 0.162588015
0.164468259 0.342567950 0.169499457
0.204446629 0.355433464 0.179892510
0.295031458 0.362000525 0.202761456
0.368398339 0.361794323 0.228345081
0.435547829 0.379779518 0.235567391
0.492379189 0.392806083 0.238914520
0.540384054 0.401384890 0.243470147
0.585366607 0.409532309 0.249832392
0.631252050 0.418886393 0.258299708
0.680119932 0.430407971 0.269152552
0.733297944 0.444607437 0.282634765
0.791183829 0.461595744 0.298555583
0.856565475 0.482160151 0.316753566
0.116332948 0.369617641 0.189329132
0.119533390 0.372663587 0.191299573
0.130000710 0.380231470 0.193000585
0.149898589 0.392244697 0.196480766
0.178949013 0.405409306 0.201784953
0.208210945 0.417995095 0.204892889
0.263362050 0.427724719 0.213702634
0.376532763 0.430621237 0.244953781
0.441554636 0.429041564 0.267686248
0.501817882 0.445942521 0.275879264
0.554668903 0.460306108 0.279927105
0.600440800 0.469339728 0.283686846
0.644439161 0.476712763 0.288712382
0.690022647 0.484584421 0.295790851
0.740714133 0.494841963 0.305686086
0.797010899 0.508500993 0.319437534
0.862084925 0.526460946 0.336284906
0.145740509 0.444400996 0.226613760
0.148467317 0.446753830 0.228537962
0.157046199 0.452196419 0.230741546
0.173349947 0.460623980 0.235991567
0.196521431 0.470535398 0.242933154
0.219919384 0.480062038 0.245113701
0.253837794 0.490006953 0.241799563
0.346715480 0.497942150 0.251292706
0.458032787 0.499229193 0.291914433
0.512508929 0.496270776 0.309057593
0.565919518 0.510676026 0.318856865
0.614962161 0.525631309 0.323880374
0.659870982 0.535819292 0.326862335
0.704338849 0.542965114 0.330080330
0.752116501 0.550644338 0.335901022
0.805571258 0.560696602 0.345543057
0.868709922 0.575761437 0.359970301
0.176228926 0.513471425 0.268650562
0.178438619 0.515188575 0.270722181
0.185160697 0.519126713 0.273770928
0.197742745 0.525293648 0.280092597
0.215323329 0.533037305 0.287620038
0.233243823 0.540991545 0.291219860
0.256045729 0.548953176 0.286048263
0.328760743 0.557282627 0.279334724
0.442304552 0.563762307 0.300471514
0.533863306 0.564687014 0.341259658
0.578889132 0.560741544 0.353826821
0.626527369 0.572234094 0.364251256
0.673649788 0.587718129 0.369812995
0.719022036 0.598661482 0.370977193
0.765962958 0.607289851 0.373013496
0.817089319 0.616106510 0.378241360
0.877340019 0.628463030 0.388886929
0.204524249 0.572860003 0.317060053
0.206145182 0.574182630 0.319133818
0.211003885 0.577355981 0.322453886
0.219956145 0.582653403 0.328092307
0.231886193 0.589560211 0.334340483
0.243532375 0.597123861 0.337369233
0.266164422 0.604745924 0.333608896
0.328616709 0.612312853 0.322596639
0.427589774 0.619229615 0.324964583
0.531308591 0.624104738 0.359828711
0.601675689 0.624532282 0.390468359
0.640586555 0.620845199 0.400716782
0.684666991 0.630832732 0.409924686
0.731427431 0.646125436 0.414708942
0.778982937 0.659205854 0.415247560
0.829299986 0.670484900 0.416987270
0.887516856 0.682830155 0.423507452
0.226696000 0.626163363 0.369707942
0.227685362 0.627281487 0.371544182
0.230693117 0.629962742 0.374324739
0.236069441 0.634664714 0.378407180
0.243169129 0.641000748 0.382847190
0.253495991 0.648321867 0.384468734
0.283678949 0.656134546 0.379845381
0.346044153 0.664149761 0.367498815
0.434859276 0.671254218 0.361150503
0.527463019 0.676617920 0.380724072
0.609831929 0.680829167 0.417082191
0.663567781 0.680851281 0.437413037
0.699169636 0.678282976 0.445502907
0.741447449 0.687627494 0.453513145
0.789510608 0.703152597 0.458602458
0.840299249 0.719496667 0.459591985
0.897444963 0.735863924 0.463471621
0.238649070 0.677290320 0.425380141
0.239175320 0.678200662 0.426868528
0.241438761 0.680312455 0.428655058
0.246064276 0.683996379 0.431089401
0.254917949 0.689353824 0.433575153
0.274729878 0.696181536 0.433390945
0.316402912 0.704485178 0.426077157
0.382197917 0.713395536 0.410752296
0.460684955 0.721670806 0.398568839
0.539787710 0.728047073 0.406807065
0.614997745 0.732924759 0.436875135
0.677073777 0.737883985 0.466029495
0.722297966 0.738528907 0.481168479
0.756464958 0.736503720 0.488767475
0.798794687 0.744873106 0.496972740
0.849035919 0.761861622 0.502694547
0.905750394 0.783214211 0.506903470
0.252616584 0.726674139 0.480340362
0.253556520 0.727414250 0.481358320
0.258006543 0.729276001 0.482142180
0.268484950 0.732560337 0.483032256
0.288643003 0.737762272 0.483477980
0.323670030 0.744918942 0.481221348
0.373130828 0.753776610 0.471511096
0.432869792 0.763444901 0.455027521
0.497843474 0.772450626 0.440978765
0.562875271 0.780056655 0.440442443
0.625364900 0.786346674 0.457706690
0.684194684 0.792211294 0.483838528
0.736322045 0.797628343 0.507681608
0.779497743 0.799576640 0.522980332
0.814332604 0.797069132 0.532016456
0.858165622 0.804825485 0.541453481
0.912078559 0.824234664 0.550010026
0.308700323 0.779138565 0.532911658
0.311693877 0.779816866 0.533564746
0.319695562 0.781946599 0.533057392
0.335207641 0.785926104 0.532056630
0.359293938 0.792006850 0.529748559
0.392704904 0.800270379 0.524638355
0.435133576 0.809066355 0.513240755
0.483898193 0.817652166 0.497314990
0.535167038 0.826042295 0.483893067
0.586125135 0.834095120 0.478258878
0.636914074 0.841362536 0.483034790
0.689602792 0.847764671 0.499621063
0.742559493 0.853933513 0.523127377
0.792909384 0.859454095 0.547066748
0.837644577 0.861810267 0.564498603
0.874388814 0.859669566 0.575409472
0.920436502 0.866885483 0.587088346
0.382818609 0.841652274 0.579062462
0.385232866 0.842384160 0.578948855
0.391741991 0.844298065 0.577443123
0.404412448 0.848306298 0.574597776
0.424603730 0.853934526 0.569701314
0.453454673 0.860546768 0.562116623
0.488861620 0.867367685 0.551312804
0.527484715 0.874306202 0.539117694
0.567195117 0.881498992 0.528953433
0.607353568 0.888813257 0.521747112
0.649082482 0.895859182 0.518357992
0.695148706 0.902496457 0.523445606
0.747006357 0.908672094 0.540881634
0.801273763 0.913967431 0.566047668
0.852747619 0.918811679 0.591680765
0.895684361 0.918946207 0.610001862
0.933053374 0.913965166 0.622037649
0.450166762 0.908577800 0.620750844
0.451966763 0.908990324 0.620517433
0.456935138 0.910458624 0.618931830
0.466660947 0.913277268 0.615946412
0.482461870 0.916971624 0.611055195
0.504438758 0.921244919 0.604333818
0.532376409 0.925129771 0.596213698
0.563596845 0.928981245 0.587167919
0.596920073 0.932961166 0.579623163
0.632686019 0.937058866 0.574132323
0.671520770 0.941449523 0.570686221
0.715552866 0.946053624 0.573726475
0.767179608 0.950505853 0.589408398
0.823388994 0.954443812 0.618139505
0.875623405 0.956385255 0.652345061
0.915879250 0.953101993 0.682185113
0.942780972 0.945042014 0.709802806
0.009092125 0.020630125 0.036480874
0.019486438 0.022741938 0.045082875
0.058235124 0.040874120 0.074376002
0.106465891 0.060105503 0.092974067
0.165035129 0.079143748 0.107130378
0.226590008 0.103489064 0.117053628
0.287257642 0.127707511 0.126956508
0.346713960 0.151320577 0.138656124
0.403391898 0.174366266 0.151603505
0.458036184 0.196962759 0.164953306
0.510938287 0.218902871 0.178238988
0.562155008 0.240606993 0.192197889
0.612988114 0.262588024 0.207244620
0.664154708 0.284477532 0.222521514
0.717576563 0.307787418 0.239308387
0.774955273 0.332380384 0.257026523
0.839663863 0.359235257 0.276520491
0.015289874 0.042319879 0.043081813
0.025111813 0.047056004 0.055592373
0.059414625 0.061725818 0.081428379
0.113034017 0.079769127 0.096364751
0.172313929 0.097393878 0.110409878
0.231964111 0.118952371 0.121438876
0.290566951 0.139906317 0.131513566
0.348929077 0.161608756 0.143237814
0.404978245 0.182792261 0.155504063
0.458955437 0.203873247 0.168264553
0.511464596 0.224907055 0.181261867
0.562597990 0.245716885 0.194741249
0.613435924 0.267274171 0.209708869
0.664546967 0.288870543 0.224953264
0.718010187 0.311621785 0.241257071
0.775290787 0.335942686 0.258895725
0.840144515 0.362491250 0.278397381
0.026957249 0.082969122 0.066175625
0.034763191 0.088530377 0.075873941
0.061076250 0.104424499 0.099161014
0.112281017 0.119838372 0.112558745
0.184670374 0.138187230 0.120576501
0.244443506 0.154538319 0.131479383
0.299634904 0.171283513 0.142305002
0.354593396 0.188998938 0.153890878
0.408654124 0.206754640 0.165394992
0.461269438 0.224767998 0.176964924
0.513020158 0.243433386 0.189312622
0.564025462 0.262433857 0.202413991
0.614622772 0.282286733 0.216511741
0.665642262 0.302891940 0.231414020
0.719382346 0.324502498 0.247161031
0.776761651 0.347595960 0.264219820
0.841619134 0.373244226 0.283621132
0.038531691 0.132769018 0.092638753
0.044920567 0.138254777 0.099450007
0.066876128 0.153655767 0.117725313
0.104725450 0.168918937 0.136616945
0.169910565 0.179602817 0.143569186
0.247896180 0.194390014 0.146998942
0.308515072 0.208108321 0.154621571
0.361514151 0.221819878 0.164166182
0.413183928 0.236270189 0.174346551
0.464489281 0.251683444 0.185277998
0.515295029 0.267975569 0.196905687
0.565723300 0.285030246 0.209316432
0.616260588 0.303138226 0.222936317
0.667468965 0.322456837 0.237347960
0.721247971 0.342815697 0.252758980
0.778607726 0.364707053 0.269521385
0.843854427 0.389381796 0.288988829
0.054278627 0.183599874 0.117183752
0.059441186 0.188443810 0.121847190
0.077182002 0.202076614 0.134777501
0.108339451 0.218803704 0.150485992
0.155369386 0.232545003 0.167453766
0.228364140 0.239295691 0.174859747
0.306889385 0.253568262 0.178245634
0.368860960 0.264852822 0.182737306
0.420508742 0.276115626 0.189660519
0.469784379 0.288602173 0.198666424
0.519175768 0.302166760 0.209079742
0.568856895 0.317081124 0.220585510
0.619085670 0.333430886 0.233520880
0.670405924 0.350906104 0.247381970
0.724321723 0.369860291 0.262646139
0.781865299 0.390396327 0.278976023
