assets/photofx/luts/cinema-style/Cinema Style 15.cube
TITLE "17x17x17 Adobe/IRIDAS cube 3D LUT exported with GrossGrade v0.2.01 (beta) 64 bit"
DOMAIN_MIN 0 0 0
DOMAIN_MAX 1 1 1
LUT_3D_SIZE 17
-0.055132002 -0.055796999 -0.051729001
0.019883938 -0.054087002 -0.047966812
0.071366750 -0.046294875 -0.039071873
0.117002949 -0.031407431 -0.026436802
0.163459256 -0.005184248 0.010494502
0.198786497 0.041853312 0.032473564
0.235394657 0.072649881 0.043590751
0.282736331 0.087983817 0.051408567
0.339626014 0.098431006 0.056934003
0.398605645 0.105979316 0.061015248
0.455720752 0.111712500 0.065413997
0.513422310 0.118286252 0.072710559
0.572576523 0.128541008 0.083714500
0.632597029 0.140213072 0.096888460
0.695396185 0.158699021 0.115376890
0.765467644 0.176786974 0.131907210
0.841391027 0.199256003 0.152759999
-0.049362626 0.019110184 -0.045382127
0.022080500 0.022005189 -0.041784938
0.075125188 0.032096814 -0.033467501
0.124348007 0.044539563 -0.020814365
0.164239451 0.056499124 0.016624067
0.201903060 0.071963377 0.037082437
0.244236827 0.088797070 0.047220752
0.294728279 0.101148009 0.054300375
0.351163596 0.110248312 0.059181564
0.408455312 0.116388746 0.062620565
0.464281440 0.121292062 0.066776566
0.520851672 0.127641246 0.074247748
0.578949511 0.137044251 0.085167944
0.638043463 0.148845196 0.098799460
0.700477839 0.166492641 0.116891012
0.770380974 0.184180334 0.133509830
0.845962226 0.205891624 0.154316247
-0.021832000 0.070067748 -0.022279875
0.036939375 0.073865749 -0.018841062
0.076440632 0.079938754 -0.006126374
0.121463887 0.087812126 0.018350441
0.167737260 0.099875122 0.034060627
0.215774000 0.113753811 0.049980499
0.269001395 0.128785744 0.058988251
0.326072812 0.140825450 0.064376995
0.382845253 0.147853374 0.067260750
0.437432081 0.151661754 0.069170065
0.490491986 0.155202866 0.073079750
0.544378638 0.160321683 0.080754623
0.599882543 0.168069378 0.091387376
0.656964481 0.179243460 0.105950020
0.718869328 0.194775268 0.123332143
0.788513422 0.211359009 0.140332833
0.862757266 0.230330870 0.160275489
0.017627813 0.111124635 0.019339252
0.036052871 0.112742193 0.020981694
0.067520127 0.115683317 0.024369754
0.110269703 0.120840929 0.028586127
0.165021554 0.134507433 0.044159688
0.232040748 0.158236384 0.060635999
0.299381375 0.180136457 0.073198751
0.362891018 0.195456892 0.081103384
0.420251548 0.202941194 0.083207756
0.472959816 0.205777943 0.084052816
0.524027884 0.208119452 0.087623008
0.575894356 0.211856574 0.094864130
0.629495502 0.218074650 0.104953505
0.685560107 0.228089213 0.119705267
0.748439074 0.240872785 0.135831401
0.817274332 0.255508274 0.153715760
0.890516639 0.271033257 0.171360061
0.025472999 0.143894002 0.042617001
0.032899685 0.144812196 0.043216810
0.055515125 0.146552503 0.044931248
0.096323453 0.151918128 0.046760499
0.154044002 0.163118243 0.050922252
0.232364491 0.192485988 0.066408247
0.317287862 0.227573752 0.086156882
0.391516447 0.251755267 0.099706002
0.452479273 0.263176501 0.105535008
0.504495263 0.266925573 0.107776061
0.555006623 0.269390494 0.110822000
0.606836975 0.273275673 0.117264129
0.660900772 0.278822005 0.127006501
0.718960047 0.287032634 0.139998764
0.783681810 0.297631145 0.154882014
0.851954401 0.309896946 0.172036260
0.924246728 0.322766006 0.186557502
0.026048126 0.180739254 0.063281186
0.030530313 0.181696117 0.063337684
0.049706127 0.184984326 0.063274369
0.091778196 0.192699939 0.063197628
0.155539766 0.206817448 0.064909868
0.229434177 0.225545809 0.071370624
0.315560460 0.260892093 0.092520006
0.400819153 0.297553241 0.114423379
0.470921040 0.319331110 0.128470629
0.528847158 0.328641564 0.133677691
0.580889404 0.332444012 0.138768002
0.633934140 0.336339325 0.145215183
0.690605462 0.342028379 0.154210314
0.752597809 0.349351376 0.165265962
0.818800807 0.358475238 0.178905711
0.886661947 0.368524790 0.192783386
0.954277873 0.378863245 0.204697743
0.026378755 0.219253018 0.090311512
0.030565942 0.220138013 0.089649633
0.048317757 0.223709762 0.087242380
0.089872330 0.233667523 0.083067879
0.159965008 0.252215505 0.080525130
0.237877309 0.272035539 0.084426880
0.311440110 0.291319907 0.094858132
0.393172562 0.326986909 0.123664334
0.472940147 0.362038493 0.145520389
0.540903687 0.383128941 0.158813387
0.601061761 0.394021392 0.166176885
0.657895029 0.399607152 0.173544571
0.717728913 0.404891759 0.181664884
0.783399940 0.411475837 0.191844463
0.851004481 0.419304520 0.203307539
0.917575419 0.427636445 0.214430392
0.976467252 0.435435146 0.223478377
0.032393385 0.263009161 0.116298452
0.036849510 0.264148414 0.114860892
0.055286638 0.268769324 0.109385073
0.099707462 0.279919267 0.101221442
0.169305950 0.297780544 0.096453883
0.248518735 0.317709267 0.098757513
0.321822584 0.335700423 0.107704885
0.386181980 0.352294534 0.122209519
0.463729590 0.388517022 0.158377945
0.542840779 0.424565375 0.181714952
0.613244355 0.447328568 0.193559572
0.678347409 0.460277200 0.202086270
0.742341518 0.467016220 0.207569212
0.809479773 0.472600818 0.215165898
0.877754390 0.479057372 0.224297076
0.942299068 0.485761702 0.234048203
0.990120828 0.491333783 0.240841821
0.049049504 0.311247528 0.136806011
0.053350259 0.312396646 0.135251194
0.073423631 0.317381382 0.129451752
0.117581084 0.327834070 0.121520132
0.185724497 0.343828261 0.117315508
0.263087213 0.362446129 0.119072124
0.336681902 0.380640149 0.126679763
0.400424182 0.396668136 0.139429137
0.460667521 0.413493007 0.157003015
0.539100647 0.451311499 0.196585238
0.619263470 0.488528997 0.222932756
0.693010926 0.511504650 0.230645120
0.763565242 0.524974287 0.235575005
0.831419349 0.532004058 0.237794757
0.898603439 0.537653983 0.242531747
0.961131692 0.542718709 0.249028057
0.996857047 0.546745539 0.255154490
0.076017939 0.357233614 0.154782623
0.080577686 0.358222634 0.153651744
0.101592250 0.362745315 0.149730936
0.144658774 0.372117639 0.145096436
0.207863435 0.386436641 0.143988937
0.281208754 0.404498011 0.148322999
0.353283823 0.423557609 0.156301245
0.418836147 0.441593856 0.166679308
0.478606582 0.457763821 0.178164929
0.541889250 0.477611810 0.197169870
0.622862577 0.515900075 0.236001134
0.701820910 0.550835431 0.262744069
0.777683377 0.572287083 0.264838815
0.847668827 0.585523665 0.264454991
0.913079083 0.593063176 0.262348741
0.973727703 0.598089516 0.263960868
0.999394059 0.601018429 0.264626682
0.112169251 0.398600250 0.174771994
0.117471375 0.399692237 0.174179494
0.138753623 0.404143125 0.172237873
0.179792896 0.413265795 0.170896620
0.238112137 0.427454889 0.173137248
0.305376709 0.445581377 0.180404574
0.373411000 0.465481490 0.190981627
0.437876344 0.484997243 0.202226192
0.498622626 0.502819240 0.212210238
0.558407068 0.519155264 0.220540434
0.627099335 0.541756868 0.238742381
0.709065616 0.577057183 0.273804545
0.785473108 0.608251512 0.297405630
0.855690897 0.628513277 0.297083735
0.920115173 0.641326070 0.287756145
0.978538096 0.649453163 0.284515887
0.999994993 0.652891636 0.274993360
0.156274244 0.438683063 0.200566068
0.161536425 0.439873993 0.200462937
0.182193816 0.444675058 0.200381443
0.218985200 0.453771144 0.201627821
0.270857811 0.467931986 0.206300065
0.331966072 0.486191988 0.215282053
0.394955784 0.506400108 0.227272376
0.456694692 0.526542425 0.239638552
0.516644418 0.545392454 0.250481427
0.575413823 0.562296450 0.258558333
0.636058450 0.578499377 0.265501738
0.709961236 0.601877213 0.281783938
0.791306257 0.632187128 0.309724271
0.859214067 0.660798252 0.329926431
0.921095848 0.680673242 0.324341178
0.977200985 0.693652630 0.310091943
1.000000000 0.701170683 0.293117464
0.201515257 0.480025768 0.233532503
0.205843687 0.481144339 0.233698502
0.223902896 0.486037761 0.235012874
0.255728126 0.494985461 0.237920135
0.300696760 0.508555770 0.243646517
0.355073869 0.526011109 0.252616376
0.413668901 0.545721889 0.264124125
0.472619355 0.565673590 0.276156098
0.531182528 0.584591985 0.286877006
0.589131713 0.601950526 0.295455515
0.647587895 0.617721498 0.301404625
0.710531056 0.633843899 0.307396561
0.786432803 0.656269729 0.321283758
0.861014724 0.683120906 0.341137946
0.919839561 0.710652649 0.353884339
0.974059701 0.731095910 0.341741562
1.000000000 0.744858742 0.315624774
0.237871528 0.522038937 0.269649506
0.241587222 0.523123085 0.270005196
0.256265968 0.527493000 0.271601051
0.283619136 0.535868347 0.275051147
0.323545784 0.548667848 0.281097472
0.372681379 0.564976394 0.289481163
0.427545756 0.583457232 0.299544781
0.485082954 0.602678418 0.309921235
0.542996764 0.621400058 0.319339603
0.600509465 0.638953209 0.327032417
0.658188343 0.655494809 0.332516968
0.718510449 0.671364307 0.336105168
0.783427715 0.688242495 0.339504063
0.853252590 0.709904194 0.347287923
0.917200863 0.735752046 0.356724501
0.970855653 0.762767851 0.358242095
1.000000000 0.784391463 0.340037644
0.266828775 0.564303517 0.303031772
0.270168960 0.565352678 0.303470075
0.283258021 0.569464326 0.305187643
0.307531953 0.577233911 0.308626145
0.343189925 0.588888407 0.314322531
0.388598293 0.604007721 0.322099715
0.440451801 0.621389925 0.331435025
0.495985448 0.640022874 0.341078341
0.552903652 0.659042776 0.349824160
0.609715581 0.677783310 0.356627226
0.666895807 0.696088552 0.360294998
0.726468563 0.714557350 0.360523224
0.788782358 0.733085334 0.359024167
0.851081908 0.751791239 0.356576860
0.912391901 0.771907330 0.356252760
0.968181014 0.794113159 0.357124507
0.999937356 0.820282817 0.351280630
0.290592730 0.606147468 0.331836224
0.293727100 0.607201219 0.332234859
0.306078702 0.611361027 0.333819538
0.329098165 0.619110405 0.336951733
0.362565041 0.630534768 0.341935605
0.405528516 0.645614803 0.348601580
0.455572456 0.663534880 0.356462657
0.509672940 0.683266044 0.364484459
0.565005481 0.703569293 0.371659666
0.620143354 0.723695695 0.377184957
0.675605357 0.743418455 0.380330563
0.733621597 0.762661695 0.380555004
0.794878483 0.781602561 0.377604663
0.856243193 0.800429463 0.371595532
0.916555166 0.819567204 0.364232898
0.971728861 0.837995946 0.368911386
0.999501407 0.859969079 0.360383928
0.326303005 0.662553012 0.356633991
0.329126745 0.663581431 0.356943369
0.340428382 0.667734504 0.358251125
0.361651689 0.675499678 0.360780686
0.393205523 0.687234759 0.364712000
0.433431000 0.702101409 0.369704366
0.479905397 0.719200730 0.375573754
0.530183733 0.737568617 0.381692052
0.581601501 0.756281972 0.387210011
0.633250773 0.775092900 0.391465306
0.686205983 0.794000268 0.394074023
0.742402852 0.812855899 0.394671828
0.802491009 0.831828237 0.392607272
0.863298595 0.851285160 0.387305498
0.924177289 0.872120023 0.378991663
0.981677592 0.894255280 0.377917022
0.999536991 0.903724015 0.522904992
-0.054686688 -0.053879812 0.007520996
0.017917998 -0.051511686 0.020845685
0.069996685 -0.045614813 0.027462121
0.118675202 -0.034354869 0.034656435
0.167248249 -0.009676185 0.039285496
0.197144881 0.036344375 0.045562062
0.229259655 0.067027688 0.050782628
0.277271867 0.082030691 0.055748817
0.335345387 0.092593253 0.060449123
0.394057691 0.100413688 0.063862748
0.451433539 0.106682628 0.068129003
0.509900153 0.113697499 0.075975880
0.569225848 0.123391256 0.086397439
0.629734993 0.135930762 0.100322887
0.692489922 0.153565824 0.117601827
0.762638390 0.172436908 0.134347260
0.838616014 0.194642559 0.154435322
-0.051907938 0.023091746 0.018401623
0.015929561 0.019425189 0.023556937
0.062345251 0.028213944 0.031638119
0.106082253 0.039389558 0.037731308
0.146473825 0.054040253 0.042068370
0.191288307 0.069097690 0.048644189
0.238441199 0.084094256 0.053710129
0.290964425 0.095552817 0.058385629
0.347631067 0.104761250 0.062600188
0.404469103 0.111043870 0.065323435
0.460473120 0.116363063 0.069385819
0.517627358 0.123024687 0.077407755
0.575941384 0.131979689 0.087758571
0.635315597 0.144598886 0.102103762
0.697731614 0.161585331 0.119065456
0.767573953 0.180013776 0.136082202
0.843349457 0.201471314 0.155941889
-0.036386687 0.073648557 0.023351133
0.021113561 0.060702626 0.028968446
0.055125061 0.065175250 0.035880122
0.103979446 0.078886010 0.042891629
0.158314139 0.095745876 0.050878562
0.212034121 0.111381315 0.059415936
0.267633021 0.125550315 0.064428002
0.324586511 0.136541009 0.068618871
0.380750388 0.143202946 0.070796005
0.434900135 0.147009879 0.072149873
0.487896174 0.150656000 0.076013379
0.542054534 0.155804798 0.083519757
0.597722411 0.163377568 0.093602628
0.654684663 0.175148889 0.108854577
0.716579497 0.190434709 0.125401944
0.785849869 0.207701772 0.143065453
0.860617757 0.226443440 0.161789998
0.008345628 0.105649948 0.035865813
0.025589937 0.101389825 0.038630128
0.054611873 0.105391510 0.042244755
0.096590698 0.112202823 0.046897314
0.157480568 0.130434945 0.057532750
0.229863048 0.156913891 0.070392065
0.298888087 0.178679079 0.080611564
0.362367153 0.193031445 0.086227693
0.419586182 0.199970886 0.086578198
0.471859992 0.202497572 0.087403320
0.522701621 0.204573184 0.090967633
0.574677289 0.208295062 0.097556256
0.628130436 0.214527249 0.107608005
0.684058130 0.224643782 0.122171208
0.746967673 0.237588599 0.137718454
0.815323234 0.252457231 0.156081632
0.889187694 0.268070310 0.172864184
0.018179439 0.133691579 0.052306440
0.023949374 0.134160697 0.053104252
0.045471936 0.136777744 0.055536814
0.087107204 0.145395249 0.057414815
0.149017483 0.161273628 0.062110934
0.230751544 0.192476630 0.077159308
0.317388952 0.227773130 0.095186949
0.391820401 0.251266062 0.106267184
0.452002019 0.261838078 0.111369438
0.504034579 0.265237242 0.112106755
0.554701209 0.267529011 0.114152379
0.606499493 0.271134138 0.120004378
0.660279870 0.276493996 0.129880875
0.718242705 0.284692258 0.142379820
0.782647967 0.295401663 0.157345966
0.850929976 0.307741463 0.174110070
0.923679411 0.320871681 0.188095748
0.020385439 0.171288133 0.072024941
0.024198249 0.172760129 0.072002128
0.041977372 0.177167624 0.072151445
0.083921321 0.186964869 0.071862318
0.149723202 0.203581825 0.073368251
0.226667196 0.225099564 0.080568552
0.314318836 0.261209220 0.102410562
0.400461406 0.297822505 0.123657562
0.471158683 0.319399983 0.135342687
0.528685272 0.328092754 0.139324754
0.580753088 0.331612080 0.143076062
0.633899927 0.335373998 0.148611754
0.690477967 0.340861470 0.157108396
0.752401292 0.348098189 0.167718709
0.818341315 0.357105941 0.181276813
0.886330307 0.367187142 0.194663316
0.954167962 0.377587676 0.206560180
0.023389068 0.216270506 0.097240254
0.027363755 0.217497379 0.096581198
0.044458315 0.222025394 0.094293691
0.085618965 0.232961580 0.090519190
0.155585855 0.251594931 0.088302575
0.234502077 0.271663010 0.092464946
0.309118867 0.291217417 0.103164077
0.391526848 0.326964051 0.132327467
0.472269982 0.362380505 0.154171199
0.541119874 0.383643329 0.166037455
0.601269424 0.394007355 0.171222076
0.657891035 0.399272144 0.177762389
0.717714787 0.404420316 0.185153067
0.783447504 0.410935372 0.194523767
0.850984693 0.418634713 0.205506384
0.917491674 0.426940024 0.216457263
0.976577222 0.434703588 0.225379944
0.030305570 0.263516515 0.121357203
0.034636632 0.264767528 0.120037012
0.052717388 0.269752651 0.115108944
0.096423022 0.281106144 0.108252756
0.165403709 0.298607051 0.104304500
0.245011330 0.318124652 0.106881447
0.319086879 0.335926503 0.116106011
0.383964032 0.352303147 0.130703270
0.461954385 0.388467520 0.166586205
0.542219341 0.425099820 0.189394578
0.613426328 0.448105395 0.200576574
0.678577960 0.460550338 0.206862077
0.742400229 0.466937095 0.211356774
0.809603930 0.472378641 0.218006149
0.877815187 0.478792310 0.226953477
0.942370117 0.485428870 0.236126527
0.990256906 0.490999848 0.242774770
0.046053439 0.311432034 0.140113518
0.050241880 0.312594146 0.138627812
0.069972508 0.317607045 0.133084625
0.113602147 0.328014433 0.125772193
0.181930214 0.343932003 0.122162946
0.259539902 0.362512529 0.125204444
0.333467871 0.380683899 0.134423077
0.397962630 0.396755397 0.147410393
0.458538711 0.413486898 0.164986625
0.537504256 0.451502264 0.204210132
0.618850887 0.489287943 0.229779884
0.693098545 0.512391090 0.237173706
0.763650656 0.525392771 0.240321949
0.831585467 0.532078147 0.240972385
0.898685455 0.537586033 0.245267138
0.961327851 0.542567790 0.250958204
0.996915758 0.546608627 0.257151574
0.072301753 0.356851995 0.157027885
0.076785937 0.357841313 0.155882999
0.097579993 0.362335145 0.151877299
0.140537143 0.371666312 0.147160009
0.204308137 0.386054784 0.146150574
0.278294086 0.404248953 0.151175126
0.350848764 0.423463255 0.160294622
0.416734278 0.441617638 0.171773076
0.476519316 0.457960278 0.185094193
0.539703131 0.477540493 0.203932002
0.621457994 0.516329765 0.242713377
0.701395094 0.551722527 0.269151807
0.777603805 0.573090076 0.270407677
0.847678542 0.586008608 0.269070059
0.913183808 0.593275547 0.265604556
0.973921835 0.598112345 0.266167134
0.999399483 0.600978196 0.266488552
0.108627938 0.398220390 0.176539004
0.113926113 0.399308085 0.175927758
0.135144264 0.403732330 0.173948243
0.176391378 0.412862241 0.172567442
0.235027000 0.427078933 0.175000429
0.302736878 0.445289284 0.182633683
0.371323466 0.465292811 0.193374380
0.436268717 0.484928638 0.204794943
0.497230500 0.502876997 0.215464503
0.556782067 0.519362450 0.225599438
0.624868929 0.541685104 0.244407117
0.707646012 0.577609122 0.279639989
0.784784734 0.609042645 0.302909374
0.855516315 0.629149973 0.301565170
0.920042098 0.641834557 0.292140931
0.978661299 0.649644613 0.287180692
0.999996126 0.652987242 0.277386636
0.152856126 0.438136816 0.201594800
0.158139870 0.439329624 0.201484829
0.178960711 0.444156975 0.201394245
0.216159016 0.453339696 0.202693880
0.268338621 0.467589796 0.207708865
0.329621017 0.485924631 0.217168942
0.392900497 0.506232619 0.229517996
0.454980731 0.526480019 0.242059126
0.515210271 0.545433342 0.253111988
0.574208319 0.562428236 0.261414289
0.634912670 0.578684926 0.268666923
0.708172500 0.601989388 0.286112070
0.789865494 0.632699490 0.314433873
0.858472645 0.661414862 0.334173769
0.920803308 0.681236863 0.328533113
0.977202356 0.693943739 0.312815964
1.000000000 0.701396942 0.296462744
0.197795630 0.479253262 0.234035760
0.202177510 0.480382234 0.234205127
0.220593199 0.485351115 0.235546753
0.252860695 0.494406879 0.238559574
0.298255593 0.508132577 0.244592577
0.352890700 0.525700688 0.253899246
0.411745220 0.545524001 0.265736133
0.470937431 0.565588534 0.278052866
0.529636741 0.584651351 0.289276302
0.587811589 0.602110386 0.298050880
0.646421731 0.617967367 0.304227620
0.709382951 0.634102345 0.310418189
0.785162389 0.656454146 0.324399501
0.859854579 0.683551610 0.344853520
0.919293463 0.711152673 0.357380539
0.973834515 0.731518567 0.345380634
1.000000000 0.745068133 0.318885803
0.234563455 0.521295667 0.269993424
0.238298655 0.522381902 0.270346284
0.253150851 0.526782155 0.271925420
0.280850798 0.535220265 0.275355041
0.321086884 0.548093140 0.281421810
0.370543599 0.564501107 0.289849222
0.425849199 0.583124399 0.300003946
0.483708739 0.602481425 0.310565650
0.541731179 0.621373355 0.320614785
0.599259913 0.639090776 0.329057902
0.657077610 0.655724466 0.334822088
0.717467248 0.671687722 0.338775992
0.782440066 0.688588738 0.342386782
0.852226913 0.710142493 0.350262463
0.916595697 0.736150265 0.359978378
0.970569909 0.763109148 0.361497343
1.000000000 0.784569263 0.343737751
0.264213324 0.563735127 0.303396404
0.267560631 0.564782977 0.303832650
0.280709088 0.568896949 0.305540204
0.305149734 0.576705039 0.308985770
0.341021895 0.588400364 0.314695388
0.386644989 0.603596389 0.322523773
0.438828856 0.621097267 0.331966579
0.494637370 0.639831066 0.341717005
0.551804125 0.658936143 0.350556105
0.608873427 0.677762151 0.357448816
0.666170478 0.696149707 0.361342281
0.725726008 0.714727879 0.362155408
0.788044572 0.733372867 0.361379474
0.850482523 0.752122641 0.359383106
0.911877811 0.772197902 0.359293550
0.967844725 0.794408202 0.360468566
0.999936521 0.820366979 0.355311513
0.288423717 0.605695248 0.332250595
0.291564345 0.606746256 0.332651854
0.303921908 0.610882044 0.334230065
0.327008992 0.618633032 0.337364078
0.360672086 0.630129397 0.342374027
0.403862804 0.645274580 0.349087328
0.454140782 0.663266480 0.357028961
0.508479893 0.683085918 0.365144044
0.564059436 0.703473389 0.372401267
0.619411707 0.723663509 0.378001511
0.675012589 0.743430436 0.381211638
0.733111382 0.762709200 0.381513208
0.794481158 0.781683564 0.378651798
0.855929971 0.800548911 0.372937351
0.916290760 0.819815099 0.366933525
0.971598923 0.838261902 0.371938199
0.999494791 0.860081017 0.363869220
0.324821770 0.662214577 0.357153356
0.327673614 0.663253307 0.357462734
0.338978738 0.667401135 0.358770490
0.360198259 0.675150514 0.361311436
0.391867697 0.686930418 0.365265489
0.432239145 0.701834977 0.370278239
0.478841662 0.718995750 0.376227498
0.529214501 0.737426102 0.382485360
0.580774784 0.756181359 0.388074577
0.632590294 0.775025070 0.392345637
0.685676694 0.793968558 0.394988447
0.741967916 0.812859893 0.395655245
0.802128792 0.831861675 0.393681079
0.863039136 0.851332724 0.388447374
0.923998415 0.872160256 0.380326778
0.981608093 0.894321680 0.379480839
0.999530435 0.903736174 0.525099695
-0.053356752 -0.047059126 0.036194999
0.010120811 -0.044272751 0.062261440
0.067073502 -0.041283377 0.072071254
0.111670323 -0.030550431 0.075362876
0.161769390 -0.004326247 0.080362499
0.199642062 0.030862750 0.076506004
0.231229275 0.055525251 0.073127873
0.275642395 0.068551816 0.073275186
0.328618020 0.078463249 0.075251624
0.384345502 0.086516306 0.078325436
0.441161394 0.093141243 0.082653120
0.499298513 0.100143440 0.090204000
0.559006155 0.109204873 0.100653879
0.619557142 0.121166132 0.113562331
0.682093084 0.137866125 0.129864886
0.751146793 0.157596588 0.146445066
0.828102529 0.178141370 0.161837503
-0.051099502 0.030954558 0.055952497
0.013407749 0.030617382 0.064507186
0.060126439 0.031694006 0.071234375
0.098606877 0.041060500 0.075040936
0.143592313 0.050561816 0.075253628
0.189110935 0.061570503 0.074014068
0.235633850 0.073787197 0.073846504
0.285317659 0.083088748 0.074877754
0.339293569 0.090912752 0.076931313
0.394494861 0.097105816 0.079721808
0.449948937 0.102642186 0.083869442
0.507283509 0.109211378 0.091634750
0.565843225 0.117689565 0.101974510
0.625485241 0.129902512 0.114958256
0.687443137 0.146226019 0.131299019
0.756285667 0.165385202 0.147863775
0.833190322 0.185557246 0.163375571
-0.035439871 0.082579121 0.073045626
0.009729000 0.069399565 0.071078435
0.043381996 0.069121875 0.073565878
0.092437260 0.081127569 0.078051500
0.149692506 0.093465872 0.080808371
0.206192076 0.105504937 0.082418941
0.262999028 0.116178878 0.083687879
0.318848342 0.124358244 0.084658504
0.373199910 0.129620373 0.085322380
0.426142126 0.133278117 0.087045431
0.478908390 0.136846244 0.090648882
0.533158123 0.141952366 0.097904630
0.588899970 0.149587259 0.107973002
0.646120250 0.160990268 0.120801255
0.706926823 0.176502377 0.137566373
0.775823176 0.194176689 0.153427333
0.851774991 0.212853119 0.169615865
0.003107062 0.109039068 0.075789310
0.016216502 0.098774947 0.075883128
0.040048998 0.101679198 0.077003628
0.081886768 0.110178329 0.080637187
0.150019869 0.130887643 0.088584691
0.226001263 0.155428514 0.098687999
0.294912815 0.173089951 0.104214191
0.357572913 0.184294581 0.106036194
0.414128184 0.189644068 0.105634198
0.466164738 0.191344187 0.104687944
0.516770601 0.192887694 0.106439508
0.568488002 0.196561709 0.112382010
0.621899903 0.202900082 0.121236265
0.677341402 0.212661847 0.134122387
0.738995254 0.226294845 0.150081635
0.808033824 0.241231397 0.165063083
0.882245898 0.257875293 0.181717247
0.013276375 0.134932503 0.084634498
0.017953189 0.133948743 0.084790565
0.036232248 0.138453633 0.085502625
0.076620385 0.147341385 0.087938435
0.140902132 0.163162887 0.093712501
0.227078691 0.194095567 0.108766623
0.315311372 0.227492005 0.125237629
0.387636721 0.247201309 0.133264005
0.447558373 0.256159753 0.134247378
0.500284553 0.258994818 0.132041678
0.551188111 0.260565519 0.132084757
0.603178501 0.263394624 0.135417566
0.656918049 0.268399864 0.142861888
0.713830948 0.276388079 0.154990569
0.777757585 0.287294000 0.168592393
