assets/photofx/luts/cinema-style/Cinema Style 11.cube
TITLE "17x17x17 Adobe/IRIDAS cube 3D LUT exported with GrossGrade v0.2.01 (beta) 64 bit"
DOMAIN_MIN 0 0 0
DOMAIN_MAX 1 1 1
LUT_3D_SIZE 5
-0.044578999 -0.046831999 -0.043253001
0.104841754 -0.024935748 -0.029142501
0.275059998 0.015575003 -0.002806998
0.416891754 0.048992254 0.022275999
0.486764014 0.062249999 0.031107999
-0.015128249 0.138535246 -0.010731000
0.186012000 0.166991264 -0.015517999
0.423551768 0.210501999 0.040167253
0.556795001 0.244975522 0.068768002
0.602977276 0.245961994 0.077665001
0.090286508 0.302340508 0.026774004
0.323435247 0.347510517 0.025013003
0.529808044 0.384993494 0.071142510
0.673875988 0.423881531 0.130483747
0.709745526 0.402247012 0.136990517
0.207755506 0.471772999 0.091819756
0.453987539 0.541256487 0.093730256
0.643695712 0.598604083 0.126250014
0.781499028 0.626863778 0.170664757
0.809902489 0.576110482 0.191925243
0.288170010 0.583453000 0.135122001
0.502507508 0.651128232 0.141461492
0.657942533 0.709480047 0.153513998
0.785827279 0.728666246 0.171726257
0.874680996 0.746510983 0.209592000
-0.043644752 -0.042982250 0.082837999
0.095291249 -0.018950500 0.108552754
0.260924757 0.018352753 0.131235510
0.391074985 0.050900251 0.147740513
0.465185225 0.067385748 0.147171751
-0.015010749 0.145586491 0.166687995
0.159351736 0.205909744 0.215570256
0.436940014 0.269352257 0.241224512
0.580037236 0.290621012 0.244868010
0.639888525 0.299744487 0.247645259
0.014323503 0.294871002 0.216558248
0.252504230 0.374070764 0.216176748
0.555538476 0.447682530 0.256301492
0.715464711 0.501656532 0.321157277
0.765582740 0.490500510 0.331303775
0.084994502 0.426335990 0.229929745
0.338298768 0.532342315 0.255240530
0.643519282 0.645177007 0.282012522
0.803720713 0.685096979 0.330919504
0.838632464 0.645850778 0.372859776
0.163511753 0.511050761 0.233989492
0.497929275 0.694240212 0.376308501
0.662469506 0.755790472 0.396947503
0.799245000 0.798774779 0.405974507
0.902791739 0.824525952 0.447859764
-0.030069999 -0.013931498 0.181739509
0.093572259 0.005590003 0.198900014
0.225980014 0.036649503 0.224898502
0.378147006 0.062821500 0.229759499
0.456874013 0.078275502 0.219321996
0.000932002 0.167410493 0.269874513
0.138153002 0.224514008 0.331303746
0.336015493 0.264492244 0.352217764
0.550566792 0.296446025 0.346464515
0.631068230 0.310155511 0.329012513
0.035488002 0.304300010 0.346341997
0.165512010 0.360615492 0.395032227
0.488754541 0.522669017 0.504684567
0.741673827 0.600259781 0.550607324
0.814491510 0.618539095 0.560102940
0.073146999 0.431482524 0.390522003
0.199476272 0.498516530 0.429597497
0.618928075 0.703208268 0.525306463
0.816516459 0.759987473 0.578071952
0.874195218 0.749471724 0.609936714
0.096736997 0.519982994 0.386226028
0.372803509 0.641821504 0.434606016
0.704813480 0.810323954 0.585361481
0.824034512 0.855774283 0.615020037
0.917785525 0.876668513 0.655918002
-0.014206249 0.017773502 0.269783735
0.092716001 0.026553750 0.273939013
0.204879254 0.065876000 0.313228220
0.337591499 0.086390004 0.325681746
0.440574497 0.090852499 0.292742014
0.015855001 0.189914748 0.355638504
0.146902010 0.246142998 0.422613263
0.261207998 0.275136769 0.453092515
0.479930997 0.316756755 0.464909017
0.613869011 0.329068512 0.421761006
0.053020753 0.311497509 0.434602022
0.176160008 0.365324795 0.490146756
0.402223557 0.512787223 0.618397713
0.658593237 0.585698009 0.637727976
0.798284769 0.616895258 0.626904309
0.096848749 0.444386005 0.504060507
0.213659763 0.502357006 0.554388285
0.459247798 0.669633269 0.683515728
0.811495960 0.803022981 0.751042783
0.896426737 0.827808499 0.780236483
0.108661756 0.511678755 0.487854272
0.289576501 0.633769512 0.581590950
0.606016815 0.791758299 0.675372958
0.846374750 0.889447212 0.772485495
0.926171780 0.911903739 0.812502503
-0.005160000 0.036529001 0.319124013
0.087501250 0.037704501 0.315567732
0.170215502 0.067197502 0.344624996
0.276556253 0.102756500 0.380193740
0.399345011 0.115924001 0.384425014
0.021943001 0.191440254 0.393500507
0.161810756 0.267177999 0.466504753
0.231497005 0.291966259 0.491955221
0.340016007 0.324679732 0.522581041
0.558878005 0.382981777 0.544103026
0.054875501 0.294042498 0.464640498
0.200062752 0.367057502 0.532163024
0.411984503 0.531455517 0.668689966
0.533949792 0.571968257 0.696304500
0.723424017 0.620383024 0.700480461
0.090779498 0.402165502 0.529058993
0.246683761 0.486849010 0.607150972
0.484334528 0.646774054 0.728883743
0.803804755 0.813420475 0.817072451
0.882372499 0.836042523 0.836054206
0.131207004 0.531325996 0.595717013
0.302769244 0.640836716 0.684565246
0.550094008 0.780173004 0.783273458
0.830615759 0.895609498 0.847287536
0.915221989 0.920796990 0.875773013
