assets/photofx/luts/cinema-style/Cinema Style 07.cube
TITLE "17x17x17 Adobe/IRIDAS cube 3D LUT exported with GrossGrade v0.2.01 (beta) 64 bit"
DOMAIN_MIN 0 0 0
DOMAIN_MAX 1 1 1
LUT_3D_SIZE 5
0.000000000 0.000000000 0.000000000
0.134920999 0.012274750 0.007057501
0.399130523 0.046417005 0.023950500
0.652131021 0.115517750 0.053568751
0.923901975 0.197160006 0.097640999
0.013505750 0.104994506 0.004874250
0.176416516 0.191370502 0.010249501
0.448954493 0.240701497 0.040847003
0.680487812 0.271607757 0.071760498
0.940909982 0.312775999 0.111516997
0.100016013 0.331349492 0.027961504
0.220081508 0.391877770 0.048125505
0.460763514 0.485323519 0.059865005
0.711273074 0.507877231 0.099847250
0.969187498 0.524399996 0.141586006
0.266871005 0.547154486 0.145926014
0.328750998 0.573510528 0.158742994
0.474470735 0.631375730 0.175250009
0.681720734 0.710388958 0.135648757
0.983653009 0.756298006 0.152333498
0.327841014 0.718936026 0.241842002
0.371968985 0.732849002 0.244742751
0.495840490 0.775047481 0.261613011
0.661838233 0.846479237 0.265866756
0.926837027 0.952643991 0.403872013
0.002280500 0.016770002 0.103178255
0.099356756 0.014586502 0.165378004
0.366215020 0.013722751 0.159370258
0.626277268 0.040327750 0.178458273
0.911748528 0.111278996 0.204967260
0.003909500 0.177938253 0.166393504
0.147590011 0.200603515 0.212122262
0.459845781 0.234635755 0.219883993
0.690251768 0.258006245 0.224415511
0.945797205 0.287360489 0.230064988
0.032210503 0.331311762 0.099414006
0.185401499 0.400522739 0.150840759
0.462238252 0.492737502 0.222833008
0.718391001 0.509595990 0.240577757
0.975956261 0.522060752 0.239789009
0.199307263 0.524662733 0.156104013
0.288692027 0.567392230 0.201732755
0.461293519 0.634792507 0.240201011
0.679425001 0.711686730 0.216027260
0.985161781 0.756036997 0.243238270
0.303548992 0.717059493 0.275316238
0.354978234 0.734894991 0.280380964
0.487682760 0.778865755 0.284474760
0.657427073 0.846839964 0.294242263
0.931472778 0.959656239 0.397120506
0.005219000 0.096963003 0.312073529
0.030351751 0.133431762 0.411873281
0.305755019 0.037994001 0.381281018
0.532247305 0.025116503 0.389313519
0.836426020 0.098447502 0.452575505
0.009758000 0.254774004 0.415902019
0.054963000 0.302325279 0.483361751
0.428305775 0.210381001 0.505258024
0.635911226 0.178509504 0.461836010
0.896087229 0.268445998 0.481080025
0.016613502 0.475408494 0.466469526
0.106613003 0.496082515 0.487744749
0.455327988 0.515228987 0.533023000
0.702394783 0.508612990 0.491029263
0.956024528 0.517008007 0.484313011
0.208852008 0.613413990 0.455150276
0.305923253 0.625917494 0.469387263
0.475836515 0.657336950 0.506932259
0.674803793 0.712119699 0.497477770
0.981745243 0.752663493 0.484745026
0.310909510 0.761896491 0.481045544
0.365211785 0.772624254 0.489602536
0.488421500 0.807096004 0.498790532
0.668354034 0.878829002 0.477510780
0.941344976 0.970165014 0.481661022
0.008127500 0.203378007 0.494769037
0.021385502 0.241061762 0.557868540
0.300732791 0.260080993 0.654717982
0.504851758 0.112168014 0.565946579
0.728044510 0.164816022 0.623264551
0.018682005 0.335360020 0.560104549
0.051044513 0.376370758 0.610852718
0.350944042 0.423190534 0.702496767
0.598680258 0.277667284 0.656297445
0.794221044 0.315697759 0.671360254
0.083947018 0.530452967 0.633143067
0.167262241 0.551983714 0.664668262
0.428065032 0.588059008 0.709663033
0.649873495 0.553915977 0.708749056
0.864537716 0.533206701 0.705609024
0.186944515 0.687557518 0.669207275
0.208656266 0.692784309 0.673857450
0.462346286 0.716993272 0.699576735
0.657645762 0.717650056 0.715126276
0.941431522 0.738734007 0.711904764
0.354047507 0.844720006 0.694438517
0.407666236 0.850960732 0.698725760
0.529056191 0.866829276 0.708959997
0.678307772 0.895242035 0.713075280
0.943855524 0.973636508 0.698344231
0.035471000 0.345151007 0.669767976
0.076870002 0.375958741 0.705030501
0.261660516 0.445877999 0.781553507
0.594272256 0.417777985 0.788406253
0.736069977 0.363880992 0.760680974
0.085340999 0.438396752 0.702778459
0.130663753 0.466680020 0.731533229
0.290844262 0.521818995 0.795095503
0.612882018 0.510472000 0.804775715
0.772590756 0.473976761 0.785560250
0.214357510 0.598649502 0.760828972
0.247141764 0.612701714 0.775699019
0.387449026 0.644656539 0.814900041
0.632160544 0.653210521 0.823718190
0.815926492 0.626075983 0.815156996
0.271847993 0.756222248 0.808729470
0.297843248 0.764616251 0.819796264
0.505468488 0.783840001 0.841379762
0.676305473 0.786321521 0.850358248
0.864893019 0.775717497 0.846764505
0.355033994 0.927577019 0.858565986
0.394082755 0.931798279 0.861299276
0.541965008 0.943261027 0.869639993
0.725854754 0.954496026 0.880387247
0.930292010 0.961736977 0.890160024
