assets/photofx/luts/cinema-style/Cinema Style 12.cube
TITLE "17x17x17 Adobe/IRIDAS cube 3D LUT exported with GrossGrade v0.2.01 (beta) 64 bit"
DOMAIN_MIN 0 0 0
DOMAIN_MAX 1 1 1
LUT_3D_SIZE 17
-0.044337001 -0.036763001 -0.033950999
0.010923937 -0.036042999 -0.033435374
0.024521749 -0.032370750 -0.030263249
0.076554328 -0.010758057 -0.008917496
0.145689502 0.015074752 0.013466251
0.225294933 0.037050501 0.026467938
0.312705249 0.057127383 0.035280757
0.398036331 0.081323698 0.053082578
0.474376500 0.109200507 0.078904510
0.542865753 0.138657123 0.106752500
0.606017649 0.169638127 0.136011124
0.664007306 0.200585619 0.165267065
0.717626512 0.228194505 0.190855756
0.767344832 0.249943197 0.211658329
0.810886025 0.265938491 0.226029381
0.844167829 0.276841491 0.234852627
0.858714998 0.281574011 0.238851994
-0.043109812 0.028982002 -0.031911936
0.011991749 0.030165125 -0.031082248
0.026118064 0.040592372 -0.025361249
0.081210077 0.062441386 -0.000391682
0.152303398 0.085981816 0.021573562
0.233826250 0.106527001 0.033399813
0.323091835 0.126677379 0.042898882
0.408404350 0.149048701 0.061910823
0.484077394 0.174543753 0.088085011
0.552002192 0.202061370 0.116073005
0.614574730 0.230755255 0.145082369
0.672372937 0.258893430 0.173170507
0.725770533 0.283392072 0.197565064
0.774865031 0.302504152 0.217018574
0.819309235 0.316607416 0.230569899
0.852233708 0.325587332 0.238895938
0.865135908 0.328148067 0.242145434
-0.038535751 0.099571005 -0.006650375
0.016431937 0.100932620 -0.004068939
0.039560124 0.105237752 0.002204997
0.099411331 0.111719005 0.018783938
0.177076995 0.131288260 0.033651002
0.258712560 0.152364999 0.041990936
0.341902405 0.174998254 0.060346384
0.424282640 0.198406190 0.082780764
0.500503600 0.222611621 0.107679255
0.570424259 0.246915638 0.133978561
0.634146154 0.271546006 0.161784887
0.692176878 0.295977384 0.188601255
0.746784389 0.317271024 0.211201757
0.797454774 0.334111065 0.229066834
0.842663288 0.346225500 0.241354138
0.874427736 0.353644878 0.249593809
0.886097610 0.354935765 0.252402991
-0.030152496 0.165625319 0.018835066
0.029747255 0.171066254 0.021813007
0.062428191 0.174604133 0.027031505
0.107815772 0.171110451 0.039558128
0.196573570 0.179049194 0.046290323
0.283490747 0.195939958 0.061177820
0.367778212 0.219008476 0.081640013
0.448678464 0.243900016 0.105409585
0.525464177 0.267573684 0.130027696
0.595052242 0.290414184 0.155211180
0.657906413 0.313417792 0.180998251
0.716102600 0.336281359 0.206104815
0.772711456 0.355782241 0.227077067
0.826138258 0.370802134 0.243582696
0.870771885 0.381192446 0.255722255
0.899190724 0.386261731 0.263022691
0.906586647 0.384512365 0.264570117
-0.013374999 0.233291999 0.043403000
0.046638500 0.240763336 0.045006689
0.083732128 0.247461766 0.050398249
0.136548072 0.240092829 0.065831006
0.199673504 0.236715734 0.077627003
0.298501879 0.246603251 0.084623002
0.388930440 0.263836116 0.103405513
0.476910174 0.287276626 0.128266767
0.557828546 0.310819238 0.153996021
0.628218949 0.334440857 0.180735812
0.690591395 0.357358247 0.205839366
0.750190258 0.378387630 0.228481382
0.807983518 0.396010756 0.247203499
0.859678984 0.410023183 0.261892974
0.898034215 0.420046985 0.272755623
0.918295562 0.424597442 0.278899491
0.923220754 0.421227485 0.279163241
0.002747812 0.302240431 0.066328943
0.066401564 0.309569299 0.068207689
0.108553745 0.319356143 0.075699754
0.162443131 0.314267457 0.090544127
0.228151694 0.303726256 0.106886432
0.308267355 0.310364813 0.115615681
0.404696792 0.319473565 0.129193813
0.495671988 0.335978001 0.151452199
0.580916345 0.356627107 0.177735329
0.655332148 0.379416078 0.205496192
0.722111344 0.402548313 0.231316373
0.785435140 0.422453910 0.252310127
0.842414856 0.438665450 0.268559635
0.887339175 0.451490998 0.281253994
0.916964948 0.459947199 0.290415734
0.933462203 0.463148922 0.295670688
0.937521279 0.458312988 0.295101941
0.023555003 0.371050149 0.090644255
0.084716879 0.377015769 0.091889255
0.128824130 0.387971520 0.100326888
0.191205025 0.390755832 0.118684888
0.258217394 0.380225033 0.135723010
0.339531422 0.383426070 0.151326641
0.419566780 0.397044510 0.165557891
0.510974944 0.401638269 0.182057887
0.595650315 0.413434803 0.204980150
0.671401799 0.429883093 0.230178118
0.742843270 0.449498773 0.253902107
0.810664475 0.467419267 0.273316383
0.866009593 0.482196778 0.288077772
0.904617369 0.493564516 0.299392432
0.928294539 0.500044227 0.307153523
0.942543387 0.501283944 0.311560035
0.945956886 0.494366109 0.310272872
0.040958762 0.437342852 0.114648201
0.104650825 0.446334600 0.116769202
0.158748522 0.456130147 0.129786149
0.225325346 0.461997390 0.149401516
0.294277877 0.455315650 0.167868957
0.368105322 0.458681643 0.186099321
0.446443975 0.472835958 0.203621522
0.517266095 0.490633309 0.224771544
0.602173984 0.489329040 0.240533665
0.680711806 0.495065957 0.259150445
0.753264546 0.504218996 0.277232558
0.823216140 0.515562952 0.292552173
0.877555490 0.526869297 0.305551171
0.912129045 0.535682976 0.315879494
0.932791352 0.539945364 0.322402209
0.943034470 0.538615584 0.325280815
0.946749985 0.529192030 0.323231012
0.065570511 0.507179499 0.139856502
0.132728830 0.515478253 0.144364506
0.191884249 0.524046004 0.160762757
0.261804342 0.527939379 0.180382758
0.328580260 0.524635077 0.198868245
0.393964320 0.528796434 0.217060000
0.463186264 0.544721067 0.239154264
0.528580904 0.562893867 0.260709763
0.593102574 0.584339023 0.283539534
0.677155137 0.576341927 0.294380665
0.757653952 0.575255394 0.306037366
0.826923728 0.574238062 0.316000015
0.880024314 0.576970458 0.325130522
0.912615657 0.580326438 0.332919240
0.930358291 0.580967009 0.337396741
0.938038409 0.576108694 0.338123858
0.942590475 0.564232469 0.334996521
0.091050684 0.578500628 0.166924626
0.160006255 0.583746970 0.173313871
0.221909314 0.590290427 0.190436304
0.289150089 0.590975821 0.208525881
0.352538943 0.589332461 0.226744130
0.410807252 0.593960941 0.243928060
0.471117079 0.610133350 0.265068173
0.533795238 0.629305840 0.290401816
0.591574073 0.647813678 0.314061940
0.661394238 0.672023892 0.335989118
0.746162415 0.658890247 0.340583622
0.824888051 0.649226129 0.346778125
0.877309322 0.638956308 0.351005614
0.909453750 0.631586969 0.353906244
0.923752367 0.624907613 0.354417115
0.931872904 0.616062105 0.353069872
0.937001228 0.600856781 0.348056138
0.107568502 0.638833284 0.192245379
0.177842945 0.643898189 0.199505359
0.243086994 0.649711251 0.216334760
0.307543635 0.649072170 0.233764321
0.366957873 0.648697555 0.251920879
0.420968175 0.653748512 0.268967807
0.475404620 0.668846369 0.287839144
0.533770442 0.688247383 0.311363995
0.595161855 0.705903769 0.336811721
0.656037927 0.723413646 0.360070288
0.733145237 0.748852015 0.381792754
0.806977749 0.734224796 0.383544296
0.870353997 0.714780271 0.384057760
0.903854251 0.695165873 0.381513178
0.917539120 0.675404549 0.376008123
0.926338613 0.659589827 0.371366650
0.931686699 0.639625788 0.363786638
0.124728814 0.684730411 0.214457557
0.195215374 0.690564156 0.221922874
0.259013623 0.697493255 0.238040075
0.320399642 0.698939204 0.255674392
0.376829386 0.701922178 0.274241984
0.428774744 0.708449721 0.291912824
0.480739415 0.722748816 0.310229689
0.534943461 0.740760684 0.331143886
0.594259977 0.757700861 0.354655147
0.660435975 0.773575246 0.379829437
0.725334346 0.789541364 0.401582450
0.797430277 0.814242959 0.423029006
0.853097796 0.798042178 0.422716796
0.895695686 0.769782960 0.416068077
0.911397636 0.740153015 0.405489981
0.921704650 0.710381210 0.394179195
0.927168906 0.682406068 0.382537574
0.142245516 0.734746039 0.239393011
0.213192686 0.740697205 0.246454701
0.273336649 0.748099566 0.261468261
0.330605626 0.751466155 0.277716696
0.383931518 0.758093238 0.295619249
0.434161723 0.766546130 0.313319832
0.485511243 0.779849768 0.332839370
0.538062453 0.794775784 0.353265226
0.593456030 0.808339775 0.373562992
0.655948043 0.820281506 0.395766973
0.724223197 0.833296359 0.420286357
0.786089182 0.847054839 0.439492673
0.846951723 0.868739009 0.459641755
0.884571552 0.848666549 0.455547124
0.904422879 0.813567400 0.440969467
0.916251063 0.775802732 0.424809724
0.923054755 0.734021246 0.406102508
0.168495148 0.805398703 0.271314919
0.236629069 0.808727741 0.277852833
0.289799988 0.814443827 0.291374147
0.339972556 0.816877782 0.304476887
0.388397455 0.822878361 0.319554180
0.436150074 0.831079185 0.335675478
0.486303806 0.841689706 0.355214894
0.538939714 0.852568984 0.376757711
0.594025135 0.861491919 0.396404445
0.653095782 0.868756473 0.414401650
0.715132892 0.875086486 0.434387475
0.776721776 0.883248806 0.455699444
0.832986176 0.894522667 0.472173125
0.881705463 0.912250638 0.490139425
0.898532152 0.886865675 0.479548246
0.910170138 0.845335424 0.459441364
0.917778909 0.797900677 0.436271667
0.192357257 0.847279310 0.293062150
0.256132811 0.849281728 0.298637211
0.303870112 0.857610703 0.312307149
0.347738564 0.865022421 0.326326042
0.391526997 0.872744441 0.341201514
0.437406003 0.882060468 0.357335567
0.485776871 0.891181409 0.375761271
0.536469460 0.898579895 0.395621687
0.590545595 0.904217482 0.414688766
0.648732364 0.908707440 0.431922048
0.707607925 0.912436128 0.448441505
0.763587117 0.915735662 0.465973258
0.817789078 0.919938982 0.483569384
0.866975248 0.929361224 0.497493148
0.898277640 0.945227861 0.512974083
0.906543732 0.913677812 0.496576518
0.912488341 0.862993300 0.469626516
0.206660002 0.893136382 0.314377993
0.264563113 0.896476924 0.319689602
0.311558694 0.901354432 0.332789451
0.351990670 0.904708385 0.344990015
0.392278552 0.908319056 0.357790023
0.435465753 0.913363695 0.372381002
0.481670171 0.919268310 0.389535606
0.530491352 0.925105751 0.408173829
0.582399130 0.930331647 0.426227838
0.638005316 0.934657931 0.442486376
0.694391370 0.937970340 0.457276225
0.747599423 0.940288424 0.471835196
0.798719227 0.942310274 0.487458378
0.848237216 0.945110857 0.502811134
0.887354493 0.952119350 0.514580131
0.907936215 0.966158867 0.528012156
0.910205901 0.926466227 0.504308403
0.206660002 0.904347003 0.314377993
0.260643125 0.907231688 0.318583608
0.307247370 0.912226915 0.331485003
0.345946252 0.915545523 0.343095690
0.383867741 0.918859005 0.355079740
0.424194187 0.923424006 0.368444145
0.467349529 0.928959608 0.384066641
0.512883723 0.934645176 0.401498675
0.560787499 0.940039515 0.419144511
0.612251222 0.944599926 0.435354441
0.666013837 0.948167861 0.449888140
0.718235433 0.950958490 0.463716567
0.767743528 0.952908516 0.477793515
0.815743744 0.955168247 0.492861003
0.862021923 0.959466755 0.506966352
0.892401814 0.966631413 0.517230868
0.910893977 0.978682995 0.529199004
-0.044739190 -0.035308000 0.027967125
0.010777688 -0.034660187 0.030726189
0.024983626 -0.032254938 0.039776564
0.080802828 -0.010525558 0.058007009
0.150767386 0.012716377 0.077090628
0.228934690 0.033960816 0.089174993
0.316450268 0.057298947 0.097822316
0.402784228 0.082462393 0.113232762
0.478986382 0.109686196 0.136081442
0.546582222 0.139260501 0.161986500
0.609266639 0.170706123 0.189464360
0.666644454 0.201788753 0.216728002
0.718606591 0.229184762 0.240704313
0.766940534 0.250709891 0.259740055
0.810993254 0.266904294 0.272700876
0.844874442 0.277961761 0.280466944
0.859418154 0.282706499 0.283406705
-0.044404499 0.028904188 0.033974625
0.010974562 0.030446373 0.035232745
0.025140252 0.040003873 0.042838506
0.080223694 0.060099941 0.060705755
0.150810510 0.082817003 0.080156624
0.231724560 0.103576802 0.091819614
0.321438372 0.123565815 0.099731065
0.408520758 0.145954400 0.115823269
0.484620839 0.171367332 0.138827324
0.552340925 0.198432997 0.164216563
0.615054965 0.226820365 0.191486180
0.672080159 0.255086869 0.218417689
0.724379718 0.280003637 0.242081493
0.773374975 0.299896032 0.261321068
0.818216980 0.314881563 0.274585605
0.852105558 0.325173557 0.282845050
0.866730630 0.329633057 0.286686063
-0.039057814 0.100103930 0.057926312
0.015916126 0.100478873 0.058210567
0.039374188 0.103743620 0.065070741
0.097270086 0.111614697 0.078920253
0.172510251 0.131248057 0.095093817
0.256498098 0.152048931 0.103481382
0.344409198 0.173418328 0.116745204
0.428829402 0.196436271 0.135452077
0.504872203 0.220511064 0.158220440
0.573391914 0.244997427 0.182825193
0.635706544 0.270087600 0.208997577
0.692693472 0.294777006 0.234292820
0.746641457 0.316338181 0.255965084
0.797381222 0.333533883 0.273210168
0.842858851 0.345978647 0.284979999
0.875108063 0.353880256 0.293016195
0.887273192 0.355816990 0.295904994
-0.030463371 0.165537268 0.080622315
0.026538877 0.168210268 0.081001125
0.059955131 0.174312010 0.088075005
0.105716459 0.172170758 0.097955748
0.194487989 0.178907141 0.105952069
0.284217030 0.196329445 0.117589563
0.369324714 0.219447717 0.135347381
0.449974656 0.244206503 0.156204522
0.526188493 0.267895073 0.178864509
0.595507801 0.290346622 0.202259302
0.658090293 0.313115746 0.226420760
0.715890229 0.335905135 0.250129372
0.772191823 0.355419278 0.270288885
0.825948715 0.370417506 0.286305398
0.870615065 0.380650818 0.297839940
0.899281740 0.385891259 0.304940492
0.907012463 0.384669602 0.306743443
-0.013895873 0.231960177 0.102361999
0.044067875 0.236081064 0.102916814
0.079182997 0.247625366 0.107790127
0.134110898 0.242203370 0.121380381
0.198117450 0.237364322 0.133203134
0.299916863 0.247206122 0.138608873
0.392513275 0.265085906 0.155138880
0.479707301 0.288414776 0.177901387
0.558684945 0.311732620 0.201484203
0.628045917 0.335031629 0.226269037
0.689826190 0.357678682 0.249770254
0.749076784 0.378693014 0.271236688
0.806840301 0.396351278 0.289187431
0.858714700 0.410321712 0.303248376
0.897127271 0.420209080 0.313381672
0.917631447 0.424775451 0.319376260
0.923038542 0.421460748 0.319888055
0.003538626 0.301309407 0.123597629
0.061726876 0.304423958 0.123385750
0.103410684 0.321497262 0.128807813
0.159238189 0.316940933 0.142959863
0.225902677 0.304842800 0.159085616
0.307920545 0.311343580 0.166569874
0.408339232 0.321469069 0.179436624
0.501617908 0.338100672 0.200680077
0.587099552 0.359236687 0.225907430
0.659847796 0.381874472 0.251728565
0.724121988 0.404072225 0.275104880
0.785087764 0.423251420 0.294177681
0.841434598 0.439268082 0.309390694
0.886680186 0.452073783 0.321450323
0.916353106 0.460567743 0.330081105
0.932746887 0.463859558 0.335056603
0.937090933 0.458978504 0.334673434
0.025372192 0.369808584 0.146757692
0.080904067 0.372115165 0.144985199
0.123465203 0.390026271 0.150805071
0.188618466 0.393112719 0.168282390
0.257200569 0.381672293 0.185344517
0.339203387 0.384318322 0.199873447
0.420248985 0.398164541 0.212712571
0.516371548 0.404796392 0.229856908
0.602269948 0.416420192 0.251911640
0.678788960 0.433309525 0.275826514
0.749899685 0.452772349 0.297827363
0.814922929 0.469758928 0.315182328
0.866977155 0.483621120 0.328265786
0.904115677 0.494335145 0.338471770
0.927781224 0.500700057 0.345794708
0.942084432 0.502137244 0.349997312
0.945594072 0.495357990 0.348938525
0.042331830 0.435279042 0.169146389
0.098047830 0.440316796 0.166834876
0.154310212 0.458050966 0.178069144
0.222213790 0.463530123 0.196674943
0.293506324 0.456549585 0.215160966
0.368097574 0.459408045 0.232420027
0.447274208 0.474001616 0.248712152
0.517730713 0.491645992 0.268370748
0.606181324 0.492501229 0.284697592
0.685035646 0.497822106 0.302258193
0.757914543 0.506878674 0.318949074
0.827949762 0.518180490 0.333298922
0.880395830 0.529135823 0.345197946
0.912842035 0.537315965 0.354474694
0.932527661 0.541014910 0.360257030
0.942921579 0.539610922 0.362987161
0.946622312 0.530390859 0.361172736
0.066032954 0.504026234 0.191423684
0.122911826 0.512260854 0.190977573
0.186632261 0.525784194 0.206804201
0.258236408 0.529334784 0.225425959
0.327166945 0.525632679 0.244040087
0.393527687 0.529268503 0.261525065
0.463332146 0.545629382 0.281910330
0.529194891 0.563879550 0.302274704
0.593471527 0.585662127 0.323830962
0.678630531 0.578486204 0.334557921
0.759125352 0.577081978 0.345283121
0.828055859 0.575922966 0.354496866
0.881176651 0.578592479 0.363106877
0.913725793 0.582049489 0.370684206
0.930352211 0.582403898 0.374589592
0.938034654 0.577562153 0.375283539
0.942563534 0.565651000 0.372277379
0.091146059 0.576441050 0.215434551
0.148648813 0.582895041 0.216809750
0.215858310 0.591721475 0.234370559
0.285202473 0.591857612 0.251629323
0.350642890 0.590023518 0.269937813
0.410088271 0.594278395 0.286760271
0.470973134 0.610712409 0.306273431
0.534152031 0.630498648 0.330128431
0.592279494 0.648849785 0.352603793
0.661845565 0.673252881 0.373282403
0.746302009 0.660180032 0.377657115
0.824606478 0.650549412 0.383325011
0.877084613 0.640152752 0.387251496
0.909534693 0.632614136 0.390140116
0.923831761 0.626001537 0.390702128
0.931895792 0.617374003 0.389358014
0.937010169 0.602237165 0.384587139
0.107471004 0.638755798 0.239208311
0.165616632 0.641773045 0.240635753
0.237199172 0.649985135 0.258430839
0.303481013 0.649054706 0.275129139
0.364807636 0.648687541 0.293341696
0.420021176 0.653616071 0.310230643
0.475328535 0.669155300 0.328087419
0.534113348 0.689185977 0.349834502
0.596007586 0.707310617 0.374127001
0.657088816 0.724536657 0.396114290
0.733353794 0.749415636 0.416323483
0.806810081 0.735065103 0.418129623
0.869895577 0.715610266 0.418451250
0.903828144 0.695982933 0.416084439
0.917685568 0.676275492 0.411121011
0.926482320 0.660264790 0.406470954
0.931806147 0.640624166 0.399405628
0.124348812 0.685367048 0.260814756
0.183189437 0.688043952 0.261985391
0.253894329 0.697155535 0.278861821
0.316714942 0.697670996 0.295580119
0.374610513 0.700507522 0.313973725
0.427741766 0.707486093 0.331635058
0.480453491 0.722546279 0.349174380
0.535346806 0.741573870 0.368896902
0.594864905 0.758872271 0.390873671
0.661349237 0.774803758 0.414788753
0.726332188 0.790460944 0.435328454
0.797435880 0.814250708 0.455111474
0.853033066 0.797932744 0.454829931
0.895847559 0.770115972 0.448696852
0.911622286 0.740631640 0.438705534
0.921898305 0.710920930 0.428058624
0.927355230 0.683076024 0.417062253
0.142386630 0.737891972 0.284510940
0.202077135 0.739544153 0.286018193
0.269116074 0.748292863 0.301376283
0.327809095 0.750120997 0.316631943
0.381819457 0.754796028 0.333389729
0.433019251 0.764041126 0.350934029
0.484750748 0.778614521 0.369657010
0.537956238 0.795222998 0.389384896
0.593914807 0.809690237 0.408856213
0.656463623 0.821478009 0.429811627
0.724786818 0.834132135 0.452933431
0.786786854 0.847614467 0.471051693
0.846841395 0.868245780 0.489517778
0.884749711 0.848199785 0.485788316
0.904755652 0.813504100 0.472236812
0.916526735 0.775912821 0.456923425
0.923255861 0.734480381 0.439294040
0.169884712 0.811470509 0.314643353
0.228527769 0.810666263 0.316627860
0.287199646 0.816056490 0.330325276
0.338097572 0.817912340 0.342551887
0.386218697 0.820427954 0.355420679
0.434365481 0.827861488 0.370470583
0.484800458 0.839425087 0.389245719
0.537993848 0.851879060 0.410550475
0.593935370 0.862231314 0.430151075
0.653528988 0.869888663 0.447494715
0.715529144 0.875831425 0.466233373
0.777001500 0.883521259 0.486200422
0.833418727 0.894490778 0.501729131
0.881885409 0.911801934 0.518496752
0.898872256 0.886521459 0.508610368
0.910514951 0.845231652 0.489728451
0.918086171 0.797935188 0.467843443
0.194018200 0.852803588 0.334610730
0.250965625 0.850972652 0.336694717
0.302361310 0.857247233 0.349486649
0.346385449 0.862881064 0.362038136
0.389683366 0.869037926 0.375379920
0.435222596 0.877725422 0.390224725
0.483663082 0.887868762 0.407849997
0.534934163 0.896994650 0.427645326
0.589797616 0.904060245 0.446852833
0.648691177 0.909237266 0.463816732
0.707861900 0.912964225 0.479500324
0.763760507 0.915863395 0.495894969
0.818007529 0.919875026 0.512471616
0.867308438 0.929140031 0.525654137
0.898582995 0.944644988 0.540036976
0.906843662 0.913255632 0.524637461
0.912838995 0.862820566 0.499315828
0.209792510 0.897179246 0.354421675
0.260866225 0.897916257 0.356842995
0.310404569 0.901383221 0.369072556
0.350862950 0.903595984 0.380075902
0.390775710 0.906126261 0.391411752
0.433414400 0.910349548 0.404520273
0.479436994 0.916320384 0.420663685
0.528621197 0.922990680 0.439077318
0.581183910 0.929466784 0.457298815
0.637486279 0.934783876 0.473521620
0.694382727 0.938452244 0.487831265
0.747628033 0.940642595 0.501525819
0.798727632 0.942291617 0.516197681
0.848458529 0.945041299 0.530771971
0.887643039 0.952113748 0.541971028
0.908225119 0.965626717 0.554226935
0.910521030 0.926046848 0.531959057
0.209179997 0.907646060 0.353703320
0.260866255 0.909186363 0.356843024
0.307044387 0.912463963 0.368185133
0.345412999 0.914660513 0.378558308
0.382845879 0.916891754 0.389118880
0.422416806 0.920471132 0.400925636
0.465333879 0.925899625 0.415495366
0.511009634 0.932133257 0.432477802
0.559468508 0.938616812 0.450188369
0.611597300 0.944337487 0.466507673
0.665864408 0.948563278 0.480763763
0.718377948 0.951461017 0.493942171
0.767840147 0.953160465 0.507154524
0.815847635 0.955068707 0.521305323
0.862348795 0.959354341 0.534711182
0.892716169 0.966241837 0.544260323
0.911146164 0.978246152 0.555472434
-0.043310001 -0.021597750 0.078261748
0.012621624 -0.020122187 0.078835070
0.027459750 -0.012211001 0.084884122
0.089302391 0.001888694 0.096815072
0.163504630 0.023160374 0.113085628
0.246216133 0.042498499 0.125530377
0.337611407 0.064487129 0.133174255
0.427067399 0.090248398 0.142825633
0.500535011 0.117613636 0.160449386
0.563295543 0.146683186 0.183945566
0.622909963 0.177028626 0.209666133
0.678093314 0.206668377 0.234947011
0.727887809 0.232856750 0.257402271
0.773732960 0.253097594 0.274926573
0.816806793 0.268327624 0.286521137
0.848732054 0.278765023 0.293534636
0.861897528 0.283018231 0.296050131
-0.042783689 0.049968813 0.082264625
0.012524500 0.051398121 0.084164128
0.028900877 0.057283685 0.088443071
0.090084948 0.069068380 0.100903764
0.164617628 0.088678248 0.116585746
0.249120146 0.106699936 0.128120065
0.341984004 0.126178756 0.134881243
0.430912107 0.149531394 0.145212322
0.504591703 0.175419748 0.164237633
0.567890048 0.203000993 0.188412562
0.626965225 0.231258243 0.214045063
0.680891812 0.258546382 0.238763437
0.730173051 0.282643020 0.260712802
0.776787639 0.301508278 0.278033018
0.820541501 0.315837383 0.289653152
0.853195190 0.325704098 0.296941489
0.867175639 0.329903692 0.299808979
-0.041478626 0.098130003 0.098265499
0.013893439 0.099536560 0.099829867
0.030602749 0.102652878 0.102578118
0.085195385 0.111604199 0.109994821
0.160155639 0.129414886 0.124937758
0.248405188 0.150796756 0.135531694
0.346578509 0.171420008 0.140438125
0.439084202 0.192008764 0.150699377
0.515809655 0.214185238 0.169689760
0.580599725 0.238412440 0.194189012
0.639446735 0.264101744 0.221164376
0.693444729 0.289472491 0.246797696
0.745028257 0.312027633 0.268863618
0.796091914 0.330604732 0.286090374
0.842989743 0.344622612 0.298014402
0.876739442 0.354267865 0.306572527
0.890785933 0.358408898 0.310284376
-0.034520622 0.167169765 0.121853501
0.020649442 0.168583944 0.121161878
0.042321000 0.171253696 0.118062064
0.095156759 0.171924129 0.127533749
0.179564133 0.177390084 0.139972821
0.274350673 0.197203517 0.147213444
0.368766516 0.219241530 0.154278487
0.456390381 0.241928875 0.168532208
0.532409906 0.264778137 0.188739717
0.597953200 0.285865843 0.210659623
0.657447696 0.307332635 0.234759003
0.713179111 0.329833150 0.259381771
0.767787039 0.349635392 0.280310690
0.821402311 0.365109235 0.296617180
0.867053151 0.376191735 0.308034211
0.897635341 0.382920444 0.315699011
0.906777203 0.383777440 0.318338126
-0.024272999 0.239344627 0.136844367
0.034456752 0.238408759 0.134946436
0.061880752 0.243252009 0.132629752
0.118513495 0.246365443 0.142270312
0.189907640 0.239146873 0.157464385
0.297542155 0.248367757 0.158750311
0.395108014 0.266201615 0.169763505
0.479545683 0.289989024 0.188468024
0.555729926 0.312896878 0.210128754
0.622979939 0.335210949 0.233272612
0.682748497 0.356806219 0.256021500
0.740169048 0.377434045 0.277949721
0.796919405 0.394751996 0.296326369
0.849788547 0.408187389 0.310687989
0.890948474 0.417451978 0.321118623
