assets/photofx/luts/cinema-style/Cinema Style 08.cube
TITLE "17x17x17 Adobe/IRIDAS cube 3D LUT exported with GrossGrade v0.2.01 (beta) 64 bit"
DOMAIN_MIN 0 0 0
DOMAIN_MAX 1 1 1
LUT_3D_SIZE 5
0.000000000 0.000000000 0.000000000
0.125136763 0.032765500 0.012816750
0.376462996 0.061368503 0.032861002
0.644452274 0.096724749 0.071494251
0.942207992 0.148350999 0.123741999
0.076996997 0.145557761 0.094903752
0.228063256 0.198358268 0.041417502
0.458977997 0.227666244 0.052436501
0.694883525 0.249536514 0.087351002
0.965919256 0.280041009 0.136188000
0.229718029 0.352967501 0.171666995
0.354476005 0.396702528 0.092328757
0.533870935 0.461621016 0.098861516
0.734588981 0.487993777 0.136267990
0.989032507 0.509915531 0.173204497
0.418615997 0.580668271 0.235637248
0.480629981 0.600552499 0.195383266
0.614587486 0.656588554 0.157392263
0.768124998 0.710619569 0.176414758
0.995516539 0.751349032 0.220595509
0.524052024 0.793784022 0.400261015
0.559940457 0.801969767 0.370269507
0.666525483 0.841345489 0.303299487
0.821320295 0.908821225 0.264200985
0.996935010 0.981024027 0.351512015
0.003716250 0.026031001 0.074646756
0.078959994 0.041628748 0.087265506
0.349866509 0.049890254 0.137203246
0.624926031 0.082728758 0.184803769
0.928548455 0.131922752 0.236310005
0.070627749 0.163847506 0.187963009
0.199336752 0.221172005 0.196092248
0.463245302 0.248921245 0.211899757
0.699161291 0.265570760 0.234194756
0.965873718 0.287354499 0.263064504
0.193323508 0.355827987 0.248614758
0.346041024 0.416861534 0.245229751
0.534908772 0.478748262 0.247588009
0.735744298 0.497634500 0.267708510
0.989736795 0.514922261 0.287780255
0.384544015 0.572987556 0.325048506
0.474008501 0.602366924 0.296925247
0.613203287 0.663085818 0.269059271
0.768178761 0.717097759 0.282917976
0.995510221 0.754251242 0.317784995
0.524669528 0.797514737 0.462169230
0.568409264 0.809394002 0.440706253
0.669294953 0.843635738 0.369918972
0.821663976 0.913812757 0.348382771
0.997029245 0.981392980 0.414212257
0.007947001 0.064172000 0.173138499
0.060615253 0.077369250 0.219149500
0.251199007 0.094233006 0.185243011
0.545515776 0.103689760 0.312084496
0.889003992 0.149243504 0.429839522
0.030359499 0.182080746 0.310441017
0.102522507 0.224453494 0.362466037
0.400005788 0.284676015 0.341224015
0.646670818 0.267282754 0.404009283
0.943154991 0.301683247 0.470262229
0.151226997 0.383276522 0.442035496
0.222415268 0.435799539 0.482361734
0.535612941 0.538421035 0.489360511
0.734639287 0.518072486 0.482891023
0.985260487 0.520362020 0.496969998
0.325444996 0.596796513 0.529495239
0.450856745 0.640379488 0.524313509
0.633112252 0.694804549 0.532757044
0.771093965 0.732565761 0.518309057
0.994730234 0.755817533 0.513972282
0.504812479 0.803725958 0.584418535
0.568051279 0.829594254 0.595999479
0.691885471 0.870509505 0.589440525
0.827033043 0.925604939 0.553319752
0.996688962 0.980986476 0.576825023
0.020994000 0.115744501 0.339458764
0.096593253 0.140435517 0.391445011
0.320982248 0.185677022 0.453170508
0.434715033 0.194361761 0.347882032
0.768445969 0.248985022 0.559022009
0.031877503 0.215836003 0.421608746
0.111923754 0.246651262 0.470620751
0.394576043 0.355176508 0.597413003
0.566514015 0.371715039 0.490016490
0.849894285 0.385832250 0.627988994
0.096513756 0.403993011 0.609440565
0.162013263 0.449034780 0.654355049
0.452852041 0.539458215 0.684353769
0.713541269 0.604570210 0.638249516
0.944501758 0.565060973 0.690582752
0.215461507 0.631155491 0.685343742
0.251058280 0.639483273 0.688919842
0.571521521 0.720797539 0.714971781
0.780368507 0.769816756 0.725517273
0.986048460 0.761082232 0.721797466
0.449115217 0.821721971 0.732571721
0.532743692 0.846219778 0.744548976
0.703207016 0.892035484 0.767256975
0.846090317 0.932379007 0.762538493
0.995545983 0.979792237 0.773543000
0.055521000 0.185847998 0.548189998
0.134584248 0.209254250 0.586896718
0.324203551 0.289431512 0.708927512
0.590916276 0.384201497 0.674285054
0.709810019 0.455004990 0.639527977
0.061829500 0.265719265 0.603231549
0.137441993 0.291602999 0.640399277
0.328215539 0.379147232 0.761506796
0.645984471 0.489849001 0.744218290
0.772331715 0.547333479 0.699049711
0.088587001 0.455852509 0.769071579
0.147046745 0.471753508 0.784674525
0.329287529 0.534396052 0.837148428
0.710935771 0.649303198 0.825931966
0.863340020 0.684957027 0.783138514
0.149267003 0.683516741 0.892284751
0.190024003 0.691978514 0.900697768
0.527981281 0.749554276 0.899255037
0.755221546 0.786293745 0.879865229
0.938638508 0.820883274 0.866784513
0.334347010 0.877665997 0.900555015
0.458628744 0.890943766 0.902082503
0.665609479 0.921261549 0.912865520
0.846112967 0.952602029 0.932050228
0.986598015 0.975825012 0.947730005
