assets/photofx/luts/cinema-style/Cinema Style 05.cube
TITLE "17x17x17 Adobe/IRIDAS cube 3D LUT exported with GrossGrade v0.2.01 (beta) 64 bit"
DOMAIN_MIN 0 0 0
DOMAIN_MAX 1 1 1
LUT_3D_SIZE 5
-0.038121000 -0.038265001 -0.038238000
0.212883756 0.004605504 0.001239752
0.430395514 0.058267504 0.049880002
0.731355548 0.092248254 0.091103747
0.991048992 0.128580004 0.138995007
0.051782250 0.227824509 0.038583249
0.215322509 0.228645742 0.046606500
0.430886984 0.227249756 0.070486002
0.732535243 0.233522266 0.104653500
0.991390228 0.248605996 0.149289489
0.110451005 0.467960536 0.110202000
0.222536013 0.468563259 0.112984002
0.438649058 0.470390499 0.126806006
0.736684501 0.470230997 0.149559006
0.992606521 0.479834497 0.184421510
0.160254508 0.723177552 0.184589505
0.242206752 0.723505497 0.185845003
0.447527528 0.724479556 0.192538008
0.744891763 0.725730538 0.208539754
0.994944751 0.734238744 0.224316761
0.202922001 0.993041992 0.248987004
0.269623995 0.993062496 0.250425488
0.469501019 0.993835986 0.254132986
0.763191044 0.995703518 0.262128264
0.998809993 0.999171972 0.285356998
-0.031783499 -0.031657502 0.259252250
0.213316754 0.014617753 0.261444747
0.430089533 0.061209001 0.259705245
0.731444478 0.093795255 0.266476482
0.991156995 0.129475996 0.283136755
0.054547004 0.228162989 0.263626516
0.215644494 0.229057744 0.264652997
0.431336999 0.232888505 0.268949002
0.732838213 0.240510777 0.277383268
0.991373003 0.253830254 0.292018235
0.111329757 0.468247771 0.273465753
0.226757005 0.468832731 0.279832751
0.438936025 0.470691741 0.283968002
0.737014771 0.472429514 0.291869998
0.992752194 0.481866241 0.306269765
0.160762504 0.723370790 0.300304741
0.247453243 0.723767042 0.307011992
0.449745268 0.724596024 0.309766740
0.745055258 0.725810051 0.316704988
0.994980514 0.734964788 0.324607253
0.203189746 0.993174195 0.334198236
0.273055762 0.993123770 0.338959247
0.471595794 0.993981779 0.341281503
0.764154494 0.995825469 0.346139491
0.998816252 0.999320507 0.361874253
0.031316005 0.029598001 0.495768517
0.209922254 0.040961251 0.497054040
0.429999530 0.069142506 0.496883035
0.730792224 0.099880993 0.497039020
0.990894020 0.133304998 0.506027520
0.063622996 0.223945498 0.496572495
0.216381013 0.230159491 0.496955991
0.431953788 0.234124765 0.498471498
0.732615829 0.242212757 0.500584245
0.991369724 0.255490780 0.509242773
0.114201002 0.468707502 0.502395511
0.227970511 0.469250768 0.502871275
0.439365029 0.471152514 0.504622042
0.737230062 0.474728286 0.507894278
0.992523551 0.480943501 0.513639510
0.162558258 0.723454237 0.509970784
0.248378262 0.723760247 0.512126029
0.452360511 0.724510014 0.515340269
0.745078087 0.725869298 0.518038750
0.995101213 0.734468520 0.521293283
0.204265997 0.993185997 0.527993023
0.273713231 0.993598282 0.529944003
0.470364034 0.994111478 0.530120492
0.763597965 0.995710015 0.532488763
0.998851001 0.999501467 0.540394545
0.060136750 0.057616502 0.720710516
0.210023493 0.062332753 0.721728027
0.427590996 0.079318509 0.722689986
0.731944025 0.107864000 0.723988473
0.991103768 0.139680758 0.732834995
0.078564748 0.225077003 0.720921278
0.218515500 0.233056754 0.721723258
0.431408256 0.236717001 0.723860800
0.733581483 0.244922757 0.725406468
0.991558492 0.258442998 0.734317243
0.120710745 0.466028780 0.725967288
0.229941756 0.468582273 0.726348042
0.440594018 0.472382307 0.727242291
0.738404691 0.475807309 0.728955030
0.992779732 0.482019007 0.736899316
0.165176257 0.724111557 0.732217550
0.250005484 0.724286556 0.732388735
0.454018772 0.725070238 0.733001471
0.745691717 0.726557016 0.734315515
0.995235026 0.729515016 0.736948252
0.207267255 0.993684232 0.745567262
0.275762975 0.993956745 0.746342540
0.471772522 0.994816005 0.746676803
0.758275449 0.996225238 0.743935525
0.999021530 0.999997973 0.747827291
0.082143001 0.080205001 0.954985023
0.214643002 0.083333746 0.956619740
0.433444023 0.097031504 0.957987487
0.740593016 0.119104005 0.960853279
0.991594017 0.149195001 0.963253975
0.094761752 0.231610745 0.956765056
0.222119257 0.237842754 0.957388461
0.437314510 0.241778001 0.959258258
0.742511988 0.249474496 0.961771965
0.991965771 0.263295501 0.964060783
0.131222010 0.471798509 0.961244464
0.233971506 0.474198043 0.961721539
0.442897975 0.474659026 0.962486506
0.746156216 0.478424788 0.964256287
0.993321538 0.483770996 0.967534482
0.174603507 0.730266511 0.968414545
0.255035758 0.731233716 0.968881786
0.456253797 0.731553495 0.969627500
0.746871531 0.727641702 0.971109211
0.995806515 0.730545759 0.975338280
0.209812000 0.994704008 0.983080029
0.277713984 0.995230258 0.983850241
0.473731518 0.995799482 0.985281467
0.759682000 0.997908473 0.989160001
0.999365985 1.000254989 0.999913990
