assets/photofx/luts/cinema-style/Cinema Style 14.cube
TITLE "17x17x17 Adobe/IRIDAS cube 3D LUT exported with GrossGrade v0.2.01 (beta) 64 bit"
DOMAIN_MIN 0 0 0
DOMAIN_MAX 1 1 1
LUT_3D_SIZE 17
-0.053245001 -0.054488000 -0.057709001
0.009919070 -0.050875813 -0.054974314
0.057937749 -0.036032997 -0.043229751
0.112339891 0.021553259 0.010237571
0.174774006 0.058660254 0.046150751
0.243950501 0.084367566 0.066308185
0.314944893 0.108446635 0.085649133
0.385220289 0.132175326 0.108142763
0.454016030 0.155292511 0.132009506
0.520182371 0.177522004 0.155310124
0.582239628 0.198392630 0.177032381
0.639219940 0.217615440 0.196971133
0.690244496 0.234848514 0.214774758
0.733722210 0.249385387 0.229771584
0.768902779 0.261340261 0.241897017
0.793531001 0.269616753 0.250370860
0.803776026 0.272987992 0.253894001
-0.045737501 0.016917627 -0.038952440
0.018024694 0.019915752 -0.035074938
0.068482876 0.030335441 -0.031331375
0.119229950 0.048418064 0.021591250
0.180075958 0.071753189 0.049659811
0.248183861 0.094120190 0.068117000
0.318334252 0.116789125 0.087724447
0.388014197 0.139469638 0.110228330
0.456290096 0.161650330 0.133860826
0.522070527 0.183171943 0.156897634
0.583932877 0.203589931 0.178440124
0.640666783 0.222280115 0.198192060
0.691342354 0.238916054 0.215777323
0.734701574 0.253138542 0.230659202
0.769746661 0.264600337 0.242657393
0.794226646 0.272444755 0.251035184
0.804340363 0.275534242 0.254487455
0.021871123 0.069710255 0.047941253
0.038008809 0.071706504 0.050432749
0.070904501 0.076931491 0.055441625
0.129049748 0.089712694 0.049945183
0.194113120 0.105738632 0.062373001
0.261367887 0.124159560 0.077817686
0.329855919 0.143971503 0.096783884
0.398115456 0.164646700 0.118585825
0.465070993 0.184953243 0.141247883
0.529590249 0.204504073 0.163279682
0.590359509 0.223013744 0.184005499
0.646151662 0.239934504 0.203018427
0.695923388 0.254915744 0.219876140
0.738495529 0.267450392 0.234190136
0.773070395 0.277538747 0.245822638
0.797172785 0.284084380 0.253886551
0.806973279 0.285725385 0.257000625
0.067060128 0.123480074 0.099299513
0.072906069 0.124633700 0.100494385
0.090855189 0.128037021 0.103840202
0.127367705 0.134561822 0.106376201
0.200564682 0.152083516 0.098652139
0.277355254 0.168600827 0.097892888
0.347518384 0.186588019 0.112645447
0.414709777 0.205411911 0.132980019
0.480031550 0.223956451 0.154450446
0.542867959 0.241419956 0.175243497
0.601925552 0.257498264 0.194651812
0.656023860 0.271701247 0.212296814
0.704356015 0.283976018 0.227937266
0.745818496 0.293994308 0.241319701
0.779411793 0.301503688 0.252156824
0.802738607 0.305565447 0.259570092
0.811833084 0.304673672 0.261970639
0.102771007 0.181180000 0.146154255
0.105810188 0.181980252 0.146933123
0.117544256 0.184676617 0.149528757
0.143334627 0.188895941 0.152775884
0.191132501 0.197063997 0.155205503
0.281128943 0.219919249 0.141380504
0.364413619 0.238951504 0.135882512
0.434771508 0.257642061 0.150795519
0.499168515 0.275055259 0.171647251
0.560001731 0.290537328 0.191766381
0.617003381 0.303927362 0.209796369
0.669237852 0.315141380 0.225895688
0.716007769 0.324314773 0.240158245
0.756206512 0.331239134 0.252354264
0.788571119 0.335554481 0.262103260
0.810772419 0.336396366 0.268409520
0.818916976 0.332230002 0.269717753
0.138588995 0.240305871 0.193928629
0.140404314 0.240920246 0.194501072
0.148562938 0.243363753 0.196794569
0.167715997 0.247576058 0.200254127
0.205259055 0.253404945 0.203563124
0.267233908 0.264917493 0.207125187
0.366034865 0.293410599 0.188872069
0.451146543 0.315342963 0.178269833
0.519223034 0.333364010 0.190788686
0.578875363 0.347686112 0.209974632
0.633793533 0.358853579 0.227659509
0.684269488 0.367254198 0.242784187
0.729580760 0.373371184 0.255888879
0.768485606 0.377039433 0.266826123
0.799673438 0.377925187 0.275215387
0.820778906 0.375169605 0.280171335
0.827910423 0.367097765 0.280154437
0.177754015 0.299532771 0.241833001
0.179061830 0.300082147 0.242313325
0.184572130 0.302268147 0.244253159
0.198651701 0.306731820 0.247971833
0.228635773 0.313550174 0.252659261
0.280621737 0.322346568 0.256850213
0.351489902 0.338435650 0.261869878
0.449138045 0.370323569 0.242488205
0.530843079 0.393266410 0.228409275
0.596192360 0.408818841 0.232718766
0.651305854 0.419064403 0.246167019
0.700242341 0.425422341 0.260819823
0.744077265 0.428800374 0.273503631
0.781727672 0.429315448 0.283547074
0.811834276 0.426704913 0.290738881
0.831974864 0.420210451 0.294350684
0.838068247 0.408073395 0.292855382
0.220375955 0.358277470 0.289353579
0.221388087 0.358785391 0.289787263
0.225613892 0.360863090 0.291543037
0.235784590 0.365203708 0.295078963
0.258146405 0.372656077 0.300545543
0.301885128 0.382993937 0.306714177
0.364501804 0.394956023 0.312399656
0.437319160 0.413937241 0.317487836
0.525095105 0.446012676 0.299127400
0.600558579 0.468891829 0.283754647
0.663952351 0.481594145 0.277364403
0.715671420 0.487342805 0.282273471
0.759260654 0.488620371 0.291684151
0.795724511 0.486392170 0.301140189
0.824726641 0.480494082 0.307729274
0.843920946 0.470236152 0.310326427
0.849039257 0.453879476 0.307433873
0.263372004 0.415007025 0.334976017
0.264139771 0.415442079 0.335340828
0.267730892 0.417366803 0.336909771
0.275635570 0.421322525 0.340029240
0.292310745 0.428375781 0.345210493
0.326036900 0.439446956 0.352526367
0.381094515 0.453170896 0.360383779
0.449135602 0.466783822 0.366713941
0.517345488 0.486934006 0.372289538
0.590942562 0.517129958 0.357062459
0.660778761 0.539801478 0.340350628
0.722171605 0.550138950 0.325926721
0.771322250 0.551352024 0.320341021
0.809447885 0.546864033 0.322025061
0.838238776 0.537928343 0.325326622
0.856448770 0.524149656 0.327044368
0.860601008 0.503551006 0.323194981
0.304147750 0.468099207 0.377119005
0.304813117 0.468486577 0.377429575
0.307794631 0.470147938 0.378748566
0.314318568 0.473611295 0.381424963
0.327389389 0.479821175 0.385981083
0.352785945 0.490004063 0.392921180
0.397924215 0.504564464 0.402141422
0.459709525 0.520332634 0.411085129
0.527499020 0.534214795 0.417745680
0.587139606 0.554356635 0.423768818
0.647344947 0.582126677 0.413693488
0.712777972 0.604403317 0.394925058
0.771728396 0.613064289 0.375042617
0.817506731 0.609405100 0.359445632
0.849744201 0.597988665 0.350744307
0.868991077 0.580738902 0.345492870
0.872656703 0.556068897 0.339166999
0.341576874 0.516496122 0.415010512
0.342213273 0.516861737 0.415292680
0.344700515 0.518282056 0.416415751
0.350123912 0.521257818 0.418703109
0.360537499 0.526515007 0.422567874
0.380219042 0.535251141 0.428624868
0.415539265 0.548667967 0.437553644
0.469021231 0.565668464 0.448483557
0.532823563 0.582000375 0.457959861
0.595913172 0.594397247 0.464152008
0.646715879 0.614195704 0.469327390
0.697065234 0.639656365 0.463185191
0.757572293 0.661498010 0.444483250
0.812931418 0.668119550 0.420080096
0.853305042 0.658935070 0.396813095
0.877923310 0.639369309 0.375978559
0.883504868 0.610730588 0.360331982
0.374752194 0.559391737 0.448258311
0.375312507 0.559716165 0.448503315
0.377485931 0.560957491 0.449476868
0.382056236 0.563515365 0.451423258
0.390410364 0.567868829 0.454613745
0.405881256 0.575091064 0.459620506
0.433561593 0.586581409 0.467475176
0.477359951 0.602612615 0.478495687
0.535348535 0.620670199 0.490575761
0.596907139 0.635745227 0.499538481
0.652958691 0.645699203 0.504447997
0.697207451 0.665815711 0.508674860
0.741481662 0.688770890 0.502394915
0.794998407 0.709588647 0.487743407
0.845095515 0.713041544 0.458874404
0.878033340 0.697578847 0.427353531
0.889463603 0.666745007 0.396262616
0.403533995 0.596268535 0.476541996
0.404029936 0.596550167 0.476748258
0.405982018 0.597659647 0.477571994
0.409954190 0.599891007 0.479212761
0.416917741 0.603567243 0.481863737
0.429111004 0.609472513 0.485927641
0.450450748 0.618835390 0.492305398
0.485784411 0.632802010 0.502079844
0.535456240 0.650328994 0.514585197
0.593740880 0.667784989 0.526550233
0.649676561 0.680594206 0.534299791
0.698483407 0.689199686 0.538414359
0.739381552 0.709597528 0.542665720
0.778854430 0.729395270 0.534923494
0.825511932 0.747316718 0.520739377
0.867190897 0.746067524 0.488147169
0.886958241 0.720334291 0.448412001
0.427860647 0.626830816 0.499645382
0.428307265 0.627062201 0.499806285
0.430145085 0.628072798 0.500515938
0.433765233 0.630054057 0.501896322
0.439774394 0.633248031 0.504083157
0.449553728 0.638138771 0.507375062
0.465653449 0.645593524 0.512333214
0.492971450 0.657042801 0.520193040
0.534072042 0.672727406 0.531502128
0.586167395 0.690438569 0.544573307
0.641220331 0.706260920 0.555716813
0.691276550 0.717071354 0.562547982
0.734780610 0.725176454 0.566535592
0.774257123 0.745333314 0.571641088
0.807655215 0.760823488 0.560193837
0.845862448 0.772847593 0.543855846
0.873624921 0.762496829 0.506608665
0.447607487 0.650913119 0.517451525
0.447975367 0.651118100 0.517590284
0.449466854 0.651948035 0.518166125
0.452691138 0.653689921 0.519313574
0.457968771 0.656517923 0.521158457
0.466035545 0.660668731 0.523837328
0.478645742 0.666732490 0.527687669
0.499353737 0.675855160 0.533681452
0.531656623 0.688914657 0.542876363
0.576407015 0.705372334 0.555270135
0.628330112 0.722471833 0.568436503
0.678574264 0.736671805 0.578759372
0.723465145 0.745959878 0.584896624
0.762729228 0.753172159 0.588712275
0.800710618 0.773652315 0.594513535
0.826378942 0.782223284 0.578464746
0.852524161 0.783398628 0.555177212
0.461002827 0.667339861 0.529384732
0.461334556 0.667500913 0.529487312
0.462749004 0.668281019 0.529980600
0.465471745 0.669762075 0.530936837
0.470170766 0.672260702 0.532511890
0.477129906 0.675894201 0.534767389
0.487364888 0.680978060 0.537887633
0.503196895 0.688289404 0.542488635
0.527889848 0.698792398 0.549579918
0.564391136 0.713028431 0.560091555
0.610959589 0.729659081 0.573204577
0.659951270 0.745431304 0.585727870
0.704942882 0.757794797 0.594879150
0.745476246 0.765779555 0.600324750
0.782156110 0.772969007 0.604250908
0.817582190 0.791599929 0.609524131
0.833426893 0.791091800 0.586930394
0.466580003 0.674117982 0.534240007
0.466883779 0.674288630 0.534348726
0.468069494 0.674926519 0.534751475
0.470389128 0.676195741 0.535557926
0.474476993 0.678368509 0.536901772
0.480365485 0.681456387 0.538788021
0.488643616 0.685686409 0.541334271
0.500939488 0.691592097 0.544908762
0.519868016 0.700002491 0.550341487
0.548628390 0.711759806 0.558688879
0.587974012 0.726649344 0.570175469
0.633539319 0.742518723 0.583014846
0.678566515 0.756592035 0.594256461
0.719522774 0.767473340 0.602314293
0.756807148 0.774264157 0.606918216
0.790948808 0.781704545 0.610829175
0.823315024 0.797433019 0.615287006
-0.051893126 -0.050419249 0.007855996
0.009923753 -0.046413314 0.010028183
0.053644437 -0.029600000 0.020030625
0.110116951 0.026941568 0.038355567
0.174104065 0.061053690 0.059752375
0.243461877 0.085540183 0.076693252
0.314420521 0.109188512 0.094623201
0.384727716 0.132682890 0.115938820
0.453586578 0.155692682 0.138810322
0.519832134 0.177864879 0.161269173
0.581971526 0.198673502 0.182349309
0.638970554 0.217830747 0.201701745
0.689962506 0.235012442 0.218957633
0.733539045 0.249527514 0.233536571
0.768711448 0.261455774 0.245215029
0.793345571 0.269714385 0.253293514
0.803593159 0.273074239 0.256468356
-0.044888124 0.022067308 0.023167245
0.019773131 0.023888877 0.024686944
0.065207936 0.033889443 0.032120377
0.117213078 0.049107309 0.044084381
0.178622812 0.070698313 0.060193561
0.246684372 0.092309311 0.075381875
0.316906780 0.114671007 0.093173191
0.386709601 0.137231439 0.114549451
0.455177695 0.159568503 0.137486070
0.521152854 0.181330323 0.160075322
0.583143771 0.201917440 0.181345820
0.640010238 0.220845133 0.200908631
0.690816641 0.237776205 0.218349889
0.734281898 0.252234429 0.233169258
0.769411325 0.264003098 0.245110214
0.793973982 0.272167623 0.253478169
0.804198861 0.275564253 0.257020563
0.022033632 0.074147686 0.061222810
0.038023878 0.075284123 0.062178999
0.072910182 0.079425879 0.065647006
0.129529893 0.090570822 0.060739130
0.193181142 0.105406880 0.070779994
0.260180444 0.123023994 0.084326558
0.328701645 0.142472252 0.101711884
0.397030085 0.162941337 0.122589573
0.464071125 0.183176458 0.144700125
0.528711438 0.202835694 0.166336611
0.589594185 0.221493363 0.186791673
0.645497382 0.238590077 0.205626875
0.695394099 0.253833622 0.222372681
0.738089263 0.266616911 0.236639827
0.772716761 0.276955366 0.248221934
0.796917796 0.283775210 0.256317735
0.806822956 0.285750121 0.259527624
0.068744130 0.125787452 0.104729511
0.073740639 0.126395568 0.104951583
0.091976568 0.129665449 0.108148322
0.128609329 0.135844752 0.110351637
0.201272070 0.152308568 0.102863573
0.276912630 0.168118522 0.103124253
0.346782893 0.185670078 0.117283449
0.413949937 0.204219952 0.136812761
0.479280502 0.222651765 0.157749310
0.542159200 0.240124196 0.178198054
0.601286352 0.256264508 0.197352991
0.655462921 0.270576119 0.214826062
0.703871369 0.283023387 0.230362996
0.745404065 0.293208063 0.243671075
0.779069960 0.300961822 0.254489303
0.802470028 0.305273086 0.261940330
0.811594427 0.304675341 0.264408618
0.104221880 0.182648495 0.149716765
0.106323376 0.182952628 0.149577066
0.118108936 0.185653135 0.152204201
0.143776014 0.189869240 0.155494198
0.191675514 0.197903827 0.157843813
0.281570196 0.220022872 0.144285321
0.364215165 0.238605067 0.139813647
0.434338033 0.256970644 0.154572517
0.498688608 0.274225324 0.174953640
0.559523880 0.289612621 0.194682449
0.616559803 0.303001881 0.212452695
0.668824732 0.314270735 0.228365123
0.715613723 0.323508620 0.242503121
0.755844474 0.330557376 0.254639506
0.788266957 0.335083365 0.264379263
0.810525179 0.336133808 0.270708382
0.818727791 0.332230359 0.272085130
0.139703944 0.241461068 0.196661323
0.140651673 0.241565317 0.196310759
0.148811430 0.244027123 0.198652118
0.167861640 0.248293638 0.202229828
0.205396816 0.254169315 0.205638319
0.267488003 0.265589386 0.209206820
0.366441727 0.293539733 0.191016823
0.451108634 0.315119475 0.181407571
0.518987000 0.332870752 0.193969309
0.578586936 0.347114772 0.212884694
0.633508444 0.358183801 0.230276570
0.683993161 0.366587192 0.245196640
0.729299963 0.372741818 0.258169800
0.768227875 0.376489371 0.269040674
0.799430609 0.377516001 0.277402818
0.820573330 0.374948680 0.282382667
0.827710867 0.367093205 0.282433301
0.178748071 0.300566822 0.244132087
0.179284945 0.300596833 0.243711144
0.184719890 0.302780211 0.245663077
0.198714331 0.307271302 0.249456272
0.228591144 0.314132810 0.254263312
0.280530572 0.322977453 0.258523077
0.351686478 0.339040637 0.263656795
0.449589998 0.370507270 0.244110823
0.531104863 0.393066168 0.230348766
0.596180677 0.408425778 0.235073075
0.651172400 0.418613762 0.248667181
0.700075805 0.424901396 0.263180763
0.743867934 0.428299010 0.275723219
0.781535149 0.428871363 0.285693109
0.811647415 0.426361442 0.292844564
0.831810415 0.420005560 0.296483636
0.837887347 0.408053726 0.295055389
0.221287206 0.359237671 0.291356266
0.221619442 0.359224379 0.290932506
0.225781143 0.361290663 0.292686760
0.235851124 0.365622550 0.296251327
0.258059591 0.373082101 0.301790357
0.301669121 0.383467585 0.308056563
0.364316404 0.395497650 0.313794345
0.437481731 0.414494336 0.318991423
0.525546968 0.446201086 0.300403595
0.601003051 0.468732446 0.284926474
0.664136350 0.481255919 0.278948575
0.715707123 0.486917496 0.284116209
0.759149313 0.488198072 0.293681413
0.795567453 0.486014515 0.303194612
0.824577451 0.480190307 0.309744924
0.843788207 0.470042497 0.312367558
0.848914623 0.453852087 0.309553385
0.264183998 0.415885091 0.336716831
0.264368623 0.415831923 0.336310834
0.267901897 0.417735189 0.337874383
0.275749892 0.421680450 0.341010302
0.292302549 0.428727061 0.346233517
0.325782537 0.439795017 0.353606164
0.380801260 0.453575701 0.361535072
0.448932141 0.467273653 0.367895663
0.517496049 0.487415373 0.373563945
0.591366529 0.517323375 0.358107209
0.661202490 0.539711714 0.341306716
0.722453773 0.549833596 0.326944202
0.771413445 0.550993383 0.321723759
0.809407711 0.546543837 0.323707998
0.838139713 0.537654340 0.327143818
0.856338084 0.523975194 0.328968108
0.860514402 0.503510416 0.325182617
0.304883182 0.468907714 0.378645450
0.305031031 0.468850583 0.378278822
0.307984978 0.470500588 0.379598677
0.314456493 0.473945558 0.382281959
0.327444941 0.480137080 0.386856943
0.352666557 0.490292788 0.393823087
0.397603035 0.504842103 0.403071284
0.459379375 0.520672560 0.412084371
0.527327597 0.534651041 0.418807060
0.587315559 0.554756165 0.424895793
0.647687733 0.582337081 0.414638013
0.713123381 0.604356706 0.395758450
0.771988034 0.612820029 0.375867993
0.817648768 0.609102547 0.360487521
0.849758923 0.597723365 0.352098495
0.868946373 0.580569327 0.347120047
0.872579336 0.556006908 0.341040432
0.342235953 0.517228901 0.416348666
0.342405438 0.517198861 0.416048676
0.344899178 0.518619657 0.417173624
0.350274980 0.521576226 0.419464737
0.360605180 0.526801884 0.423332483
0.380174816 0.535498977 0.429402828
0.415329367 0.548876286 0.438335329
0.468672305 0.565869093 0.449282676
0.532500625 0.582278609 0.458853871
0.595831275 0.594769418 0.465110600
0.646864951 0.614503622 0.470306844
0.697293162 0.639851868 0.464078814
0.757865906 0.661495090 0.445189118
0.813162565 0.667896450 0.420746475
0.853440523 0.658666492 0.397668898
0.877983510 0.639188111 0.377125919
0.883480906 0.610635936 0.361894429
0.375309050 0.560022712 0.449413627
0.375485301 0.560020506 0.449183017
0.377654612 0.561254919 0.450149089
0.382191420 0.563799024 0.452099413
0.390481710 0.568129361 0.455295533
0.405853927 0.575312853 0.460312396
0.433409989 0.586757064 0.468165189
0.477065861 0.602749050 0.479170263
0.535000861 0.620821714 0.491270959
0.596662164 0.635990143 0.500322819
0.652942657 0.646006405 0.505244315
0.697305918 0.666044176 0.509472966
0.741656184 0.688952565 0.503173351
0.795202196 0.709614396 0.488419652
0.845285118 0.712872624 0.459512025
0.878154278 0.697415471 0.428187579
0.889530778 0.666621566 0.397322297
0.404001892 0.596804619 0.477548093
0.404196501 0.596830130 0.477370083
0.406142324 0.597933114 0.478191048
0.410078138 0.600149035 0.479831696
0.417002708 0.603811741 0.482492179
0.429123968 0.609686673 0.486561120
0.450354338 0.619000316 0.492927879
0.485573053 0.632919431 0.502675056
0.535138965 0.650421560 0.515156806
0.593454540 0.667917967 0.527143776
0.649523258 0.680826366 0.534961641
0.698484421 0.689460874 0.539051890
0.739501119 0.709804177 0.543304563
0.778975546 0.729566514 0.535643041
0.825651169 0.747382045 0.521453977
0.867354453 0.745989799 0.488808244
0.887066722 0.720236421 0.449235469
0.428233236 0.627259254 0.500499487
0.428463459 0.627322435 0.500392616
0.430289894 0.628326476 0.501100123
0.433891952 0.630297899 0.502479374
0.439878672 0.633481443 0.504670560
0.449612617 0.638351142 0.507963300
0.465621144 0.645766199 0.512907505
0.492840022 0.657169878 0.520739734
0.533840537 0.672818303 0.532012045
0.585879087 0.690523982 0.545060098
0.641015649 0.706399858 0.556223094
0.691192925 0.717296541 0.563101053
0.734810352 0.725402713 0.567068577
0.774335206 0.745492160 0.572190285
0.807783663 0.760994613 0.560844243
0.845982671 0.772944033 0.544570029
0.873770833 0.762486637 0.507282197
0.447873831 0.651268721 0.518197477
0.448108703 0.651356459 0.518154144
0.449581087 0.652175903 0.518723845
0.452799141 0.653914630 0.519874871
0.458046257 0.656727612 0.521712780
0.466069549 0.660855889 0.524383545
0.478633255 0.666898012 0.528221369
0.499276578 0.675990582 0.534190416
0.531498194 0.689015150 0.543349504
0.576168597 0.705449402 0.555704117
0.628096879 0.722567201 0.568861961
0.678446472 0.736827135 0.579211116
0.723422706 0.746179998 0.585376740
0.762774765 0.753393769 0.589198649
0.800822794 0.773830950 0.595037222
0.826492012 0.782383800 0.579093754
0.852629125 0.783514261 0.555886209
0.461247593 0.667656779 0.530031025
0.461499065 0.667750716 0.530039907
0.462907076 0.668528259 0.530533373
0.465612978 0.669998765 0.531481981
0.470286697 0.672485471 0.533055365
0.477211863 0.676097870 0.535299003
0.487398446 0.681153595 0.538402379
0.503158212 0.688428581 0.542971075
0.527777553 0.698899209 0.550026059
0.564196646 0.713105142 0.560495019
0.610718250 0.729726553 0.573580086
0.659767866 0.745535493 0.586120963
0.704861045 0.757961333 0.595314384
0.745456994 0.765993714 0.600783587
0.782209218 0.773157060 0.604702890
0.817685962 0.791775167 0.610030830
0.833542883 0.791264415 0.587556958
0.466774076 0.674383283 0.534799695
0.467041254 0.674506128 0.534880340
0.468239278 0.675174654 0.535297871
0.470552415 0.676441967 0.536104679
0.474623442 0.678605139 0.537442327
0.480487376 0.681679785 0.539320886
0.488738626 0.685891390 0.541853666
0.500982106 0.691763997 0.545399427
0.519837022 0.700138152 0.550799787
0.548513532 0.711860061 0.559105158
0.587808073 0.726734161 0.570562661
0.633390248 0.742623091 0.583411455
0.678464174 0.756727099 0.594669223
0.719470799 0.767645121 0.602741420
0.756820798 0.774475396 0.607369304
0.791010559 0.781898201 0.611276269
0.823414385 0.797607362 0.615759492
-0.045947500 -0.036952123 0.042124875
0.017928254 -0.032398440 0.042663440
0.057415999 -0.015304251 0.049024254
0.106278762 0.040759757 0.067635074
0.170850754 0.069671378 0.085723251
0.240636572 0.090793937 0.103405058
0.311945647 0.112411134 0.121665888
0.382804155 0.134862274 0.141541570
0.452164114 0.157437265 0.162394881
0.518704474 0.179361448 0.182790995
0.581035733 0.199901253 0.201850116
0.638181210 0.218793362 0.219349369
0.689217150 0.235763371 0.234901115
0.732865751 0.250082254 0.247814894
0.768083334 0.261947751 0.258128613
0.792839646 0.270090342 0.264839143
0.803177655 0.273371369 0.266594857
-0.040142998 0.035928182 0.060552876
0.019064376 0.037205506 0.059671566
0.063899249 0.044672068 0.062180623
0.111183077 0.059695121 0.074034005
0.175270364 0.077585623 0.088199809
0.244068921 0.096587129 0.103761494
0.314552248 0.117381878 0.121132500
0.384862483 0.139221132 0.140683621
0.453800499 0.161167949 0.161369145
0.520038724 0.182680324 0.181775182
0.582170427 0.203057200 0.200980753
0.639155746 0.221734315 0.218625695
0.690035105 0.238462999 0.234331623
0.733535349 0.252759874 0.247476593
0.768721461 0.264450192 0.258017540
0.793417156 0.272496432 0.264995068
0.803776264 0.275872767 0.267108560
0.007527625 0.085535243 0.088016123
0.023846876 0.085983939 0.088712439
0.074449494 0.085983753 0.087848634
0.125521749 0.093251571 0.089115255
0.188637257 0.103912875 0.094774127
0.255402088 0.118397750 0.104700491
0.323987633 0.136533260 0.119403645
0.392724961 0.156406268 0.137998894
0.460324258 0.176755995 0.158397779
0.525488615 0.196901247 0.178872883
0.586840749 0.216119751 0.198431745
0.643224955 0.233981699 0.216636181
0.693539262 0.250148624 0.233041868
0.736575305 0.263920248 0.246998072
0.771571159 0.275226504 0.258506119
0.796127141 0.283245564 0.266686887
0.806338429 0.286533505 0.270116866
0.067223191 0.133298889 0.121032268
0.074014448 0.133595437 0.120975755
0.094971567 0.134753704 0.121049941
0.131647378 0.140024453 0.123990640
0.202454001 0.153181270 0.118405759
0.274637282 0.166637510 0.122023940
0.343655288 0.182512909 0.134403586
0.410860151 0.200100347 0.151751831
0.476366401 0.218125701 0.171034813
0.539494455 0.235555500 0.190279946
0.598921537 0.251940727 0.208609313
0.653431118 0.266754061 0.225502193
0.702140689 0.279784620 0.240625888
0.743901968 0.290686309 0.253697872
0.777855873 0.299345434 0.264496684
0.801550508 0.304692805 0.272008061
0.811015785 0.305348605 0.274756938
0.108871125 0.187666506 0.161493510
0.111291625 0.187928751 0.161427051
0.120572001 0.189130992 0.161451876
0.146061823 0.193465620 0.165245816
0.193759248 0.201135129 0.167747006
0.282761246 0.220665559 0.156027332
0.363182127 0.237602368 0.155394763
0.432501227 0.254854262 0.169682711
0.496771157 0.271407783 0.188402876
0.557680368 0.286539018 0.206773236
0.614804685 0.299877107 0.223572373
0.667196393 0.311303675 0.238774806
0.714156151 0.320903629 0.252475858
0.754551470 0.328471690 0.264376968
0.787188053 0.333671242 0.274013013
0.809654891 0.335583389 0.280437171
