assets/photofx/luts/cinema-style/Cinema Style 13.cube
TITLE "17x17x17 Adobe/IRIDAS cube 3D LUT exported with GrossGrade v0.2.01 (beta) 64 bit"
DOMAIN_MIN 0 0 0
DOMAIN_MAX 1 1 1
LUT_3D_SIZE 5
-0.045111999 -0.041184999 -0.025162000
0.145476252 0.066877246 0.081920005
0.403059542 0.180562511 0.184079006
0.642316520 0.274527013 0.278751999
0.789164007 0.331665993 0.329901010
0.055697002 0.202514753 0.127211750
0.178338513 0.206988752 0.148098007
0.437647045 0.292992771 0.219212264
0.668856978 0.369956732 0.315084994
0.804246008 0.395407498 0.353548765
0.165960506 0.471194506 0.293255508
0.286188751 0.485175252 0.321709991
0.506959498 0.537004530 0.340057969
0.744791985 0.556429029 0.386847496
0.848889470 0.552230477 0.411220491
0.288972259 0.759947240 0.453891248
0.376627982 0.771920025 0.470875502
0.564492464 0.820064008 0.532994032
0.805422544 0.849240482 0.511299551
0.899675250 0.737292290 0.500499249
0.311526000 0.955765009 0.531436980
0.383200258 0.953914523 0.542489529
0.572193503 0.952531993 0.590708494
0.777700782 0.950053453 0.636682749
0.924576998 0.956174016 0.651117980
-0.017453000 0.009911003 0.147300258
0.182558760 0.096234247 0.192494005
0.442272753 0.202211007 0.279440016
0.672664762 0.286544979 0.348288745
0.804253280 0.326267004 0.367010236
0.060813002 0.206623003 0.225559503
0.178282738 0.233278006 0.259839743
0.445151508 0.297208756 0.315899014
0.686067283 0.364514500 0.385262996
0.824229777 0.411008000 0.424015760
0.138859510 0.468071014 0.363752514
0.244604990 0.501303017 0.366718262
0.513405085 0.554316998 0.406462252
0.755478323 0.578071773 0.462379247
0.866510510 0.580118537 0.489113748
0.251322478 0.770052075 0.496109515
0.354432523 0.786489248 0.508857012
0.567462265 0.825220287 0.575909734
0.820138752 0.856212258 0.563199043
0.912119031 0.757519960 0.563566029
0.313391000 0.960198045 0.567468286
0.397917747 0.960452199 0.583376527
0.588702023 0.957924724 0.618376732
0.785016000 0.953217506 0.663064778
0.927862227 0.957985282 0.675124764
0.059475005 0.150000006 0.346852005
0.196727514 0.180326521 0.385485530
0.495112479 0.258146524 0.424048007
0.714985728 0.331355989 0.484407008
0.834457994 0.361961007 0.484958529
0.082851008 0.267464280 0.406428039
0.171388507 0.280960023 0.435325503
0.500051260 0.338862002 0.478637010
0.730946302 0.397418797 0.539070010
0.851294994 0.418314010 0.530348539
0.145586491 0.513357043 0.580265522
0.176502258 0.535664022 0.608093023
0.543678522 0.610166073 0.680490553
0.810425282 0.682945848 0.730246305
0.917780042 0.710887074 0.739578962
0.213417023 0.774240017 0.687683225
0.253372550 0.796942592 0.687500238
0.621557057 0.860300541 0.725746751
0.858008027 0.879224539 0.732602000
0.937009215 0.835021257 0.752730727
0.295933992 0.954836488 0.649587512
0.342824250 0.963639259 0.654576778
0.669549525 0.972910047 0.742237568
0.816605210 0.968002975 0.772151232
0.939379990 0.971150517 0.782165527
0.104015000 0.228903502 0.511791468
0.199855760 0.247687504 0.531083703
0.455612540 0.303126246 0.571381509
0.766829014 0.389267474 0.694207251
0.859400988 0.406965494 0.648762465
0.114630505 0.310029238 0.555440307
0.172585517 0.323204249 0.585449278
0.467672527 0.366698772 0.646721244
0.779138327 0.445877254 0.743668973
0.873310268 0.468878001 0.706993520
0.150216505 0.511564255 0.727578044
0.185786009 0.524657011 0.748591721
0.539151847 0.630886316 0.828734994
0.837794781 0.692310810 0.840906978
0.917760015 0.721536517 0.819787264
0.248772517 0.794859469 0.845666289
0.266075015 0.807943285 0.851657987
0.589004576 0.871446490 0.882433176
0.875325024 0.903660238 0.888901472
0.954488218 0.915939987 0.898339987
0.316626519 0.926618218 0.819379032
0.341759741 0.937554002 0.818792284
0.605209291 0.976446986 0.831333518
0.889208734 0.985383749 0.897784472
0.959803462 0.984179020 0.903389990
0.123709001 0.267057002 0.603124022
0.178155750 0.277996480 0.610180497
0.379612029 0.310466498 0.660494447
0.630112529 0.372426003 0.733377457
0.906641006 0.448603004 0.829244018
0.130304247 0.320551753 0.633496761
0.173334509 0.347154498 0.672668278
0.375943512 0.378449500 0.731849968
0.649373770 0.423712492 0.788897038
0.915265739 0.497420013 0.847671986
0.143959001 0.475288510 0.764899969
0.174164742 0.490797520 0.785740972
0.533571541 0.641845584 0.878282547
0.767158031 0.668867052 0.889302254
0.934934497 0.729468465 0.900032997
0.214607269 0.669930756 0.856742024
0.238667011 0.683603764 0.862937212
0.583792031 0.793153763 0.907263756
0.878935814 0.905569494 0.939188480
0.953842223 0.917723238 0.946474731
0.325767994 0.896282971 0.919161975
0.341179490 0.903858244 0.923322737
0.603327036 0.950860500 0.947347999
0.883947015 0.986521780 0.953760266
0.969183028 0.990123987 0.956402004
