assets/photofx/luts/cinema-style/Cinema Style 04.cube
TITLE "17x17x17 Adobe/IRIDAS cube 3D LUT exported with GrossGrade v0.2.01 (beta) 64 bit"
DOMAIN_MIN 0 0 0
DOMAIN_MAX 1 1 1
LUT_3D_SIZE 5
0.000000000 0.000000000 0.000000000
0.237239510 0.000071750 0.004298001
0.513383031 0.001893000 0.005679500
0.770645976 0.008412249 0.008156500
0.993490994 0.020396000 0.013351000
0.105402753 0.252310246 0.119426012
0.237597257 0.241208255 0.055537753
0.480874002 0.234526992 0.032177001
0.758707762 0.208701998 0.018742749
0.992812276 0.194784999 0.017633250
0.263960510 0.525896490 0.272260487
0.320891261 0.527758002 0.340444267
0.517661512 0.481276512 0.127055019
0.683247268 0.486933529 0.111339256
0.947854519 0.521355510 0.089459009
0.410810262 0.756426275 0.421393007
0.536423504 0.758256257 0.608170509
0.401715755 0.759236693 0.282968998
0.757546306 0.662952483 0.202264994
0.888100028 0.659635007 0.194985747
0.605009973 0.955249012 0.681181014
0.700347006 0.956465244 0.806362510
0.553297997 0.957249999 0.529562950
0.648287773 0.955527484 0.269637257
0.962758005 0.804450989 0.282413006
0.000000000 0.059251249 0.208569765
0.205620259 0.007353000 0.209625751
0.487819761 0.008017500 0.190577999
0.765472770 0.008720500 0.158000246
0.992661774 0.019617749 0.139011502
0.014004501 0.253633261 0.145193994
0.231327504 0.254143268 0.238179758
0.482567489 0.241408497 0.188189253
0.745279789 0.223516762 0.166765019
0.983270943 0.212904260 0.152154014
0.160114259 0.526015282 0.247390017
0.385571778 0.527025461 0.414491028
0.486650765 0.522161782 0.242892504
0.692038059 0.516346753 0.228158265
0.953637242 0.525043726 0.197345763
0.339885533 0.755843282 0.383871257
0.547271013 0.757415712 0.608350039
0.477288246 0.758985758 0.441942215
0.758770227 0.709751725 0.293660223
0.893173516 0.690321445 0.287592530
0.489546478 0.953460217 0.501628220
0.702115297 0.955722570 0.789911509
0.657832980 0.956890225 0.677738667
0.636813521 0.957330763 0.376630723
0.967397749 0.834141016 0.359371006
0.002338500 0.148024008 0.427806020
0.095786005 0.014565001 0.428202271
0.449091017 0.039301500 0.429993510
0.704962790 0.051992252 0.421488523
0.967895031 0.052636005 0.409548998
0.017457750 0.362513483 0.430272758
0.211226493 0.334384263 0.430012047
0.450989544 0.260359526 0.431656241
0.720662773 0.234018505 0.416769028
0.975629807 0.211409256 0.392224014
0.067364000 0.528529048 0.303658515
0.224122256 0.528240323 0.364146769
0.494156480 0.529199004 0.500501990
0.705127776 0.528863251 0.419938534
0.961620033 0.507768989 0.386021018
0.167875022 0.757357776 0.372156769
0.345104754 0.756688297 0.461675495
0.648011804 0.758411527 0.686570287
0.706142068 0.754313707 0.468721509
0.904975235 0.744274020 0.461117506
0.344635963 0.954068005 0.508085966
0.490649223 0.953814983 0.584690213
0.798080027 0.956287026 0.874577045
0.694097281 0.957464218 0.628762484
0.974531531 0.904250979 0.516498506
0.010884751 0.241290256 0.653299510
0.033298250 0.077015504 0.653577328
0.386274785 0.050504752 0.654512286
0.680693805 0.081088752 0.656446218
0.909392476 0.109055251 0.661034763
0.029154003 0.445491999 0.654690325
0.214039505 0.417159975 0.654653013
0.359598011 0.264477015 0.655565262
0.681729853 0.271867514 0.657423496
0.922271788 0.266223013 0.666039228
0.070416503 0.634369493 0.620965242
0.225543246 0.625003517 0.647746205
0.458109528 0.593493700 0.659112036
0.686137021 0.532593787 0.660854459
0.941474497 0.502375782 0.652623534
0.124430999 0.759357750 0.478423268
0.249451503 0.759103060 0.518407047
0.472080022 0.758467078 0.606873274
0.735414982 0.759979784 0.746631801
0.921738505 0.762006283 0.654862285
0.184364244 0.956142783 0.517318487
0.307284772 0.955809772 0.574023724
0.585896015 0.955087304 0.701803029
0.885777712 0.956939042 0.933461785
0.933893263 0.952470005 0.695805550
0.034008000 0.342482001 0.887072027
0.052939497 0.195980996 0.887232721
0.257985026 0.068767503 0.887740970
0.665979743 0.094682999 0.888969779
0.901036978 0.127105996 0.890910029
0.046364248 0.539386749 0.887504995
0.218569741 0.504708767 0.887821496
0.279920012 0.306342006 0.888451755
0.640921295 0.276709259 0.889788210
0.901731491 0.289760262 0.891707242
0.081255503 0.754305482 0.891674995
0.230147004 0.728855729 0.891111016
0.460368007 0.685891032 0.890661001
0.605079055 0.540597022 0.891994238
0.903844476 0.541369557 0.893928528
0.130799994 0.854142249 0.790678024
0.253152758 0.853839993 0.824493408
0.470427513 0.851631284 0.879554272
0.691873968 0.820129514 0.896375477
0.907941461 0.762998223 0.897638977
0.187342003 0.957957029 0.676892996
0.286924511 0.957547784 0.706703007
0.487966537 0.957450509 0.762755513
0.702371240 0.957557499 0.842611790
0.956147015 0.958514988 0.973690987
