assets/photofx/luts/cinema-style/Cinema Style 14.cube
TITLE "17x17x17 Adobe/IRIDAS cube 3D LUT exported with GrossGrade v0.2.01 (beta) 64 bit"
DOMAIN_MIN 0 0 0
DOMAIN_MAX 1 1 1
LUT_3D_SIZE 5
-0.053245001 -0.054488000 -0.057709001
0.174774006 0.058660254 0.046150751
0.454016030 0.155292511 0.132009506
0.690244496 0.234848514 0.214774758
0.803776026 0.272987992 0.253894001
0.102771007 0.181180000 0.146154255
0.191132501 0.197063997 0.155205503
0.499168515 0.275055259 0.171647251
0.716007769 0.324314773 0.240158245
0.818916976 0.332230002 0.269717753
0.263372004 0.415007025 0.334976017
0.292310745 0.428375781 0.345210493
0.517345488 0.486934006 0.372289538
0.771322250 0.551352024 0.320341021
0.860601008 0.503551006 0.323194981
0.403533995 0.596268535 0.476541996
0.416917741 0.603567243 0.481863737
0.535456240 0.650328994 0.514585197
0.739381552 0.709597528 0.542665720
0.886958241 0.720334291 0.448412001
0.466580003 0.674117982 0.534240007
0.474476993 0.678368509 0.536901772
0.519868016 0.700002491 0.550341487
0.678566515 0.756592035 0.594256461
0.823315024 0.797433019 0.615287006
0.021498252 0.045485508 0.117109254
0.165595263 0.103671506 0.141058251
0.439844012 0.176818267 0.235571265
0.682956040 0.243126750 0.299953759
0.800970256 0.275644988 0.312071264
0.068363249 0.215125009 0.216576755
0.198186755 0.219553009 0.214663252
0.487592518 0.271467268 0.258585006
0.709356964 0.322169244 0.311743766
0.818197012 0.348018765 0.340172529
0.283799022 0.436009765 0.373640507
0.302603781 0.442688763 0.376211017
0.522789240 0.501646757 0.410963774
0.773261786 0.548583746 0.373339742
0.859811246 0.510685503 0.383863032
0.415418506 0.609464765 0.500413775
0.424973786 0.613838494 0.502703011
0.534541011 0.656672239 0.535363495
0.743938208 0.716983020 0.564310014
0.890894234 0.719966233 0.476088762
0.471815258 0.680887997 0.548107982
0.482250243 0.687534451 0.554980516
0.524459541 0.707050025 0.567161441
0.678050518 0.761655509 0.607891500
0.826479495 0.803083718 0.630344510
0.141640514 0.165277511 0.276852012
0.182154760 0.185946256 0.303400993
0.429545522 0.276332498 0.351828039
0.628250003 0.300881267 0.439222753
0.759373009 0.297543496 0.443807006
0.009146001 0.298806489 0.429941237
0.090773754 0.290569514 0.435665280
0.457725763 0.346124500 0.400575757
0.661508739 0.369174242 0.474155784
0.786532283 0.367568016 0.472929746
0.251258016 0.506292045 0.501945972
0.280148983 0.518212199 0.514159799
0.558177531 0.562507927 0.547137499
0.766635299 0.594109774 0.593289495
0.861006498 0.604252100 0.609073997
0.463791996 0.655092239 0.580380321
0.478131741 0.661419034 0.586496234
0.592073023 0.707874060 0.637661934
0.770854473 0.761143744 0.675361514
0.909327984 0.748879015 0.628170013
0.497676015 0.708575010 0.598337531
0.507582068 0.714414001 0.604316473
0.606197476 0.764261484 0.663564563
0.711050272 0.800014257 0.688363194
0.841673493 0.833042026 0.699828506
0.218689501 0.246439755 0.409685493
0.241027504 0.261503756 0.430270255
0.419952512 0.330420256 0.482555240
0.611313581 0.409185499 0.519403279
0.698070765 0.364094019 0.531552494
0.218667001 0.340461761 0.511317253
0.255710751 0.343005270 0.506164491
0.441241533 0.389984250 0.522967696
0.632438540 0.453828484 0.549278021
0.720397949 0.420884013 0.561488509
0.039525531 0.545608521 0.651149035
0.119620018 0.552015722 0.664887786
0.523867249 0.605901539 0.708022058
0.730255008 0.645859480 0.688615561
0.814789772 0.627842784 0.686818004
0.434675276 0.721198559 0.709157228
0.456673741 0.730831027 0.719786286
0.611888528 0.781588197 0.777362525
0.824356794 0.829135478 0.813297212
0.915403008 0.838358521 0.817159057
0.550818264 0.754102767 0.682513535
0.566439986 0.761934221 0.691314697
0.668657005 0.811233044 0.749152303
0.832891285 0.888865292 0.845389485
0.901122749 0.910435557 0.859652281
0.261660993 0.292019010 0.482169986
0.276346236 0.301793009 0.493156016
0.412295997 0.369611979 0.540436029
0.574544728 0.420639515 0.568513751
0.688051999 0.470589012 0.599904001
0.286277503 0.354284257 0.533128023
0.318711996 0.377702266 0.548426270
0.437950760 0.423372746 0.575626254
0.595259249 0.464513272 0.597168267
0.704405248 0.504887998 0.623059750
0.141988009 0.505514503 0.729436040
0.207717746 0.518136263 0.738341808
0.564023495 0.617576063 0.735630512
0.707094789 0.658681989 0.741623521
0.788592458 0.671187997 0.749902964
0.246188775 0.671598554 0.755231500
0.284464031 0.681652009 0.764392495
0.539829016 0.758947492 0.835549235
0.828240275 0.847422957 0.897642493
0.902879536 0.855840266 0.900084019
0.536580980 0.800213993 0.811227024
0.554767489 0.808559537 0.821826756
0.683407009 0.858513474 0.886529982
0.857985020 0.910937726 0.943538725
0.921548009 0.930592000 0.959048986
