assets/photofx/luts/cinema-style/Cinema Style 13.cube
TITLE "17x17x17 Adobe/IRIDAS cube 3D LUT exported with GrossGrade v0.2.01 (beta) 64 bit"
DOMAIN_MIN 0 0 0
DOMAIN_MAX 1 1 1
LUT_3D_SIZE 17
-0.045111999 -0.041184999 -0.025162000
0.011940502 -0.038919061 -0.022320438
0.044054627 -0.026994875 -0.012986375
0.089888327 0.026918573 0.045289256
0.145476252 0.066877246 0.081920005
0.208094448 0.100587308 0.106633000
0.273420393 0.130980760 0.128719255
0.339082718 0.157173201 0.154782146
0.403059542 0.180562511 0.184079006
0.465245634 0.203874812 0.211795628
0.526192129 0.227763996 0.235846251
0.585208714 0.251300246 0.257624686
0.642316520 0.274527013 0.278751999
0.695551753 0.295572966 0.296596944
0.738274217 0.312920630 0.310861260
0.773598671 0.326131940 0.323990077
0.789164007 0.331665993 0.329901010
-0.037945751 0.026585937 -0.015004188
0.015221751 0.026754685 -0.012254501
0.044653125 0.030327871 0.000020438
0.091042697 0.052417189 0.054415196
0.147560120 0.081437379 0.088457562
0.210319370 0.110322125 0.110792935
0.275285095 0.137841702 0.131563947
0.340969354 0.163962960 0.156505838
0.404721767 0.186698765 0.184837952
0.466697454 0.208937436 0.212242186
0.528045952 0.232774749 0.236573562
0.587730527 0.256027758 0.258810312
0.644867003 0.278576374 0.280171245
0.697192609 0.299414456 0.298068613
0.741059363 0.316783249 0.313104063
0.776397467 0.329696000 0.326238096
0.791822731 0.334792554 0.331938177
0.015262999 0.076050997 0.047148749
0.025572997 0.078373119 0.051252063
0.046736501 0.080692627 0.059574623
0.097179763 0.090561822 0.074122384
0.154439747 0.113936007 0.102125756
0.217101142 0.138704568 0.122294001
0.281512797 0.163968503 0.142269507
0.346209705 0.188285202 0.165088952
0.411352277 0.209813893 0.190854639
0.474348634 0.230537131 0.217109680
0.535745144 0.252591491 0.241732135
0.595339119 0.274129570 0.264676899
0.651408732 0.295149624 0.286605388
0.703735411 0.314716607 0.305138499
0.748648882 0.331489146 0.320795000
0.780927658 0.342118382 0.331569612
0.794504225 0.345319003 0.335772634
0.038374066 0.136784375 0.091099255
0.043149564 0.138659880 0.094109759
0.062217876 0.141416773 0.100910500
0.104919516 0.142203957 0.108538322
0.168032378 0.153853148 0.120919317
0.230034575 0.176720008 0.138309121
0.293436944 0.201603830 0.158454254
0.356963456 0.227264345 0.181585386
0.420806140 0.250539273 0.206329450
0.484653801 0.271274865 0.232066423
0.545565844 0.291068852 0.256809860
0.603360236 0.309570760 0.279358000
0.658056617 0.327569813 0.300128728
0.709595025 0.343624860 0.317056626
0.754280150 0.356920183 0.330981374
0.785900056 0.364862442 0.340049326
0.798398852 0.365362704 0.342879802
0.055697002 0.202514753 0.127211750
0.059510000 0.204214618 0.129136249
0.076667629 0.207856119 0.133387759
0.122643128 0.208929956 0.142490819
0.178338513 0.206988752 0.148098007
0.246774882 0.220466197 0.162543312
0.310891032 0.242018759 0.175152510
0.374501288 0.267737716 0.194504693
0.437647045 0.292992771 0.219212264
0.498918325 0.316019684 0.245370626
0.558510602 0.336600602 0.271638125
0.615249038 0.354100049 0.295075119
0.668856978 0.369956732 0.315084994
0.719139516 0.383200318 0.331274390
0.762669206 0.393143862 0.343810230
0.792801261 0.398278475 0.351827323
0.804246008 0.395407498 0.353548765
0.073734246 0.269832253 0.162219375
0.076777503 0.272713065 0.163350940
0.090821683 0.276277065 0.164450184
0.141166762 0.277220130 0.173739821
0.202013865 0.278601199 0.184092119
0.258812129 0.280553430 0.196027309
0.329482764 0.294353753 0.206507012
0.395584583 0.313120186 0.214357197
0.459197462 0.336676508 0.233755499
0.520537317 0.359421998 0.258532047
0.577760756 0.380927086 0.284215927
0.632646680 0.399522990 0.308617800
0.684800208 0.415259063 0.328443557
0.732976019 0.427484334 0.344035625
0.774223804 0.435513884 0.356267005
0.802841127 0.438068390 0.364232868
0.812784970 0.432160854 0.365493208
0.096360505 0.339982271 0.200771898
0.100289896 0.341720700 0.201623455
0.115804255 0.345587760 0.203940526
0.167874202 0.346950471 0.214654267
0.228867143 0.349214256 0.227494001
0.287514001 0.356739998 0.230706081
0.345500261 0.363211274 0.246081397
0.414143264 0.374470055 0.255665451
0.480265647 0.388599515 0.262802631
0.541029572 0.406692892 0.279746950
0.598273158 0.425724536 0.301398903
0.652495384 0.444074899 0.323867828
0.704042256 0.459779024 0.343325615
0.750189662 0.471903324 0.358631790
0.788263559 0.479634285 0.370629758
0.814296126 0.480568707 0.378016293
0.822584033 0.472006500 0.378045380
0.128126010 0.407133728 0.245392218
0.133146897 0.408146590 0.246320516
0.153212517 0.411851168 0.250074178
0.203608349 0.414849669 0.260658741
0.258963764 0.418255568 0.274815530
0.316443622 0.429129630 0.278152764
0.371196389 0.441470027 0.278544009
0.428869545 0.449438006 0.294532299
0.494397491 0.457315445 0.307592988
0.558099329 0.465772629 0.316361845
0.616863549 0.477005243 0.327957153
0.672337651 0.491733700 0.345380336
0.724370837 0.505969822 0.362957388
0.769412875 0.516655266 0.377776682
0.804992735 0.522972226 0.388866127
0.828127563 0.522427619 0.394838512
0.834414721 0.512021244 0.393021196
0.165960506 0.471194506 0.293255508
0.171360999 0.472220153 0.294111580
0.193366259 0.475610763 0.298263013
0.237200946 0.479885370 0.308144450
0.286188751 0.485175252 0.321709991
0.338775754 0.496899962 0.330262542
0.395853639 0.514093995 0.326461017
0.447813690 0.529755771 0.329011083
0.506959498 0.537004530 0.340057969
0.571811557 0.540222168 0.357916772
0.633837342 0.541999638 0.366834760
0.692465544 0.546454787 0.373453677
0.744791985 0.556429029 0.386847496
0.789044857 0.565035641 0.400586694
0.823105454 0.568444729 0.410467863
0.844527841 0.565255284 0.414863050
0.848889470 0.552230477 0.411220491
0.205049306 0.533690810 0.340716302
0.210347444 0.534616649 0.341359764
0.230980814 0.537641704 0.345288783
0.268340945 0.542611003 0.353873104
0.312930107 0.549922585 0.366727561
0.361335307 0.562239408 0.378307045
0.415374756 0.581253350 0.381831795
0.470311165 0.601558447 0.378286481
0.520947635 0.619182527 0.382718861
0.583567262 0.624665976 0.384174496
0.649592578 0.620615602 0.403293848
0.710819364 0.614778876 0.410341322
0.765076518 0.613138914 0.414333493
0.808827639 0.617315710 0.424774975
0.841823578 0.618088841 0.433692694
0.862239599 0.611546397 0.436840534
0.865315139 0.594482422 0.431249887
0.246669620 0.594797611 0.386331499
0.251861870 0.595627069 0.386883318
0.269661874 0.598406136 0.390271127
0.302184880 0.603560686 0.397065818
0.343097746 0.611968696 0.408125490
0.387980819 0.625583887 0.420301735
0.437671870 0.645299733 0.430074990
0.490582883 0.668866277 0.434139788
0.543347299 0.690178871 0.434110492
0.595245540 0.707415342 0.438512772
0.660211623 0.710352898 0.429838628
0.725495994 0.697211027 0.443046451
0.782299399 0.683575392 0.448752880
0.827464998 0.675393641 0.450854570
0.859815001 0.670979500 0.456878752
0.878720999 0.661011696 0.459532768
0.881016016 0.639808893 0.452398390
0.280439615 0.666394830 0.425531179
0.285491824 0.667110443 0.426058054
0.301432431 0.669635117 0.429007947
0.331166804 0.674522042 0.434804499
0.368423313 0.682542920 0.443915993
0.409962386 0.695049822 0.455967069
0.455204874 0.712522388 0.469472080
0.504851758 0.734584272 0.481405705
0.558698416 0.757267296 0.489897013
0.614095330 0.776035905 0.492472827
0.668742239 0.789218783 0.494214267
0.735080719 0.788566351 0.474260509
0.795205474 0.767384946 0.478439569
0.842002213 0.746624172 0.482970566
0.873300672 0.728654325 0.481888145
0.890129268 0.712903917 0.482746869
0.892376304 0.687459469 0.474495262
0.288972259 0.759947240 0.453891248
0.293397695 0.760357261 0.454335868
0.309174776 0.762128592 0.456897259
0.338856757 0.765745103 0.462498814
0.376627982 0.771920025 0.470875502
0.418767691 0.780695796 0.483112156
0.463515013 0.791472435 0.499113768
0.511489153 0.804616809 0.516922116
0.564492464 0.820064008 0.532994032
0.623687506 0.834908009 0.544802547
0.684539557 0.846329808 0.548622251
0.741419673 0.853519022 0.546582997
0.805422544 0.849240482 0.511299551
0.855269074 0.824764788 0.512976348
0.882919252 0.796818376 0.520236254
0.896737278 0.768906295 0.514912724
0.899675250 0.737292290 0.500499249
0.290595263 0.850718856 0.479091465
0.294235766 0.850773811 0.479481429
0.308613688 0.851158023 0.481218278
0.336128443 0.852019131 0.485843927
0.375639766 0.854353309 0.493761271
0.419243872 0.858577132 0.505699456
0.465211511 0.863408685 0.522132576
0.514050007 0.868082821 0.542535424
0.568660975 0.873143196 0.563635230
0.629586399 0.879530072 0.579844654
0.695810914 0.886004031 0.590314388
0.759922802 0.891170681 0.594989836
0.815772712 0.896535158 0.590719640
0.868667662 0.891508877 0.548846781
0.897140026 0.863929391 0.567061126
0.906307757 0.833041191 0.570716679
0.907491207 0.792198896 0.542916119
0.288869381 0.910895526 0.502268910
0.291795522 0.910811603 0.502656698
0.304259628 0.910336673 0.504350543
0.329999894 0.909566641 0.508183002
0.371967137 0.908719063 0.515310347
0.418298006 0.909015477 0.526387513
0.466402769 0.910211802 0.542278469
0.517850280 0.911708117 0.561909795
0.575171173 0.912804484 0.583036363
0.639143527 0.913943529 0.601403832
0.704819202 0.916711867 0.612784564
0.766181469 0.920474350 0.619399130
0.817165256 0.923787713 0.622396886
0.861512899 0.928241432 0.617515504
0.904404461 0.923268139 0.610330939
0.917382956 0.888238490 0.614409328
0.916372776 0.850407064 0.598520339
0.299029112 0.945012808 0.520221710
0.300373137 0.945028365 0.520441353
0.310651273 0.944698572 0.522061229
0.336883247 0.943733037 0.526206970
0.375852436 0.942318201 0.532812953
0.422222614 0.941277981 0.542212665
0.472194582 0.941025376 0.556428432
0.526555777 0.941476464 0.574434042
0.584834456 0.941615462 0.592732489
0.644765198 0.940494359 0.608920693
0.703420460 0.939387918 0.621547461
0.756489694 0.940693617 0.629354417
0.803402305 0.943395555 0.635121584
0.846789002 0.946150839 0.639459372
0.887693882 0.950902998 0.635028780
0.919896066 0.944100916 0.641826391
0.923210144 0.901091218 0.623610795
0.311526000 0.955765009 0.531436980
0.314505368 0.955682456 0.531884193
0.326378256 0.955293775 0.533699870
0.349530101 0.954653978 0.537175715
0.383200258 0.953914523 0.542489529
0.424376070 0.953317702 0.549804509
0.469673276 0.953037381 0.560530782
0.518789828 0.952918470 0.574668825
0.572193503 0.952531993 0.590708494
0.627704203 0.951381147 0.606122136
0.682078600 0.949421585 0.619504392
0.732446134 0.948352218 0.630055606
0.777700782 0.950053453 0.636682749
0.821328700 0.952642858 0.642106771
0.861758053 0.955843866 0.646866858
0.900498271 0.961802721 0.643627346
0.924576998 0.956174016 0.651117980
-0.044591688 -0.039852809 0.028760187
0.012849874 -0.037519373 0.031534251
0.048819251 -0.025916314 0.043042690
0.093106695 0.023903569 0.062481754
0.147177637 0.065249003 0.090198502
0.209723115 0.099346124 0.113191314
0.275359452 0.128263578 0.134320199
0.341747075 0.155692711 0.160550401
0.405769140 0.180339873 0.189256757
0.467542231 0.203771189 0.215764552
0.528264403 0.227868631 0.239322692
0.586914957 0.251313359 0.260978132
0.643281937 0.274176866 0.281618685
0.695625246 0.295039505 0.298827291
0.738773346 0.312745214 0.313599557
0.774570465 0.326115638 0.326770931
0.790234625 0.331670702 0.332435995
-0.037403874 0.023052501 0.036188938
0.015492689 0.024634996 0.039512374
0.048609562 0.033259563 0.051586937
0.093281507 0.053084511 0.070772320
0.148417935 0.080884814 0.095491812
0.210899159 0.108861558 0.115391947
0.275998503 0.135170132 0.134990200
0.342129230 0.161295950 0.159884766
0.405948132 0.184525132 0.187911496
0.467686683 0.207020193 0.214635432
0.528731108 0.231029883 0.238623306
0.587993979 0.254426181 0.260711253
0.644836187 0.277117074 0.281816065
0.696895242 0.298083961 0.299473405
0.740968764 0.315925121 0.314936936
0.776987970 0.329286933 0.328503758
0.792963743 0.334812224 0.334540695
0.015955374 0.075578310 0.061305746
0.026018061 0.077718191 0.064780563
0.049227312 0.081155933 0.073283374
0.098160952 0.092129380 0.086074010
0.155082688 0.114518069 0.109655745
0.217744440 0.138206065 0.127591133
0.282213300 0.162980571 0.146368876
0.347077101 0.186757207 0.168683827
0.412321776 0.207940131 0.193915442
0.475163758 0.228542864 0.219553262
0.536303997 0.250717133 0.243931621
0.595777273 0.272512496 0.266859859
0.651839435 0.293877572 0.288726568
0.703869998 0.313836247 0.307257652
0.749156833 0.330934733 0.323239386
0.781660914 0.341764808 0.333973438
0.795050204 0.344955444 0.337488741
0.038559631 0.136619702 0.098413445
0.042831942 0.138305381 0.100205004
0.062649250 0.142018825 0.108070821
0.105618887 0.143377453 0.115146823
0.168356985 0.154862761 0.126916945
0.230293632 0.177474886 0.143737748
0.293838114 0.201829702 0.163248017
0.357438952 0.226989970 0.185808972
0.421405911 0.249704733 0.209932014
0.485065758 0.270054787 0.235075504
0.545695484 0.289729446 0.259423792
0.603443384 0.308275431 0.281681061
0.658274710 0.326420248 0.302308798
0.709803581 0.342777133 0.319374204
0.754655957 0.356356919 0.333384961
0.786436498 0.364533395 0.342267752
0.798955858 0.365324378 0.345070511
0.055676188 0.201641575 0.132106438
0.058727372 0.203552738 0.132882118
0.075437754 0.208578631 0.137969002
0.121772014 0.210287943 0.146272570
0.178740129 0.207870379 0.152103379
0.247217000 0.221279621 0.166973814
0.311225861 0.242614895 0.179654509
0.374831259 0.268146425 0.198995695
0.437800109 0.293186903 0.223348573
0.498852968 0.316002518 0.249149755
0.558261454 0.336358577 0.275027186
0.615067244 0.353654146 0.298068553
0.668873489 0.369417727 0.317859173
0.719371498 0.382731766 0.333925068
0.763065636 0.392788112 0.346202314
0.793311179 0.398092866 0.354178876
0.804767072 0.395421922 0.355891168
0.073611632 0.269487292 0.166907132
0.075852066 0.272038996 0.166619480
0.089146629 0.276911557 0.167691186
0.139126644 0.278436929 0.176281437
0.201501012 0.279581934 0.187405631
0.259221196 0.281406492 0.199343503
0.329977721 0.294898570 0.210005805
0.395923108 0.313543648 0.218214318
0.459513724 0.337081432 0.237846643
0.520463467 0.359767377 0.262333810
0.577466249 0.381210923 0.287822962
0.632550240 0.399671614 0.311848491
0.684968531 0.415282965 0.331366152
0.733347178 0.427459836 0.346887946
0.774762332 0.435516536 0.358973533
0.803477049 0.438165456 0.366887301
0.813437939 0.432388067 0.368089378
0.095826134 0.339840710 0.205343157
0.098605819 0.341265380 0.204471275
0.113840446 0.345796585 0.206590205
0.165262833 0.347961158 0.216563135
0.227723479 0.349925816 0.230019376
0.287479937 0.357414097 0.233561143
0.345930576 0.363934070 0.248958573
0.414353669 0.374856263 0.258605182
0.480477542 0.388911486 0.265997887
0.541111767 0.407082915 0.283078015
0.598145843 0.426106125 0.304535866
0.652484477 0.444416136 0.326949984
0.704280019 0.460112631 0.346161962
0.750620008 0.472239345 0.361352116
0.788781166 0.479960471 0.373327076
0.814917147 0.480868518 0.380633831
0.823282123 0.472386181 0.380653173
0.126937822 0.407303035 0.249124229
0.130524516 0.407939374 0.248370081
0.149832472 0.412041843 0.251819521
0.201222286 0.415509999 0.262162656
0.257462054 0.418781906 0.276671231
0.315807313 0.429585636 0.280766964
0.371130317 0.442031592 0.280990779
0.429007709 0.450051337 0.297044277
0.494376957 0.457663774 0.310178697
0.558350325 0.466041446 0.318912715
0.617038488 0.477457285 0.330641389
0.672560334 0.492190659 0.348081887
0.724596083 0.506398499 0.365647823
0.769773185 0.517110705 0.380337209
0.805376589 0.523434043 0.391397387
0.828585863 0.522880077 0.397324920
0.834996283 0.512559354 0.395543993
0.164355189 0.471704185 0.296111017
0.168274641 0.472190678 0.295572132
0.189802006 0.475877970 0.299388051
0.234870002 0.480370194 0.309302509
0.284773320 0.485578179 0.323116601
0.337992281 0.497143358 0.332328826
0.395384341 0.514495492 0.328889102
0.447685242 0.530219376 0.331206769
0.506999254 0.537578583 0.342347682
0.572017014 0.540621638 0.360194206
0.634301066 0.542328715 0.369037896
0.692853749 0.546956480 0.375882506
0.745059431 0.556934118 0.389310420
0.789308608 0.565536797 0.402996272
0.823396683 0.568960905 0.412835002
0.844882667 0.565814018 0.417220116
0.849374771 0.552900732 0.413676441
0.203528881 0.534348786 0.343029767
0.207410693 0.534707069 0.342566133
0.228204623 0.537879527 0.346251935
0.266397625 0.542915702 0.354864627
0.311737895 0.550290883 0.367892623
0.360593081 0.562443733 0.379896760
0.414986074 0.581449270 0.383854181
0.470209509 0.601889789 0.380354226
0.521083593 0.619545221 0.384688765
0.583868146 0.625202417 0.386250705
0.650054634 0.621061087 0.405364096
0.711298764 0.615181506 0.412440747
0.765360594 0.613648772 0.416545212
0.809070528 0.617861629 0.426987559
0.842080176 0.618672311 0.435894996
0.862559974 0.612153232 0.439034313
0.865736485 0.595180690 0.433601260
0.245670050 0.595510840 0.388311327
0.249421000 0.595791876 0.387935191
0.267614990 0.598625839 0.391199738
0.300592691 0.603790641 0.398034066
0.342105687 0.612232208 0.409150749
0.387325197 0.625780702 0.421574086
0.437275410 0.645440817 0.431618571
0.490472645 0.669034064 0.435912251
0.543541670 0.690461397 0.435896337
0.595599771 0.707742214 0.440291792
0.660688281 0.710836411 0.431709319
0.725947857 0.697639465 0.445053130
0.782685637 0.684042573 0.450731307
0.827758431 0.675927103 0.452886850
0.860097051 0.671551228 0.458971173
0.879051983 0.661602437 0.461627454
0.881411970 0.640492141 0.454621732
0.279750884 0.667152941 0.427299947
0.283390880 0.667366683 0.427021176
0.299807817 0.669908881 0.429911911
0.329801679 0.674817145 0.435783803
0.367441982 0.682791233 0.444933951
0.409310490 0.695234179 0.457063705
0.454793960 0.712654293 0.470693946
0.504607081 0.734679163 0.482789934
0.558671832 0.757404029 0.491450071
0.614265501 0.776302576 0.494143069
0.669116974 0.789511681 0.495903850
0.735539138 0.788955986 0.476023942
0.795639396 0.767772257 0.480395764
0.842403114 0.747059584 0.484833360
0.873628795 0.729134083 0.483852088
0.890533447 0.713422239 0.484763145
0.892804384 0.688112915 0.476603985
0.288036525 0.760757625 0.455528259
0.291401505 0.760788739 0.455306262
0.307484448 0.762542307 0.457784891
0.337435514 0.766153812 0.463401616
0.375567973 0.772247553 0.471843928
0.418057948 0.780989885 0.484118551
0.463114768 0.791706324 0.500190914
0.511292994 0.804776847 0.518113375
0.564419627 0.820150435 0.534313500
0.623753667 0.835026979 0.546236813
0.684789538 0.846534729 0.550233126
0.741853356 0.853708088 0.548162162
0.805896819 0.849485576 0.512980700
0.855601251 0.825012267 0.514698923
0.883270204 0.797081649 0.521842539
0.897170424 0.769333005 0.516645610
0.900068998 0.737835824 0.502429008
0.289887249 0.851371169 0.480730772
0.292722225 0.851261854 0.480560720
0.307092190 0.851657152 0.482214808
0.334694117 0.852526963 0.486813039
0.374646366 0.854727924 0.494726717
0.418583333 0.858878791 0.506644487
0.464792401 0.863652825 0.523113430
0.513826549 0.868258417 0.543600559
0.568638563 0.873263240 0.564806223
0.629691780 0.879588246 0.581041753
0.696048975 0.886083186 0.591563225
0.760361671 0.891289592 0.596344948
0.816120684 0.896632671 0.591961563
0.869054258 0.891633749 0.550253451
0.897342443 0.864030421 0.568230748
0.906605184 0.833206713 0.572059810
0.907826245 0.792585492 0.544532716
0.288285255 0.911302388 0.503936589
0.290688276 0.911152303 0.503863752
0.302971125 0.910699189 0.505496085
0.328555077 0.909939051 0.509258151
0.370929062 0.909039438 0.516374946
0.417659461 0.909269214 0.527414560
0.466076702 0.910417736 0.543266296
0.517739236 0.911859393 0.562890530
0.575266838 0.912931442 0.584050715
0.639412642 0.914064586 0.602398753
0.705094695 0.916799247 0.613690555
0.766407371 0.920565009 0.620310187
0.817410350 0.923884571 0.623333752
0.861641049 0.928309977 0.618460298
0.904534876 0.923338771 0.611195028
0.917545855 0.888327479 0.615366042
0.916660070 0.850561678 0.599718988
0.298586309 0.945398331 0.521623731
0.299836189 0.945360601 0.521613777
0.309873700 0.945047259 0.523177803
0.336131334 0.944063962 0.527326286
0.375304013 0.942603767 0.533925414
0.421932995 0.941529155 0.543329835
0.472099632 0.941238463 0.557446718
0.526616573 0.941660881 0.575309157
0.585024357 0.941785038 0.593507946
0.645049632 0.940655112 0.609687388
0.703711867 0.939524949 0.622364640
0.756693065 0.940791965 0.630211473
0.803546548 0.943483770 0.635965765
0.846966028 0.946238756 0.640287280
0.887835681 0.950957298 0.635877848
0.920032144 0.944153547 0.642565072
0.923369825 0.901185930 0.624484181
0.311616957 0.955943167 0.532884479
0.314535409 0.955863416 0.533299804
0.326361895 0.955487847 0.535072625
0.349427551 0.954874992 0.538478017
0.382984430 0.954157472 0.543716133
0.424322814 0.953529418 0.551016152
0.469720125 0.953225553 0.561647952
0.518935323 0.953101873 0.575633943
0.572461605 0.952714682 0.591523349
0.628056765 0.951558292 0.606879175
0.682435453 0.949580073 0.620293558
0.732732654 0.948477566 0.630879998
0.777904093 0.950150430 0.637517571
0.821493685 0.952733397 0.642920673
0.861948550 0.955918431 0.647672474
0.900634289 0.961831808 0.644416749
0.924701691 0.956203103 0.651828587
-0.041575875 -0.033289000 0.065688126
0.015293436 -0.030610811 0.068202317
0.054492999 -0.018870249 0.078785747
0.101854891 0.034877069 0.097087443
0.157042012 0.069422007 0.117627628
0.219731510 0.098214813 0.136182681
0.284911245 0.126119882 0.156630263
0.352453530 0.153550953 0.182428017
0.418528914 0.181237504 0.209583879
0.479093760 0.206156060 0.233077690
0.536821902 0.229163006 0.253732502
0.593790770 0.251791447 0.273901820
0.647559106 0.273680121 0.292886734
0.695999742 0.293068767 0.307567477
0.740873218 0.311943382 0.323844492
0.777864039 0.324588180 0.334385812
0.792734087 0.329572737 0.337889135
-0.033253189 0.028672190 0.070749998
0.017389374 0.031001063 0.075240687
0.053870313 0.040029127 0.087428004
0.101387575 0.056992259 0.102589190
0.156060323 0.079819568 0.119274810
0.218662366 0.105234869 0.136247635
0.284628600 0.133055449 0.157193512
0.352148533 0.158917770 0.182417452
0.418019384 0.184708878 0.208705008
0.478919268 0.208820999 0.232166439
0.537151396 0.231987372 0.253427744
0.594631612 0.254729897 0.274135649
0.649078608 0.276519686 0.293458760
0.697723210 0.296549857 0.309138387
0.743397951 0.315408289 0.325816602
0.780118883 0.327525258 0.335929692
0.794891834 0.332301319 0.339441687
0.017795749 0.076918632 0.093396753
0.027419185 0.078376874 0.095491678
0.054000124 0.083216995 0.103844628
0.101538695 0.097515248 0.116648555
0.157989249 0.115533508 0.132228628
0.220402926 0.138742507 0.146471635
0.285560310 0.160048261 0.162271887
0.351277322 0.181650639 0.183795080
0.416888624 0.202108383 0.207476631
0.479289442 0.221999064 0.230353504
0.539227843 0.244458005 0.253307134
0.597783864 0.267341018 0.275825322
0.653493285 0.289366364 0.296856880
0.704520226 0.310670227 0.315904826
0.751414776 0.329038858 0.332850754
0.783710063 0.339471698 0.340715945
0.797398627 0.344237506 0.344936997
0.039894816 0.137763456 0.122847505
0.044338062 0.139061630 0.124247178
0.063543439 0.143124998 0.129594937
0.108241141 0.147746891 0.138610259
0.169483066 0.159343392 0.149922937
0.231613889 0.180403888 0.164946631
0.295664698 0.202755406 0.181876510
0.359967500 0.225037768 0.201835901
0.424291879 0.246039003 0.224053442
0.487015307 0.265191138 0.247063950
0.546404421 0.284467936 0.269924194
0.603959858 0.303643614 0.291518003
0.659468770 0.322516263 0.311662942
0.711185336 0.340006232 0.329133719
0.756748736 0.354702801 0.342934012
0.788745582 0.363872170 0.351619482
0.801473081 0.365957886 0.354749918
0.056175876 0.201333761 0.151641116
0.058862187 0.203485310 0.152376190
0.071230754 0.209860638 0.154408872
0.117036328 0.215366006 0.161912546
0.180434003 0.212143630 0.169240132
0.248976827 0.224876449 0.184927687
0.312873006 0.246052131 0.198614895
0.376361549 0.270262599 0.217379898
0.438636899 0.294059753 0.240162015
0.498853773 0.315940320 0.264599204
0.557597041 0.335464746 0.288965404
0.614525199 0.352319062 0.310737312
0.669400871 0.367730856 0.329255611
0.721132934 0.381177038 0.344270825
0.765023112 0.391824484 0.356301397
0.795603156 0.397889137 0.364217937
