assets/photofx/luts/cinema-style/Cinema Style 09.cube
TITLE "17x17x17 Adobe/IRIDAS cube 3D LUT exported with GrossGrade v0.2.01 (beta) 64 bit"
DOMAIN_MIN 0 0 0
DOMAIN_MAX 1 1 1
LUT_3D_SIZE 5
0.000000000 0.000000000 0.000000000
0.174167007 0.034741249 0.010373251
0.420442015 0.040837001 0.026676502
0.664532781 0.073348500 0.058237255
0.937222004 0.122877002 0.107685000
0.057801753 0.137451753 0.031222751
0.231488004 0.190272510 0.030756501
0.477109283 0.217818767 0.052933503
0.709433794 0.218015254 0.075753257
0.960636497 0.263522267 0.128117755
0.235367522 0.312596500 0.042406507
0.325815022 0.355426520 0.028480001
0.518069983 0.463336021 0.068847999
0.726328492 0.493150771 0.124139003
0.979429007 0.512808025 0.171260506
0.442851245 0.516303778 0.187638015
0.499248266 0.538821518 0.172983512
0.592600465 0.640016317 0.109274015
0.766308308 0.704141736 0.132503763
0.985547245 0.754245281 0.203199506
0.603273988 0.719651997 0.402013987
0.643932223 0.736404240 0.396217018
0.732715487 0.795851946 0.363978982
0.821000993 0.913233519 0.259820998
0.982270002 0.971949995 0.409303993
0.021525001 0.028031001 0.089176498
0.130698517 0.056036498 0.117755257
0.400153279 0.028756000 0.140815258
0.646921992 0.055443503 0.169173002
0.922843754 0.099770002 0.211594746
0.062220503 0.165646255 0.171229750
0.174813241 0.203175262 0.198536500
0.479152024 0.228164762 0.220101997
0.714847744 0.218859017 0.220861018
0.962844789 0.250522763 0.245456517
0.135536760 0.321094751 0.148604751
0.273961037 0.361420512 0.184424490
0.507102787 0.473281771 0.240786761
0.728468776 0.499500543 0.267857999
0.981764257 0.515066743 0.283856988
0.382990271 0.514883518 0.245833755
0.467420518 0.542616010 0.255235523
0.586468339 0.626333237 0.238370270
0.761152744 0.709198296 0.245577261
0.986374259 0.755969286 0.299384266
0.570028007 0.721219003 0.427803248
0.622826755 0.739194036 0.427822769
0.728417277 0.794151545 0.412676752
0.821686506 0.911757231 0.344012260
0.980584502 0.971457243 0.485337019
0.073996007 0.062137503 0.201910019
0.115931004 0.090628505 0.209727496
0.293487012 0.127184004 0.254122019
0.561254501 0.104651764 0.312081516
0.881049514 0.089596003 0.382990003
0.099294506 0.175172508 0.313790500
0.139776245 0.213103503 0.367063999
0.383260012 0.271314740 0.367845774
0.650392294 0.236349285 0.388502002
0.942872524 0.235865250 0.430231750
0.138221994 0.409925997 0.428441525
0.201710746 0.453035027 0.463527739
0.453786016 0.496965528 0.485273540
0.727424264 0.509004533 0.496641517
0.977501512 0.510378003 0.496217489
0.240210503 0.580475450 0.446595490
0.318316758 0.593402803 0.455644250
0.507154584 0.611645520 0.485631526
0.733916998 0.708870053 0.518989325
0.985271454 0.755806208 0.518934488
0.454288989 0.758430004 0.534162998
0.518440008 0.769385517 0.545231223
0.662466526 0.807211041 0.559611022
0.821680307 0.897587478 0.565443993
0.980453491 0.978139997 0.608016014
0.126817748 0.111316003 0.303881764
0.154982507 0.133370250 0.322524786
0.283780754 0.199908510 0.374076515
0.457617283 0.202794015 0.377373755
0.744332492 0.243196011 0.491496503
0.129345506 0.205607250 0.426408023
0.160102248 0.242144510 0.469756991
0.327679515 0.330444247 0.492005289
0.549459219 0.340203255 0.483091533
0.806951761 0.348082513 0.554582238
0.159975499 0.427709997 0.589961052
0.206797242 0.464411259 0.627977490
0.419866502 0.530528724 0.654839516
0.641710520 0.578242242 0.633408248
0.899893939 0.549804270 0.659734488
0.226010263 0.663030803 0.673942745
0.282666028 0.682869792 0.687879801
0.484027028 0.719056010 0.707017779
0.677297711 0.726223767 0.697829783
0.969896972 0.749240994 0.725742221
0.382981986 0.857447982 0.728730023
0.443621486 0.866893291 0.733756483
0.587585568 0.879758000 0.742947817
0.754486561 0.900063992 0.752539039
0.968671024 0.974193513 0.789578497
0.176597998 0.180453002 0.452944994
0.201384008 0.202056497 0.478049278
0.292588532 0.281850040 0.530341506
0.535008252 0.370747268 0.570710242
0.676281989 0.373744994 0.563666999
0.171751499 0.268449754 0.553661287
0.203640744 0.299001247 0.582850575
0.305221260 0.370777279 0.631981254
0.565031528 0.469304740 0.634114742
0.723803759 0.478632271 0.630990744
0.194147006 0.479460031 0.732029498
0.236248747 0.500022531 0.751049995
0.370812535 0.546757996 0.779860497
0.604914784 0.620037198 0.733219504
0.780609488 0.640394509 0.732540488
0.235914752 0.698372006 0.852653742
0.285194755 0.715993285 0.868196785
0.471912980 0.754024029 0.893635750
0.687152267 0.771637022 0.854621291
0.850841522 0.798960268 0.828077793
0.339338005 0.918259978 0.916257024
0.407437265 0.929925025 0.921276748
0.570854485 0.952020526 0.928128481
0.755353034 0.967094302 0.926234007
0.937978983 0.972881019 0.919943988
