assets/photofx/luts/cinema-style/Cinema Style 05.cube
TITLE "17x17x17 Adobe/IRIDAS cube 3D LUT exported with GrossGrade v0.2.01 (beta) 64 bit"
DOMAIN_MIN 0 0 0
DOMAIN_MAX 1 1 1
LUT_3D_SIZE 17
-0.038121000 -0.038265001 -0.038238000
0.052835248 -0.037591875 -0.037563939
0.114144750 -0.034754001 -0.034722500
0.165102765 -0.027982555 -0.027939180
0.212883756 0.004605504 0.001239752
0.260891199 0.026821565 0.018612938
0.311587155 0.039268129 0.029206377
0.367340654 0.049170941 0.039701503
0.430395514 0.058267504 0.049880002
0.499920547 0.066949315 0.059564125
0.574466586 0.075455248 0.069599874
0.652948499 0.083872750 0.080367997
0.731355548 0.092248254 0.091103747
0.806240261 0.100620136 0.101841882
0.875245273 0.109051757 0.112718768
0.936658084 0.117712513 0.124347515
0.991048992 0.128580004 0.138995007
-0.035703186 0.049725939 -0.035827685
0.053828999 0.050020315 -0.035134878
0.114491872 0.050547317 -0.031986315
0.165352523 0.052095875 -0.024050055
0.213105381 0.054949068 0.004543126
0.260940701 0.060759503 0.020310814
0.311565876 0.065739065 0.030495752
0.367347032 0.071026877 0.040832505
0.430402160 0.076738194 0.050760001
0.499932438 0.082792811 0.060313314
0.574516475 0.089252621 0.070276566
0.653003216 0.096083373 0.080975503
0.731382549 0.103165753 0.091646120
0.806250155 0.110484883 0.102308013
0.875249743 0.118007012 0.113154769
0.936664760 0.125908837 0.124730825
0.991109014 0.136024684 0.139402807
-0.022168500 0.112633251 -0.022330249
0.057218071 0.112762243 -0.020807061
0.115856633 0.113229871 -0.002338625
0.166095823 0.112793379 0.008525066
0.213490009 0.113031000 0.015850499
0.260987252 0.113932878 0.027013186
0.311484039 0.115410253 0.035984755
0.367251575 0.117503501 0.045252688
0.430374771 0.120129496 0.054301254
0.500037968 0.123284623 0.063422814
0.574801505 0.127047628 0.073098123
0.653297424 0.131373629 0.083405495
0.731559873 0.136153132 0.093773879
0.806570053 0.141390815 0.104226820
0.875362933 0.147063375 0.114955142
0.936926782 0.153202578 0.126403391
0.991059601 0.161550373 0.141059250
0.026297441 0.170520008 0.015405439
0.063908562 0.170573011 0.015900005
0.117240749 0.170812696 0.018462943
0.167366013 0.171146452 0.025011756
0.214132443 0.170252830 0.031681694
0.261224300 0.169952273 0.038148940
0.311541945 0.170113504 0.045258626
0.367271483 0.170719877 0.052924193
0.430393279 0.171826243 0.060770128
0.500262439 0.173446208 0.069344312
0.575182736 0.175636202 0.078636996
0.653758049 0.178380251 0.088284120
0.732046008 0.181604624 0.098067880
0.806946874 0.185266316 0.108094633
0.875654876 0.189398140 0.118555702
0.937047362 0.194052339 0.129707947
0.991220176 0.200793132 0.144295812
0.051782250 0.227824509 0.038583249
0.075285368 0.227842122 0.038854189
0.120158128 0.228011504 0.039984625
0.167959273 0.228275254 0.042401068
0.215322509 0.228645742 0.046606500
0.262069196 0.227533564 0.051285628
0.312082887 0.227034122 0.056903124
0.367739648 0.226956382 0.063284695
0.430886984 0.227249756 0.070486002
0.500849903 0.228051990 0.078253940
0.575858176 0.229406118 0.086726874
0.654316425 0.231243819 0.095547438
0.732535243 0.233522266 0.104653500
0.807279885 0.236211002 0.114144884
0.875946164 0.239366874 0.124210879
0.937342405 0.243072748 0.134856820
0.991390228 0.248605996 0.149289489
0.068324372 0.285913378 0.056178249
0.085342556 0.285996109 0.056339562
0.124626376 0.286127776 0.057109684
0.169636205 0.286379635 0.058721438
0.215757251 0.286658436 0.061618190
0.263549149 0.287200511 0.066130750
0.313431323 0.286140800 0.070740752
0.369029313 0.285551727 0.076268807
0.432089716 0.285389751 0.082550883
0.501882315 0.285584390 0.089534998
0.576812387 0.286337614 0.096989565
0.655132651 0.287621051 0.104873940
0.733197391 0.289350629 0.113313504
0.807809472 0.291507572 0.122331508
0.876282215 0.294128299 0.131829143
0.937634528 0.297297627 0.141930893
0.991508245 0.302130103 0.156010568
0.083154380 0.345575899 0.073898256
0.096129067 0.345639646 0.073991694
0.130428880 0.345799029 0.074596003
0.172576949 0.346040785 0.075965136
0.217177376 0.346376270 0.078075133
0.264107883 0.346765190 0.081518568
0.315353513 0.347379297 0.086187623
0.370936424 0.346332669 0.090736002
0.433851153 0.345652521 0.096161880
0.503473461 0.345442981 0.102258690
0.578127503 0.345731527 0.108949259
0.656252086 0.346611083 0.116203628
0.734076619 0.347991407 0.123974375
0.808518469 0.349809378 0.132372513
0.876817942 0.352033645 0.141179144
0.938024640 0.354852468 0.150689825
0.991729498 0.359294504 0.164313376
0.097047381 0.406553715 0.092013009
0.107529193 0.406615227 0.092096634
0.137364179 0.406718045 0.092511632
0.176501125 0.406944335 0.093682386
0.219523937 0.407279402 0.095412821
0.265436858 0.407640159 0.097844072
0.315995157 0.408102632 0.101718441
0.373298168 0.408743352 0.106407441
0.436135620 0.407556832 0.110897198
0.505504131 0.406928599 0.116224766
0.579908550 0.406928927 0.122306190
0.657698810 0.407510102 0.129019812
0.735259295 0.408583045 0.136271447
0.809428275 0.410161704 0.143944830
0.877547920 0.412142336 0.152074829
0.938596845 0.414771348 0.160975456
0.992155313 0.418981016 0.174092248
0.110451005 0.467960536 0.110202000
0.118934818 0.468029022 0.110242628
0.145023376 0.468153775 0.110481128
0.181254715 0.468321681 0.111483634
0.222536013 0.468563259 0.112984002
0.267474443 0.468942016 0.114978001
0.317207873 0.469319403 0.117797375
0.373898804 0.469837606 0.122027621
0.438649058 0.470390499 0.126806006
0.507894993 0.469266564 0.131322891
0.582079887 0.468962014 0.136686265
0.659495711 0.469357014 0.142858058
0.736684501 0.470230997 0.149559006
0.810531020 0.471607029 0.156670704
0.878335953 0.473460257 0.164185897
0.939257622 0.475934595 0.172387511
0.992606521 0.479834497 0.184421510
0.123295501 0.529881418 0.128583506
0.130266443 0.529924929 0.128599629
0.153221875 0.530050337 0.128780678
0.186777890 0.530208945 0.129583746
0.226262942 0.530421913 0.130957499
0.270178258 0.530716717 0.132681310
0.319162577 0.531124592 0.134936064
0.375276387 0.531552613 0.138153121
0.439442992 0.532015026 0.142655432
0.510524333 0.532417476 0.147442997
0.584518135 0.531750143 0.152011633
0.661617935 0.531901836 0.157371625
0.738381207 0.532618403 0.163435191
0.811830044 0.533870935 0.170086190
0.879123271 0.535611212 0.177134275
0.939859509 0.537928581 0.184610575
0.993001699 0.541578293 0.194610313
0.135756746 0.593118787 0.147286996
0.141767055 0.593151927 0.147326380
0.162024260 0.593240738 0.147423133
0.193088382 0.593383551 0.148057178
0.230807379 0.593600631 0.149269372
0.273703307 0.593889654 0.150796816
0.321984649 0.594222605 0.152690619
0.377615362 0.594676197 0.155122697
0.441302776 0.595047772 0.158659130
0.511901677 0.595343888 0.163245320
0.587353349 0.595779121 0.167987376
0.664118648 0.595667541 0.172628000
0.740371883 0.596166611 0.177960128
0.813431680 0.597194195 0.183915809
0.880142212 0.598842025 0.190571383
0.940498352 0.601107836 0.197464436
0.993497968 0.604759991 0.204753503
0.148163944 0.657775939 0.166033864
0.153344870 0.657825291 0.166053578
0.171336815 0.657938123 0.166014194
0.200088516 0.657993495 0.166512683
0.236151993 0.658224881 0.167590186
0.277996778 0.658508658 0.168978065
0.325594902 0.658824623 0.170674637
0.380869150 0.659171462 0.172689185
0.444061786 0.659462988 0.175288558
0.514148355 0.659631848 0.179077253
0.589232445 0.659960687 0.183701113
0.666797459 0.660516620 0.188427061
0.742712259 0.660835147 0.193080440
0.815213263 0.661620498 0.198412433
0.881448805 0.663084149 0.204377621
0.941398859 0.665433347 0.210608184
0.994179249 0.669168711 0.214676619
0.160254508 0.723177552 0.184589505
0.164744571 0.723218679 0.184564322
0.180993512 0.723352253 0.184537634
0.207703829 0.723359764 0.184881628
0.242206752 0.723505497 0.185845003
0.282952994 0.723779440 0.187113374
0.329828888 0.724073410 0.188635260
0.384686917 0.724373817 0.190449193
0.447527528 0.724479556 0.192538008
0.517061114 0.724553585 0.195340320
0.591654420 0.724704504 0.199356124
0.668895960 0.725225091 0.204010323
0.744891763 0.725730538 0.208539754
0.817062616 0.726546288 0.213279948
0.882889152 0.728002369 0.218661755
0.942468047 0.730207503 0.223902196
0.994944751 0.734238744 0.224316761
0.172219828 0.788874388 0.203063145
0.176245257 0.788908720 0.203041390
0.190939382 0.788990736 0.203010082
0.215806454 0.789160490 0.203169838
0.248801559 0.789261699 0.203977391
0.288458377 0.789387643 0.205139503
0.334770828 0.789581776 0.206503078
0.389265478 0.789840579 0.208114266
0.451746583 0.789910018 0.210008770
0.520835340 0.789971054 0.212211207
0.595074296 0.790252090 0.215244591
0.671741664 0.790612221 0.219383463
0.747567952 0.791083753 0.223876327
0.819097936 0.791635096 0.228192389
0.884432971 0.793147802 0.232812956
0.943969488 0.795497954 0.237656519
0.995784163 0.799788058 0.235605583
0.184323385 0.855553448 0.221432388
0.187871203 0.855621099 0.221369758
0.201160893 0.855586171 0.221153140
0.224419966 0.855663478 0.221290022
0.256029367 0.855831385 0.221944883
0.294651300 0.855995953 0.222942889
0.340530545 0.856089354 0.224176377
0.394800544 0.856260180 0.225576207
0.457020521 0.856316805 0.227180272
0.525836647 0.856381655 0.229037836
0.599646747 0.856707096 0.231268644
0.675851285 0.857100964 0.234450266
0.751103759 0.857625306 0.238655150
0.822526455 0.858254254 0.243108571
0.886556327 0.858782709 0.247475028
0.945748687 0.861499727 0.252000779
0.996924996 0.866203845 0.250332385
0.195817620 0.923158944 0.238309830
0.199111059 0.923205376 0.238307074
0.211477369 0.923300982 0.238260016
0.233402207 0.923438370 0.238371328
0.263771087 0.923340917 0.238912195
0.301540256 0.923520207 0.239837199
0.347110331 0.923707128 0.240973577
0.401287109 0.923880637 0.242296129
0.463395953 0.924042463 0.243794009
0.532090425 0.924254417 0.245508134
0.605700791 0.924678802 0.247518137
0.681507230 0.925127923 0.250068069
0.756290257 0.925572157 0.253574103
0.826951802 0.926178873 0.257716626
0.890898407 0.926800370 0.261984736
0.947871983 0.927489877 0.266662359
0.997869730 0.932518601 0.265799850
0.202922001 0.993041992 0.248987004
0.206123561 0.993029833 0.249037623
0.218125001 0.992874980 0.249241382
0.239613697 0.993097544 0.249649435
0.269623995 0.993062496 0.250425488
0.307319313 0.993190825 0.251431882
0.352878392 0.993411124 0.252250016
0.407085031 0.993592799 0.253045946
0.469501019 0.993835986 0.254132986
0.538671136 0.994110703 0.255552113
0.612611771 0.994499385 0.257228762
0.688560843 0.995129406 0.259324700
0.763191044 0.995703518 0.262128264
0.833278179 0.996237695 0.265265495
0.896693826 0.997079015 0.267721772
0.953389108 0.998161376 0.270738572
0.998809993 0.999171972 0.285356998
-0.037849125 -0.037988435 0.040163253
0.052924316 -0.037333123 0.040803567
0.114175186 -0.034430504 0.041360378
0.165181026 -0.027529307 0.043065686
0.212954998 0.005098251 0.046376254
0.260936022 0.027090436 0.052450564
0.311636209 0.039436251 0.057663254
0.367378503 0.049295440 0.063658379
0.430399746 0.058358751 0.070714377
0.499929637 0.067021318 0.078514628
0.574500918 0.075506248 0.086784251
0.652937889 0.083908997 0.095564872
0.731293797 0.092285253 0.104693010
0.806265414 0.100666448 0.114208259
0.875264585 0.109099321 0.124390140
0.936667979 0.117757440 0.135017768
0.991052747 0.128610939 0.148662493
-0.035450999 0.049821559 0.041555442
0.053963061 0.050170314 0.041916374
0.114564694 0.051311560 0.043195937
0.165468082 0.053484127 0.045615874
0.213209435 0.056728058 0.049239941
0.261044174 0.062804312 0.055451002
0.311611503 0.067924380 0.060699813
0.367374212 0.073210686 0.066917121
0.430434316 0.078849748 0.074039876
0.500006139 0.084801994 0.081648499
0.574650705 0.091141313 0.089696497
0.653134704 0.097843997 0.098269559
0.731474280 0.104780249 0.107205942
0.806286037 0.111953571 0.116601706
0.875130057 0.119345069 0.126529321
0.936768830 0.127101392 0.136951193
0.991161466 0.137034371 0.150377184
-0.021538312 0.112677246 0.045160133
0.057966374 0.112882495 0.046214946
0.115922436 0.113300249 0.047400378
0.166189775 0.113214754 0.049515627
0.213566810 0.113684125 0.052939817
0.261019439 0.114778616 0.058769628
0.311522156 0.116413444 0.063775562
0.367299259 0.118571430 0.069909558
0.430371195 0.121260181 0.076768875
0.500027239 0.124456003 0.084088624
0.574830413 0.128212303 0.091914304
0.653344333 0.132515937 0.100274868
0.731630921 0.137246236 0.109024316
0.806617022 0.142418742 0.118323825
0.875397384 0.148038194 0.128137589
0.937026858 0.154130146 0.138456389
0.991089344 0.162353560 0.151885748
0.026591439 0.170539200 0.052470375
0.065185815 0.170591190 0.053970437
0.117589317 0.170834631 0.054922689
0.167435884 0.171159953 0.058006685
0.214173585 0.170520574 0.061204001
0.261242270 0.170386195 0.065139875
0.311560988 0.170668826 0.070007309
0.367308974 0.171359330 0.075686246
0.430395991 0.172527462 0.082026184
0.500254273 0.174182072 0.088907808
0.575213909 0.176387697 0.096353129
0.653788388 0.179153323 0.104318120
0.732067943 0.182367697 0.112760752
0.806949794 0.185999274 0.121842757
0.875689805 0.190096200 0.131346837
0.937107027 0.194721133 0.141441584
0.991261363 0.201373577 0.154860675
0.051938627 0.227817938 0.063942812
0.076701745 0.227870449 0.065821007
0.120704874 0.228034183 0.066546313
0.168189645 0.228274882 0.068184003
0.215387747 0.228688881 0.071120813
0.262088180 0.227744624 0.074552245
0.312118322 0.227302700 0.078927562
0.367754668 0.227317885 0.084052376
0.430957377 0.227723807 0.089788944
0.500864208 0.228557438 0.096092492
0.575863421 0.229909390 0.103034124
0.654324412 0.231770620 0.110595375
0.732527077 0.234051570 0.118723877
0.807315886 0.236741826 0.127374709
0.876001716 0.239887953 0.136450022
0.937414050 0.243571520 0.146145523
0.991346359 0.249062181 0.159523994
0.068432815 0.285964459 0.076669000
0.086755127 0.286019146 0.078559816
0.125315696 0.286153883 0.079154439
0.169982448 0.286397189 0.080464870
0.215887815 0.286677182 0.082783192
0.263585389 0.287250251 0.086262062
0.313452601 0.286281586 0.089943565
0.369033217 0.285764188 0.094450936
0.432096332 0.285663068 0.099671379
0.501935840 0.285929203 0.105445310
0.576839149 0.286687195 0.111872122
0.655173421 0.288006872 0.118939370
0.733200431 0.289761961 0.126618683
0.807847142 0.291912407 0.134771585
0.876341343 0.294527709 0.143381953
0.937672734 0.297693968 0.152659327
0.991512001 0.302513063 0.165760994
0.083218440 0.345623076 0.090880752
0.097488128 0.345669627 0.092702940
0.131189182 0.345789492 0.093145624
0.172973707 0.346071839 0.094259314
0.217386499 0.346366197 0.095983692
0.264232874 0.346806109 0.098808125
0.315373540 0.347394258 0.102673568
0.370958030 0.346431643 0.106485322
0.433872998 0.345797211 0.111229382
0.503481865 0.345673442 0.116658308
0.578144073 0.345986426 0.122608691
0.656298280 0.346877337 0.129185185
0.734115958 0.348284721 0.136287943
0.808552742 0.350077659 0.143901765
0.876875162 0.352346033 0.151965842
0.938055217 0.355177701 0.160779133
0.991751671 0.359541059 0.173533693
0.097129695 0.406579018 0.106059760
0.108826324 0.406637907 0.107841194
0.138141692 0.406709373 0.108074509
0.176941127 0.406963289 0.109086193
0.219790354 0.407306761 0.110612884
0.265627891 0.407663405 0.112757698
0.316141576 0.408148825 0.116188943
0.373270035 0.408758312 0.120382950
0.436146021 0.407670587 0.124338441
0.505526841 0.407024145 0.129175872
0.579878628 0.407080233 0.134741932
0.657737672 0.407686383 0.140866444
0.735343158 0.408818990 0.147468314
0.809460461 0.410344362 0.154528439
0.877569199 0.412373096 0.162047818
0.938646734 0.415028363 0.170333147
0.992176294 0.419182599 0.182718933
0.110518940 0.467999697 0.122217506
0.120089561 0.468061119 0.123860069
0.145827875 0.468147695 0.124050066
0.181739330 0.468359381 0.124895193
0.222819626 0.468581319 0.126258820
0.267700434 0.468954146 0.128062755
0.317360252 0.469336778 0.130630508
0.374022514 0.469860584 0.134470254
0.438634902 0.470404744 0.138850749
0.507887006 0.469345123 0.142955497
0.582082212 0.469061077 0.147854492
0.659484863 0.469477028 0.153540254
0.736747265 0.470403433 0.159710884
0.810543537 0.471730411 0.166314125
0.878337622 0.473598272 0.173347756
0.939296067 0.476108730 0.181040213
0.992623508 0.479996443 0.192485318
0.123337194 0.529917896 0.139074743
0.131300002 0.529956996 0.140554994
0.154005185 0.530053496 0.140757069
0.187308505 0.530235231 0.141420633
0.226615116 0.530446947 0.142649129
0.270429581 0.530720115 0.144229010
0.319342256 0.531123221 0.146276742
0.375403464 0.531553566 0.149215996
0.439564973 0.532023132 0.153340891
0.510545611 0.532425582 0.157735988
0.584505796 0.531790316 0.161978245
0.661649287 0.532002449 0.166964754
0.738427937 0.532744646 0.172651693
0.811801791 0.533968687 0.178878427
0.879123092 0.535710573 0.185528383
0.939888060 0.538077950 0.192619950
0.993019581 0.541706145 0.202168807
0.135824069 0.593128264 0.156385243
0.142721251 0.593140125 0.157738239
0.162765935 0.593251646 0.157829881
0.193632394 0.593407631 0.158353806
0.231198490 0.593620539 0.159445003
0.273996234 0.593898952 0.160883635
0.322184086 0.594236851 0.162634194
0.377775669 0.594686329 0.164907187
0.441422701 0.595044136 0.168195739
0.512024462 0.595356166 0.172491312
0.587366700 0.595794141 0.176903382
0.664118886 0.595709622 0.181282133
0.740416527 0.596208513 0.186308995
0.813458323 0.597299874 0.191963136
0.880119562 0.598943889 0.198284253
0.940529943 0.601225019 0.204835698
0.993518293 0.604861438 0.211685747
0.148239881 0.657782197 0.173981056
0.154176146 0.657797217 0.175174817
0.172052562 0.657941520 0.175175697
0.200623393 0.658028841 0.175549239
0.236534566 0.658256948 0.176531687
0.278274059 0.658519328 0.177846506
0.325816154 0.658781230 0.179433376
0.381048143 0.659193993 0.181343138
0.444211453 0.659460366 0.183794633
0.514256477 0.659628808 0.187387377
0.589300811 0.659972906 0.191783011
0.666779637 0.660504103 0.196249247
0.742700219 0.660852194 0.200667739
0.815221727 0.661642373 0.205702737
0.881448328 0.663140297 0.211347058
0.941386163 0.665476620 0.217312634
0.994158328 0.669201910 0.220963195
0.160300821 0.723184884 0.191588804
0.165489316 0.723228455 0.192654565
0.181675240 0.723352373 0.192693993
0.208201960 0.723379612 0.192915693
0.242578387 0.723535955 0.193801567
0.283237904 0.723807752 0.195006445
0.330080956 0.724030256 0.196446195
0.384934396 0.724332035 0.198186129
0.447754771 0.724494338 0.200153068
0.517201066 0.724522471 0.202761427
0.591772914 0.724721313 0.206577748
0.668886065 0.725232601 0.211022511
0.744845212 0.725678861 0.215344071
0.817074060 0.726582289 0.219849557
0.882881939 0.727927506 0.224822938
0.942425251 0.730268300 0.229860678
0.994884610 0.734268665 0.230268687
0.172271580 0.788870573 0.209268808
0.176932454 0.788893461 0.210236907
0.191548020 0.788988590 0.210185453
0.216263533 0.789169371 0.210283071
0.249142826 0.789261341 0.211033776
0.288751215 0.789409578 0.212147027
0.335032076 0.789611816 0.213441759
0.389522314 0.789869964 0.215017080
0.451996386 0.789928019 0.216810063
0.521022499 0.789954305 0.218816832
0.595170259 0.790194154 0.221576825
0.671864212 0.790621459 0.225481883
0.747572124 0.791085541 0.229785070
0.819106996 0.791642606 0.233935893
0.884445965 0.793194652 0.238444805
0.943983853 0.795531332 0.243171141
0.995805621 0.799839973 0.241253063
0.184340134 0.855569065 0.226678565
0.188458264 0.855591416 0.227411270
0.201720700 0.855590582 0.227267519
0.224908143 0.855677307 0.227341637
0.256386191 0.855811596 0.227933019
0.294958353 0.856002688 0.228910133
0.340821713 0.856112719 0.230084270
0.395073920 0.856264412 0.231469005
0.457266152 0.856330395 0.233067706
0.526021183 0.856400132 0.234851465
0.599784970 0.856687367 0.236977756
0.675984442 0.857108831 0.240022436
0.751209199 0.857641459 0.244133443
0.822579145 0.858256340 0.248383075
0.886562407 0.858790815 0.252607375
0.945758581 0.861509442 0.257026583
0.996934056 0.866103888 0.255432010
0.195892066 0.923177838 0.243121579
0.199628443 0.923231661 0.243839383
0.212032124 0.923315227 0.243839145
0.233837500 0.923477411 0.243859082
0.264106393 0.923393428 0.244342253
0.301835537 0.923573256 0.245255381
0.347394586 0.923738360 0.246361077
0.401493758 0.923787951 0.247633651
0.463528097 0.923914015 0.249110714
0.532214761 0.924215972 0.250790715
0.605835915 0.924612582 0.252738863
0.681662142 0.924960673 0.255222380
0.756439269 0.925563574 0.258574992
0.827024579 0.926192164 0.262436002
0.890921414 0.926813900 0.266349316
0.947846830 0.927503228 0.270903766
0.997876167 0.932588816 0.270107776
0.202962324 0.993050456 0.253608882
0.206586689 0.993043900 0.254243582
0.218519881 0.992891669 0.254408836
0.239968762 0.993116915 0.254766196
0.269921184 0.993085206 0.255446374
0.307589650 0.993213594 0.256336451
0.353099942 0.993431747 0.257030308
0.407299340 0.993613064 0.257708699
0.469721586 0.993878126 0.258723885
0.538866282 0.994154572 0.260100543
0.612739801 0.994525313 0.261739820
0.688647389 0.995156288 0.263787478
0.763294458 0.995725870 0.266514689
0.833301067 0.996254921 0.269591868
0.896662295 0.997099638 0.271992862
0.953316808 0.998193979 0.274968624
0.998814702 0.999201953 0.289194167
-0.036965623 -0.037021499 0.115411878
0.052624814 -0.036360934 0.116130054
0.114310630 -0.033406124 0.116641752
0.165206641 -0.025929932 0.116071373
0.212992266 0.007183878 0.116606370
0.260909975 0.028329313 0.118016869
0.311554909 0.040235128 0.119978502
0.367363542 0.049913377 0.122640312
0.430410892 0.058829628 0.126083747
0.499963641 0.067396499 0.130337551
0.574561000 0.075798631 0.135385871
0.653029144 0.084119186 0.141212940
0.731438041 0.092460498 0.147680625
0.806318402 0.100838013 0.154714689
0.875262737 0.109280631 0.162320882
0.936782002 0.117888197 0.170567945
0.991092384 0.128728509 0.181608498
-0.034428373 0.049538121 0.116429560
0.054368816 0.050570246 0.116626002
0.114762247 0.051705059 0.117219932
0.165550143 0.053893629 0.117169186
0.213257685 0.057176560 0.117994435
0.261001736 0.063255802 0.119532749
0.311588943 0.068331622 0.121639699
0.367367566 0.073582433 0.124451756
0.430450320 0.079172373 0.127993256
0.500005186 0.085082240 0.132259995
0.574657679 0.091365814 0.137295008
0.653209984 0.098007068 0.143079251
0.731572390 0.104923628 0.149470434
0.806403041 0.112101004 0.156422079
0.875271440 0.119494013 0.163919955
0.936822414 0.127201885 0.172053009
0.991104841 0.137149319 0.182926819
-0.019134501 0.112833247 0.118422002
0.058369931 0.113026246 0.118619308
0.116050377 0.113486998 0.119214751
0.166283265 0.114331000 0.120364502
0.213639125 0.115591124 0.121966630
0.261073381 0.117211498 0.124077752
0.311538517 0.119255617 0.126753509
0.367323518 0.121730991 0.129973382
0.430403501 0.124638364 0.133821502
0.500052035 0.127949193 0.138252944
0.574901342 0.131730005 0.143295512
0.653483212 0.135988683 0.148978814
0.731730819 0.140616506 0.155194134
0.806595087 0.145650253 0.161839426
0.875444174 0.151048884 0.168941632
0.937173367 0.156889692 0.176718518
0.991120875 0.164746627 0.187172875
0.027558941 0.170609459 0.120381378
0.065548941 0.170696333 0.120984122
0.118622378 0.170965627 0.122817002
0.167507768 0.171332061 0.123810932
0.214258388 0.171278700 0.125206068
0.261377245 0.171597332 0.127272189
0.311681509 0.172190070 0.129855186
0.367380232 0.173150957 0.133010373
0.430539310 0.174544945 0.136827379
0.500376940 0.176379383 0.141215310
0.575292408 0.178697452 0.146198124
0.653925240 0.181495935 0.151769742
0.732256174 0.184684247 0.157806814
0.807017446 0.188287318 0.164289176
0.875625968 0.192278072 0.171298623
0.937237501 0.196752205 0.178960204
0.991280615 0.203228638 0.189491317
0.052422125 0.227912515 0.124550752
0.076963499 0.227945015 0.125441551
0.122321494 0.228103891 0.128044993
0.168754131 0.228362814 0.129002929
0.215472132 0.228752136 0.130421370
0.262167066 0.228297323 0.132281184
0.312209308 0.228209615 0.134869620
0.367845982 0.228455186 0.138036996
0.431054533 0.229045019 0.141747117
0.500993371 0.230047315 0.145973817
0.575980246 0.231493011 0.150784001
0.654432595 0.233409002 0.156158313
0.732621908 0.235721737 0.161985755
0.807384908 0.238398507 0.168301255
0.876093507 0.241487741 0.175116494
