assets/photofx/luts/cinema-style/Cinema Style 10.cube
TITLE "17x17x17 Adobe/IRIDAS cube 3D LUT exported with GrossGrade v0.2.01 (beta) 64 bit"
DOMAIN_MIN 0 0 0
DOMAIN_MAX 1 1 1
LUT_3D_SIZE 5
0.002689000 0.000000000 0.000000000
0.192284748 0.063391998 0.060638748
0.373565495 0.113609001 0.118591502
0.582860470 0.169962004 0.180921763
0.871849000 0.271427006 0.275593013
0.017281499 0.188179493 0.076171257
0.179690510 0.209584996 0.107096493
0.394469023 0.220343500 0.163968503
0.612787545 0.265363008 0.219210997
0.901603520 0.365851998 0.311951250
0.017216999 0.365443528 0.153652504
0.061864253 0.379930496 0.173361748
0.403182507 0.424541473 0.244145006
0.670085073 0.470320225 0.306551278
0.940867484 0.557616472 0.390248477
0.026504751 0.549320757 0.232597768
0.043937005 0.555660009 0.240632251
0.403896004 0.619607270 0.351939797
0.689679503 0.671344519 0.396910042
0.947008491 0.752004266 0.466803014
0.046530999 0.777724028 0.376758009
0.066719502 0.783783734 0.385265768
0.385856539 0.819844484 0.468015492
0.743739247 0.858059764 0.496970743
0.953544021 0.890825987 0.544589996
0.015070000 0.038444251 0.166734248
0.180163756 0.068006255 0.227656260
0.388898760 0.119713247 0.209285006
0.597148538 0.180583760 0.252857774
0.879831791 0.283651233 0.346671999
0.011681000 0.197590247 0.226931766
0.185538515 0.215556517 0.253333002
0.405356020 0.249880999 0.266469777
0.628248513 0.305385023 0.318244517
0.911432028 0.387547016 0.390573502
0.017987752 0.377200037 0.239566743
0.055606000 0.392700046 0.261177003
0.418647498 0.439369798 0.337222725
0.679141283 0.487136245 0.388427973
0.943611026 0.562655509 0.447645485
0.027036501 0.560383260 0.301728010
0.044298004 0.569064021 0.318329483
0.407317013 0.629766762 0.417410254
0.693965495 0.677774787 0.454601765
0.947720051 0.754706562 0.518405497
0.047032751 0.785547733 0.425056249
0.067821756 0.793378234 0.441224009
0.382671505 0.822699487 0.511056006
0.743775547 0.861491024 0.538231015
0.953395724 0.892351270 0.584075034
0.015728001 0.058803000 0.331832021
0.070826001 0.081092000 0.398618281
0.400990039 0.134407505 0.410224020
0.646715760 0.201058269 0.403474271
0.909350991 0.306104511 0.488533020
0.012407250 0.177172005 0.394566238
0.057084750 0.198999494 0.426071763
0.419368267 0.266241491 0.429205507
0.672459781 0.323131531 0.447776765
0.926120758 0.401443988 0.522001505
0.019846499 0.401160032 0.415715516
0.048054501 0.418165743 0.433207989
0.442136526 0.453591526 0.471188515
0.701048553 0.499478042 0.507820487
0.943801999 0.561593533 0.559720039
0.029967502 0.588910818 0.454263031
0.046124004 0.600269556 0.466883004
0.404623032 0.648739278 0.529010773
0.708509207 0.695021749 0.570164263
0.947460234 0.758222997 0.623345256
0.049362000 0.812021494 0.556724548
0.063245744 0.816941500 0.565946698
0.321145564 0.833796442 0.606536031
0.734429777 0.870792508 0.642090559
0.953837037 0.895553470 0.673184514
0.015599001 0.066475496 0.493602246
0.059220001 0.085445002 0.534647524
0.377380252 0.161126256 0.584601521
0.692379296 0.235997751 0.592609048
0.933494747 0.330019236 0.640007973
0.017931752 0.181585759 0.552567244
0.063228749 0.215738758 0.580426574
0.413539767 0.299094498 0.603895724
0.710658252 0.357847482 0.620220780
0.943561494 0.420147002 0.661149740
0.023954501 0.404137731 0.587501764
0.075290747 0.433344990 0.615351021
0.424907774 0.475192517 0.642805696
0.722893000 0.513292551 0.647921324
0.955273032 0.570477247 0.689941287
0.034700003 0.629782498 0.615364015
0.052713003 0.643059015 0.626854241
0.390280545 0.675444722 0.661971033
0.723652542 0.704781711 0.687696993
0.953202009 0.750413537 0.726302743
0.051923499 0.831944764 0.687850773
0.064234003 0.836165011 0.693776488
0.331818283 0.851409972 0.720044732
0.725400984 0.875755787 0.745765448
0.955518961 0.898871481 0.767749727
0.022764999 0.072901003 0.694285989
0.072898999 0.100643501 0.709073484
0.426527023 0.192492515 0.741206527
0.721195817 0.274206996 0.762176275
0.944308996 0.363200992 0.782957017
0.027350001 0.221189260 0.736793995
0.142655760 0.265797257 0.754043519
0.471322536 0.325037509 0.757892251
0.740492284 0.385379255 0.775550008
0.951974213 0.446030736 0.796390235
0.032373000 0.454025030 0.767479539
0.120834246 0.485202014 0.783427000
0.474621534 0.511799514 0.794688582
0.747763276 0.535673499 0.793183565
0.957876444 0.588711500 0.812316537
0.045117751 0.687737525 0.782986760
0.085098997 0.700237989 0.790913224
0.457929015 0.721760511 0.811143994
0.731992483 0.716462255 0.820194185
0.956624985 0.751859486 0.826772034
0.063354000 0.862487018 0.813337028
0.094916999 0.865699470 0.815881014
0.458449036 0.874022484 0.822242975
0.747831762 0.881779492 0.836180747
0.957403004 0.898772001 0.850112975
