assets/photofx/luts/cinema-style/Cinema Style 02.cube
TITLE "17x17x17 Adobe/IRIDAS cube 3D LUT exported with GrossGrade v0.2.01 (beta) 64 bit"
DOMAIN_MIN 0 0 0
DOMAIN_MAX 1 1 1
LUT_3D_SIZE 17
0.024421999 0.030507000 0.018315000
0.026219187 0.041956689 0.027912188
0.042954374 0.055981498 0.040514126
0.089833513 0.066456817 0.049052060
0.153776258 0.073375002 0.054059248
0.215352803 0.084318064 0.063807748
0.274975657 0.099044003 0.077514634
0.338095278 0.114468880 0.092281200
0.402944505 0.130657002 0.107827008
0.466771752 0.148823947 0.124827936
0.530807495 0.168378130 0.142837122
0.594914675 0.188463122 0.161307752
0.655049026 0.210103005 0.181126505
0.709196806 0.234256968 0.202993900
0.758741319 0.259597778 0.225954533
0.811201334 0.284202397 0.248339459
0.885755002 0.294303000 0.255726010
0.025704499 0.059519812 0.034231879
0.035103872 0.068591997 0.036591567
0.062426563 0.073741689 0.043438628
0.108124949 0.078525253 0.048759937
0.163359940 0.085260808 0.055402499
0.219605550 0.095588252 0.066010125
0.278268129 0.108430572 0.079305880
0.339080423 0.123094261 0.094085887
0.401748657 0.139020130 0.109763689
0.465837508 0.156048238 0.126347691
0.530399859 0.174310058 0.143786624
0.593759060 0.193999067 0.162226811
0.653544784 0.215544060 0.182406932
0.708198547 0.239054158 0.204022899
0.758442104 0.263460964 0.226341516
0.810615122 0.288303256 0.249228060
0.885860920 0.298000515 0.256061614
0.028156877 0.101056501 0.044361502
0.036411751 0.104323931 0.042673439
0.076472878 0.121107496 0.045853000
0.130018204 0.120880187 0.054020565
0.185150132 0.120173737 0.061726879
0.240706548 0.124165192 0.071492314
0.296307772 0.133192390 0.084189512
0.352840692 0.145415008 0.098323762
0.411195278 0.159755260 0.113413386
0.472090483 0.175291121 0.129318178
0.534458101 0.192032754 0.146411747
0.596056402 0.210437059 0.164736435
0.654600799 0.230684265 0.184216380
0.708488047 0.252981484 0.205126643
0.758178830 0.276898384 0.227683261
0.809737563 0.301441789 0.250621855
0.885368347 0.310517102 0.256098896
0.031510185 0.143650264 0.054653816
0.038107872 0.144572571 0.050976876
0.070587069 0.157744318 0.055804312
0.137284011 0.181199268 0.063142315
0.203969315 0.180066213 0.074394755
0.266002059 0.175701573 0.083799638
0.325325251 0.174681768 0.093765818
0.383297652 0.179296508 0.105754569
0.440049320 0.188790768 0.119452313
0.495494425 0.202271700 0.134662941
0.550756693 0.218587577 0.151274130
0.606474698 0.236844763 0.169265687
0.661312401 0.256245464 0.188306123
0.713242054 0.276783496 0.208643332
0.761802495 0.299224049 0.230889350
0.812172472 0.322794080 0.253227770
0.884239972 0.332879871 0.256125361
0.037746251 0.188043505 0.068523750
0.043336563 0.189128563 0.064808816
0.067934878 0.188976631 0.064352751
0.127600193 0.221296698 0.078385502
0.208048001 0.245388761 0.085841998
0.282966256 0.245582059 0.099345930
0.349808633 0.239531130 0.109560005
0.412961274 0.234232694 0.119085625
0.472303510 0.234149754 0.130016506
0.529195666 0.239908680 0.143226117
0.583392024 0.250872999 0.158579499
0.634701848 0.266165018 0.175679937
0.682373047 0.284999758 0.194283247
0.726941824 0.306188345 0.214394331
0.770965159 0.329046905 0.236330405
0.818176448 0.352788508 0.257957369
0.882744968 0.363688767 0.255924761
0.047187813 0.235465378 0.086135559
0.052441813 0.236773998 0.082861498
0.073338620 0.232476681 0.078793190
0.119998686 0.250705630 0.088055439
0.197071999 0.288992882 0.103678122
0.285036743 0.312077940 0.110161625
0.365429908 0.314135760 0.125368193
0.434175551 0.307989627 0.136867449
0.499059260 0.301098317 0.147151306
0.558813214 0.297397137 0.157718807
0.614119470 0.299233824 0.170272678
0.664937913 0.306961328 0.185208321
0.710908234 0.320069194 0.202510759
0.752774239 0.337729722 0.222005218
0.793914318 0.359147757 0.243435770
0.837423861 0.382984519 0.264596373
0.899974763 0.394554496 0.260047019
0.059425630 0.285949767 0.105104007
0.064010635 0.287061632 0.101469316
0.083316758 0.283463418 0.096819252
0.120066449 0.285012722 0.099390879
0.187312245 0.321674764 0.116578251
0.273913026 0.358202338 0.130033508
0.365745544 0.380052030 0.136039138
0.448387444 0.383759469 0.152466953
0.516861022 0.378429264 0.165346265
0.581086993 0.372100353 0.176957697
0.639309108 0.366499126 0.188014388
0.690208197 0.365620077 0.200497061
0.735693991 0.370591015 0.215339527
0.778370202 0.380897552 0.232844144
0.820896804 0.396668136 0.252830535
0.865535676 0.416252732 0.273028225
0.935574710 0.423954487 0.266928881
0.075061068 0.339227349 0.125536829
0.079260878 0.340737462 0.122829705
0.096187077 0.338405162 0.116380326
0.128880829 0.332866848 0.116341829
0.183392510 0.353171974 0.127386317
0.264659852 0.395199269 0.146695629
0.354923218 0.427363336 0.156828016
0.447553098 0.447962463 0.162932262
0.529358745 0.453032911 0.180496708
0.595448136 0.449040532 0.194874391
0.655703723 0.444869459 0.208387211
0.709071517 0.439600974 0.220880270
0.755953252 0.437254637 0.233905092
0.800408959 0.439747393 0.248863772
0.844594955 0.448263437 0.266611665
0.891679764 0.459816933 0.284321606
0.969420552 0.453107953 0.269984752
0.094110005 0.395971537 0.148405507
0.097592436 0.397162378 0.145411640
0.112554759 0.395924270 0.138394386
0.143331140 0.389568567 0.137244374
0.188618004 0.393566281 0.141756013
0.259767383 0.429060578 0.159897685
0.348717928 0.468778491 0.177931130
0.438218445 0.495929658 0.184824139
0.528308511 0.514788032 0.191043511
0.606269836 0.521051943 0.209774747
0.667535901 0.519014597 0.225914240
0.721063614 0.517292738 0.241373330
0.769654512 0.513746738 0.255619526
0.817657590 0.511215031 0.269840539
0.864336133 0.512973905 0.285644114
0.912556648 0.518906474 0.301462889
0.986496508 0.508042514 0.280763507
0.115989566 0.455363870 0.172948495
0.118982434 0.456298828 0.169938877
0.131977439 0.456120759 0.162282139
0.161739320 0.450700015 0.160985559
0.202893510 0.446675122 0.162173450
0.263063550 0.466735303 0.174167186
0.345043659 0.506030142 0.194880933
0.436398238 0.540861905 0.210534945
0.521528006 0.562874258 0.214265376
0.605664968 0.579566956 0.220734999
0.676434636 0.586754739 0.240612999
0.731377125 0.586784482 0.258515298
0.779759109 0.586530924 0.275465518
0.828561306 0.586087823 0.292211354
0.878282130 0.585042357 0.308266699
0.928554595 0.586976528 0.322951078
0.991133034 0.587253511 0.303195924
0.141616136 0.517097473 0.200527504
0.144218624 0.518070459 0.197728500
0.154841498 0.518752098 0.188331127
0.183823630 0.514403462 0.187132433
0.224004507 0.508839250 0.187741995
0.276561439 0.514928162 0.193651244
0.349130750 0.545270085 0.211714134
0.435485989 0.580540776 0.231504396
0.524006605 0.609163225 0.244195506
0.601882935 0.626535892 0.245042875
0.676694870 0.640929461 0.252144247
0.738722682 0.648499787 0.273033321
0.789460123 0.650036573 0.292473763
0.838174582 0.651327014 0.311296403
0.887763381 0.653756618 0.330412805
0.938981891 0.655046463 0.345820129
0.993295252 0.661737144 0.325684488
0.171344876 0.580726266 0.231526569
0.173376426 0.581317782 0.228115931
0.182717368 0.582167566 0.218305185
0.209883943 0.579124153 0.215783864
0.250124812 0.574158788 0.216874301
0.299051762 0.572526932 0.219336241
0.362836450 0.589779139 0.231769070
0.442042023 0.621197701 0.252215952
0.527375460 0.650038362 0.269860327
0.607989848 0.671812356 0.279108435
0.675868928 0.685396671 0.277599573
0.740198612 0.697552919 0.285533935
0.796516836 0.705012381 0.307101637
0.847856283 0.708023608 0.328170985
0.897334218 0.710554779 0.348789722
0.947111249 0.715084434 0.367044717
0.995418370 0.722221792 0.343208253
0.204709262 0.643014789 0.263988256
0.206804335 0.643739343 0.261487782
0.215128765 0.644876778 0.252086401
0.241004080 0.643136203 0.248805940
0.280755013 0.639435947 0.249456257
0.329149574 0.636082530 0.251209557
0.387059748 0.642507911 0.258288503
0.457892984 0.664498448 0.275525510
0.536994755 0.690329492 0.294993281
0.616009295 0.712867677 0.309944123
0.684540391 0.728886008 0.315544009
0.741827428 0.739724874 0.311972380
0.799401820 0.750165462 0.320785254
0.854764760 0.757600427 0.343027681
0.906658530 0.761898756 0.365858287
0.956039011 0.766474247 0.387281060
0.997125268 0.774284005 0.367364258
0.244741678 0.703853726 0.303335547
0.246166855 0.704302907 0.300046772
0.251108497 0.705696464 0.287129104
0.276174426 0.704442143 0.283614397
0.316275418 0.701716840 0.285286158
0.364966363 0.698965251 0.287473470
0.420156568 0.699242830 0.291163832
0.484105527 0.711452663 0.303536594
0.555691600 0.732510626 0.322575957
0.628489912 0.752814233 0.339767516
0.695960641 0.770882130 0.351660103
0.752605021 0.783695936 0.354024053
0.803626359 0.792990923 0.348551452
0.859387577 0.802287519 0.358182371
0.913806260 0.810085475 0.381082863
0.964179516 0.815972388 0.407627821
0.997825980 0.823533714 0.419453889
0.287767321 0.762156188 0.342434436
0.289490134 0.762626410 0.340164781
0.296681195 0.763767838 0.331849635
0.318221271 0.763681412 0.325269490
0.356899709 0.762102902 0.325821161
0.406105369 0.760050654 0.328575373
0.460927069 0.758747041 0.331491798
0.520328879 0.764328122 0.339414686
0.584127545 0.779305696 0.354942679
0.649328291 0.797295690 0.372307837
0.710915804 0.814095795 0.386558414
0.766579390 0.828612745 0.394975632
0.817389250 0.839053929 0.394499213
0.866629541 0.847032249 0.387398928
0.919808686 0.855082333 0.405051351
0.970142961 0.863105476 0.436982453
0.998547137 0.870524943 0.498209298
0.339169592 0.824288547 0.391502142
0.339893967 0.824662745 0.388062537
0.341964841 0.825962186 0.374058247
0.363547027 0.826079011 0.367848963
0.402443200 0.825113416 0.369150788
0.451901436 0.823783517 0.372696728
0.507234335 0.822642982 0.376277089
0.564541459 0.824261963 0.381432891
0.622138381 0.833523989 0.392975211
0.678850710 0.848267257 0.409448922
0.733572066 0.862668812 0.427058876
0.785910726 0.875778258 0.442273855
0.836978972 0.886591971 0.453397661
0.884972036 0.894923389 0.456632465
0.930502892 0.901701510 0.457478493
0.974327445 0.907592714 0.520747483
0.998739004 0.914606154 0.657845497
0.366567999 0.893685997 0.424398988
0.367931128 0.893943846 0.422062755
0.373471498 0.894744992 0.412870884
0.389524192 0.895392418 0.400622636
0.428928256 0.895319521 0.399593234
0.483904898 0.894519091 0.404671043
0.547744274 0.892674387 0.409879506
0.609447479 0.892589211 0.415086567
0.663830519 0.898849964 0.424825490
0.713682294 0.910018623 0.441052556
0.765482366 0.920705020 0.474646002
0.822280467 0.928804696 0.534852564
0.878709257 0.934512258 0.613130748
0.928280354 0.938013673 0.710243285
0.964416146 0.941943586 0.801019311
0.984407425 0.947546124 0.877792180
1.000028968 0.951822996 0.920033991
0.024194188 0.035779499 0.024276562
0.027219500 0.044606999 0.036021564
0.046576191 0.057046313 0.049471375
0.095408946 0.065410443 0.059039999
0.159738183 0.071532249 0.064175434
0.221964240 0.081824377 0.071773686
0.283625960 0.095054314 0.082481191
0.345858932 0.110505134 0.096275881
0.408353627 0.127660125 0.111926071
0.471508890 0.145868629 0.128188059
0.535695255 0.164691672 0.145067990
0.598698437 0.184901565 0.163271189
0.657193661 0.207657814 0.183341563
0.711070716 0.231787413 0.204915389
0.761054039 0.256379217 0.227102146
0.812570632 0.282132447 0.249885067
0.887827814 0.291774571 0.256689757
0.025820751 0.064333871 0.049504690
0.036470748 0.071806684 0.057019688
0.065117314 0.076868869 0.060008001
0.111700013 0.082400195 0.064056754
0.166505992 0.089711502 0.070146188
0.223469928 0.099891245 0.079558000
0.282665640 0.112341814 0.091358379
0.344932109 0.125915200 0.104056567
0.408765823 0.140613928 0.117786132
0.472523093 0.157010749 0.133164808
0.535392463 0.175376937 0.150279373
0.596599042 0.195344374 0.168600872
0.655565917 0.216242611 0.187636271
0.711023510 0.238328353 0.207797259
0.760361910 0.263009757 0.230164021
0.811292410 0.289046854 0.253391832
0.889458179 0.295531124 0.257552266
0.027883749 0.105059437 0.061720312
0.038108502 0.114271745 0.065136813
0.079594128 0.124916315 0.069009379
0.129095137 0.123806059 0.072821751
0.181761429 0.125193179 0.078784563
0.237652689 0.130474746 0.087358251
0.295559019 0.138562009 0.098051377
0.354489982 0.149446502 0.110170007
0.414902091 0.162656814 0.123702571
0.477007657 0.177294865 0.138620332
0.539683640 0.193313748 0.154835626
0.600529909 0.211624622 0.172226131
0.657682419 0.232281953 0.190927804
0.710894585 0.254173577 0.211223066
0.759946465 0.277672559 0.233043030
0.810875356 0.302045375 0.255036891
0.889132738 0.308623493 0.257990241
0.031578936 0.146585315 0.070166945
0.041323185 0.156835943 0.075399123
0.071175739 0.161979645 0.071550630
0.139634386 0.183522210 0.082668312
0.200545445 0.180169255 0.089834131
0.259461045 0.177710444 0.097318627
0.318575919 0.179445758 0.106643818
0.378232211 0.184928015 0.117804758
0.437452257 0.193759531 0.130396619
0.496031880 0.205712885 0.144392684
0.552980304 0.220962271 0.159760743
0.609013259 0.238628820 0.176730752
0.664299846 0.257423252 0.195268929
0.716083348 0.277593911 0.215157583
0.763980746 0.299948335 0.236605838
0.814168036 0.323458463 0.258021116
0.888198972 0.331326395 0.257983625
0.038171124 0.190013945 0.083925754
0.047057875 0.199015439 0.086735070
0.070772931 0.200615630 0.080145627
0.126399815 0.220996007 0.089858882
0.210183248 0.247308552 0.101564251
0.280344576 0.244733185 0.111830190
0.344206363 0.239242628 0.120089874
0.405959457 0.236758694 0.129212305
0.465499580 0.238576636 0.139804810
0.523852825 0.244880185 0.152350068
0.580691457 0.255170703 0.166997492
0.633841217 0.269531399 0.183388636
0.682932854 0.287318438 0.201389700
0.728168368 0.307921410 0.220875069
0.772067428 0.330569714 0.241987273
0.819900990 0.353602201 0.262887567
0.886704385 0.362301975 0.257775754
0.047743876 0.237483069 0.099361748
0.055930313 0.243884191 0.100977555
0.076090433 0.245175377 0.092876941
0.120260201 0.253106564 0.097606003
0.195597753 0.288074702 0.113247558
0.286412239 0.313218057 0.122950874
0.363933265 0.313241750 0.135935068
0.430607200 0.306653529 0.145443499
0.494168222 0.301601231 0.155116618
0.553284526 0.300000936 0.165568307
0.609056711 0.303235114 0.178009063
0.661429524 0.311255515 0.192803755
0.708860219 0.323910385 0.209649444
0.751902342 0.340701342 0.228395209
0.793722987 0.361385524 0.249057159
0.837884605 0.384558380 0.269658059
0.901452243 0.394300014 0.261275679
0.060072817 0.287317574 0.116253071
0.068463124 0.293688238 0.118795268
0.085772246 0.294906080 0.108558193
0.122364193 0.292403281 0.109088570
0.186230510 0.320655227 0.123110563
0.272811145 0.357610703 0.138226137
0.366692990 0.380813271 0.146520391
0.447924465 0.383405447 0.161729619
0.514758646 0.377173841 0.172908202
0.577952385 0.371619284 0.183856949
0.635497630 0.367705464 0.194763869
0.686504185 0.368232876 0.207123637
0.732483685 0.374056220 0.221748322
0.775682271 0.384535223 0.238853782
0.819002986 0.399889022 0.258529007
0.864717245 0.418826580 0.278327107
0.936278522 0.424531996 0.268153578
0.076072067 0.340834051 0.135452211
0.083454877 0.345819294 0.137288585
0.098985262 0.347377539 0.127820253
0.131500527 0.341763526 0.125659004
0.183764696 0.354556292 0.133593142
0.263370186 0.393965900 0.152413368
0.354442209 0.427279532 0.164433822
0.448372275 0.448638588 0.172052070
0.529638529 0.453207642 0.188868761
0.594472826 0.448074400 0.201681271
0.654282629 0.444009990 0.214354962
0.707244396 0.439781845 0.226489961
0.753626287 0.438656002 0.239446267
0.797608078 0.442296863 0.254375339
0.841857553 0.451263964 0.272038072
0.889701784 0.462686181 0.289301217
0.970215559 0.453357726 0.271046758
0.094931506 0.397052288 0.156831130
0.101416193 0.400661558 0.157838762
0.115231380 0.402826220 0.149194121
0.145610213 0.397660255 0.146033198
0.190266818 0.398138463 0.148733065
0.259257197 0.428401172 0.164693564
0.347441465 0.467719376 0.183165506
0.437716693 0.495810896 0.191512197
0.528990567 0.515423775 0.198943943
0.606753290 0.521398962 0.217197433
0.667230606 0.518327653 0.232042894
0.720687866 0.516487241 0.246727705
0.768830836 0.513382256 0.260598063
0.816100478 0.511916518 0.274801463
0.862367332 0.514527798 0.290512234
0.910639822 0.520892143 0.305849016
0.987336755 0.507412016 0.281304866
0.116819374 0.455995381 0.180458874
0.123304501 0.459545135 0.182318315
0.133643880 0.461896271 0.170614690
0.163526937 0.457283795 0.168611810
0.204785630 0.452191055 0.169009447
0.263442189 0.467678249 0.178958118
0.344314426 0.505144477 0.199054703
0.435153037 0.539899051 0.215209737
0.521033645 0.562693536 0.220191374
0.606243789 0.580130935 0.227726325
0.676915526 0.587068260 0.247254446
0.731330156 0.586489022 0.264201492
0.779512703 0.586016119 0.280502319
0.828137338 0.585626721 0.296649069
0.877472758 0.585263312 0.312581331
0.927500486 0.587688386 0.326988846
0.991861641 0.586430013 0.303494036
0.142455548 0.517726719 0.207336739
0.148212194 0.520610511 0.208670437
0.157249063 0.522928357 0.197004810
0.184863374 0.519624472 0.193445310
0.225556254 0.513753414 0.194029987
0.277481467 0.517164886 0.198677570
0.348885268 0.544690907 0.215439826
0.434770286 0.579779744 0.235393330
0.523082316 0.608528435 0.248606429
0.601506591 0.626395524 0.250488937
0.677070856 0.641311646 0.258425683
0.739189744 0.648795605 0.279046208
0.789542139 0.649943709 0.297714204
0.838021994 0.650990844 0.315813839
0.887665570 0.653374732 0.334475279
0.938618600 0.654966176 0.349631160
0.993754387 0.661315024 0.326059878
0.171866119 0.580899656 0.237418741
0.176757693 0.582649410 0.237522498
0.186033204 0.584635794 0.228183180
0.211123943 0.583026111 0.222412571
0.251290679 0.578412592 0.222785994
0.300233960 0.575734973 0.224640980
0.363224894 0.590433180 0.235712186
0.441794485 0.620690525 0.255622983
0.526677907 0.649444699 0.273417443
0.607328832 0.671428323 0.283196509
0.675427377 0.685173869 0.282422245
0.740352690 0.697769821 0.290999889
0.796917439 0.705319822 0.312548339
0.848026395 0.707921743 0.333039761
0.897332788 0.710352600 0.353076279
0.947185755 0.714879632 0.370813340
0.995633364 0.722130239 0.344461352
0.205611765 0.643413842 0.269918472
0.210565701 0.645001650 0.271000087
0.217562258 0.646848559 0.259971559
0.241576344 0.645903051 0.254056245
0.281527907 0.642486036 0.254515439
0.330071241 0.638722062 0.256029308
0.387549013 0.643550813 0.262123853
0.457897186 0.664202809 0.278566033
0.536757946 0.690003633 0.298115283
0.615448773 0.712514818 0.313304693
0.684131980 0.728670001 0.319517702
0.741606057 0.739573002 0.316575319
0.799616992 0.750385225 0.325869352
0.855170965 0.757838428 0.347981781
0.906903684 0.762007535 0.370289832
0.956056118 0.766417921 0.391185880
0.997193396 0.774534583 0.370611638
0.245238721 0.703942955 0.308387727
0.248624235 0.704828084 0.307301164
0.255234599 0.706672490 0.297034860
0.276694059 0.706379950 0.289275348
0.316471010 0.704014003 0.290062159
0.365576714 0.701258242 0.292287350
0.420783430 0.700914264 0.295529962
0.484375328 0.711901546 0.306944609
0.555672586 0.732313156 0.325494230
0.628301084 0.752645254 0.342754632
0.695555806 0.770668030 0.354826033
0.752203107 0.783504546 0.357593179
0.803460121 0.792896092 0.352600634
0.859401464 0.802422762 0.362585634
0.914123654 0.810178578 0.385648638
0.964202702 0.816029012 0.411727041
0.997876585 0.823748767 0.423290700
0.288819224 0.762354195 0.347807109
0.293119371 0.763225257 0.348809302
0.299260676 0.764532208 0.339410424
0.318452716 0.764981091 0.329801559
0.357065201 0.763543308 0.329802662
0.406401366 0.761626542 0.332615763
0.461243212 0.760117710 0.335327834
0.520583987 0.764867783 0.342533648
0.584330440 0.779278100 0.357575506
0.649378419 0.797286987 0.374979228
0.710774958 0.814094901 0.389419019
0.766324282 0.828492522 0.398143083
0.817201555 0.839012623 0.398022950
0.866548896 0.847054124 0.391314268
0.919703603 0.855170131 0.409691781
0.970292926 0.863260329 0.441490859
0.998581648 0.870675266 0.501115859
0.339558959 0.824311078 0.395835578
0.341525465 0.825020194 0.393684536
0.345445514 0.826369345 0.382269681
0.363758177 0.827041626 0.372944623
0.402105778 0.826288640 0.373025984
0.451567709 0.825003386 0.376402766
0.507079065 0.823879719 0.380027294
0.564593971 0.825072169 0.384785950
0.622314572 0.833758891 0.395796210
0.679000020 0.848257542 0.412058502
0.733612120 0.862684131 0.429636717
0.785890758 0.875805914 0.445005238
0.836829185 0.886556387 0.456331611
0.884832919 0.894863367 0.459673524
0.930432558 0.901729822 0.461040735
0.974171698 0.907592714 0.527545273
0.998764396 0.914736509 0.660019815
0.367316127 0.893708527 0.429038674
0.370156765 0.894186616 0.428469628
0.374808997 0.895081460 0.418402761
0.388871819 0.896146655 0.403825939
0.427587241 0.896095753 0.401625186
0.482543468 0.895278811 0.406588763
0.546592414 0.893403172 0.411897331
0.608891428 0.893098354 0.416927993
0.663727105 0.899107218 0.426340580
0.713640630 0.910205841 0.442540944
0.765447736 0.920868754 0.476432890
0.822357416 0.928807795 0.537510693
0.878918290 0.934443474 0.616999149
0.928640008 0.938125372 0.713561893
0.964614630 0.941971779 0.803198636
0.984397829 0.947611749 0.879289210
1.000028968 0.951901734 0.920374274
0.024706624 0.043053124 0.035313126
0.028106438 0.050253127 0.049206249
0.049914502 0.060203250 0.077652380
0.106983140 0.067625381 0.092060685
0.169302136 0.072950751 0.097812369
0.228930503 0.081745751 0.102960125
0.289033294 0.093788631 0.110468760
0.351959169 0.108258449 0.119760007
0.416145772 0.124170378 0.130937755
0.480667353 0.140835613 0.143753573
0.544648409 0.158835620 0.158174381
0.606604874 0.178548753 0.174392626
0.664854288 0.199723512 0.192338124
0.718250573 0.222268030 0.211872816
0.767018855 0.247087896 0.233386770
0.818406820 0.272561044 0.255347133
0.895084143 0.278820485 0.260181367
0.027491687 0.066279627 0.067736372
0.035067815 0.072532684 0.080865376
0.065170005 0.078051813 0.095263377
0.117959753 0.081982188 0.097008318
0.174431935 0.087742865 0.098795757
0.233888507 0.096707687 0.102841318
0.294733047 0.107935131 0.109941810
0.357146144 0.120983072 0.119944379
0.420308709 0.135626554 0.131868303
0.483489752 0.151858747 0.145124868
0.546133816 0.169609368 0.159762248
0.607301712 0.188426986 0.176108629
0.665112674 0.208661675 0.194565684
0.717625797 0.231337667 0.214995205
0.766238391 0.255527467 0.236322284
0.818036556 0.279108018 0.257510632
0.896913111 0.283506334 0.261450768
0.026915874 0.112996377 0.102676123
0.036480874 0.115969941 0.105255254
0.085854001 0.131431505 0.124081381
0.133609250 0.131393179 0.117586188
0.185853511 0.134112254 0.117045626
0.242860243 0.140530556 0.121677622
0.301736057 0.149011254 0.128879130
0.363089800 0.159134999 0.137781441
0.425704986 0.171074748 0.148359254
0.488165379 0.184999242 0.160809010
0.549729764 0.200814128 0.175107241
0.609205365 0.218585685 0.191168502
0.665260255 0.238296241 0.208898365
0.716917336 0.259590417 0.228237897
0.765009046 0.282175660 0.248930633
0.816879153 0.304277867 0.268687934
0.902646244 0.299516380 0.263799876
0.030898502 0.156217709 0.109791368
0.040199123 0.161022574 0.112273559
0.081823938 0.180292279 0.124905750
0.148933202 0.192946330 0.133975863
0.205170080 0.188378140 0.132332698
0.260248899 0.187279269 0.134329811
0.318799883 0.190906182 0.140652940
0.378642082 0.197473124 0.149273872
0.438609064 0.206320003 0.159487933
0.498576671 0.217210323 0.171172813
0.558244467 0.230143070 0.184480935
0.616551399 0.245378584 0.199507430
0.671678782 0.262991875 0.216213822
0.722528815 0.282451332 0.234756261
0.769868612 0.304117829 0.255033761
0.820235491 0.326240361 0.274604321
0.901722014 0.324709237 0.264403641
0.038272377 0.197163999 0.114925630
0.047428127 0.204079986 0.119199820
0.082927123 0.225192875 0.131321996
0.132154524 0.234170198 0.130926743
0.218968257 0.255346119 0.145706743
0.282778203 0.250662833 0.149464369
0.341149271 0.246450752 0.153486997
0.400637984 0.246625260 0.160460934
0.460470527 0.250659376 0.169734135
0.519778848 0.257878453 0.180846453
0.577283978 0.267781854 0.193469495
0.632174790 0.280343562 0.207637608
0.683979154 0.295614600 0.223573625
0.731373250 0.313863695 0.241301700
0.777285397 0.334319919 0.261029273
0.826572657 0.355265498 0.279935986
