assets/photofx/luts/cinema-style/Cinema Style 03.cube
TITLE "17x17x17 Adobe/IRIDAS cube 3D LUT exported with GrossGrade v0.2.01 (beta) 64 bit"
DOMAIN_MIN 0 0 0
DOMAIN_MAX 1 1 1
LUT_3D_SIZE 17
0.058639999 0.054839998 0.047644001
0.069077194 0.055554375 0.047949627
0.099218503 0.056579378 0.048693627
0.146124318 0.058176626 0.050942000
0.203747749 0.061354749 0.054502249
0.267772615 0.064883560 0.059333436
0.333636373 0.069123872 0.066102497
0.402199328 0.074507751 0.073174439
0.470348507 0.080422997 0.080462009
0.532530189 0.087510310 0.089677624
0.587459266 0.095813751 0.100143880
0.635509551 0.104027502 0.109772623
0.675987005 0.113067001 0.120030254
0.712168932 0.124172449 0.133418515
0.747657955 0.136028126 0.147221252
0.785758674 0.142909139 0.155598968
0.843622983 0.101212002 0.128043994
0.059215628 0.071299687 0.048265565
0.070915632 0.071611874 0.048287127
0.100176685 0.073028877 0.048826374
0.141884640 0.076232813 0.051567126
0.200155064 0.077175811 0.054911375
0.266232491 0.078503877 0.058981564
0.336329520 0.080197319 0.063782506
0.406120718 0.082856566 0.070352010
0.472675890 0.087624691 0.078558318
0.534582376 0.093971744 0.087554313
0.590426028 0.100688562 0.096809179
0.637773037 0.108010933 0.106763564
0.676653624 0.117515571 0.118672565
0.712779462 0.128420264 0.132037759
0.749245048 0.138894558 0.144224018
0.786319494 0.146296754 0.154169545
0.844408631 0.102466375 0.125108689
0.061615627 0.114705876 0.050390374
0.071507871 0.115668193 0.049882561
0.107041121 0.116094127 0.050640874
0.157410830 0.115248129 0.051912621
0.203241885 0.120888874 0.057024498
0.259204537 0.124867320 0.063059248
0.327116013 0.125025123 0.068343371
0.398860395 0.124519564 0.073741376
0.469131768 0.124928877 0.079699129
0.534516633 0.126424178 0.086176500
0.592310488 0.128780127 0.093591250
0.640871167 0.131579623 0.101683751
0.681129575 0.136055633 0.110854380
0.717539728 0.144278392 0.123018257
0.753170669 0.153862625 0.135973379
0.789393008 0.159949332 0.145795271
0.848024011 0.113830499 0.109132372
0.066595629 0.171406955 0.055051938
0.073788814 0.172711447 0.053415935
0.106147684 0.173428386 0.053192310
0.163518697 0.174035519 0.054474499
0.228992000 0.169900388 0.055418376
0.285395145 0.173193753 0.061662871
0.334128588 0.181830585 0.072614379
0.392774284 0.186235517 0.081711881
0.459107012 0.186391830 0.088275999
0.525167048 0.185772330 0.094273806
0.584923625 0.186098009 0.100868560
0.635228455 0.187470391 0.108244188
0.676900446 0.189567268 0.115921944
0.715261102 0.193242446 0.125008389
0.752712786 0.197972074 0.135063127
0.789899051 0.200998232 0.142648220
0.846737385 0.167370513 0.106960058
0.073691003 0.234783262 0.061925501
0.079679564 0.235952497 0.060091000
0.106360242 0.237460256 0.057631876
0.160277009 0.237948269 0.058625564
0.232472748 0.238629252 0.061012998
0.305771559 0.232468992 0.061461002
0.372312903 0.231521875 0.066328384
0.419673413 0.240653634 0.079476319
0.466924012 0.250677526 0.093352258
0.521335125 0.255709082 0.103929125
0.577802002 0.256796360 0.111874253
0.628543377 0.257046938 0.118983127
0.670631766 0.258533269 0.126553014
0.709635913 0.260965765 0.134853825
0.747842968 0.264438629 0.143939376
0.785433710 0.267404914 0.151008219
0.841484010 0.246465504 0.118010752
0.082461938 0.301307112 0.070626751
0.088189065 0.302078515 0.069237627
0.108520061 0.304462612 0.063471816
0.158581510 0.304981321 0.063868500
0.227431372 0.305479437 0.065206751
0.308123469 0.306194246 0.068717934
0.383746326 0.299131125 0.068670444
0.454535633 0.295023382 0.072017819
0.504937172 0.300625741 0.084090255
0.544066429 0.313290298 0.101545878
0.584325790 0.324840754 0.117624745
0.626357377 0.331217617 0.129644439
0.665967166 0.333846688 0.138919190
0.704526126 0.335544258 0.147374332
0.742466509 0.338755637 0.156384259
0.780025423 0.342325807 0.163589284
0.835123837 0.330478638 0.133273065
0.093099758 0.368092149 0.080904879
0.098286629 0.368656516 0.079483628
0.115358628 0.370998263 0.072683007
0.158753201 0.372218460 0.070250444
0.224337250 0.372640759 0.071592756
0.302077860 0.373202741 0.073412314
0.385895401 0.373989254 0.077976376
0.459644586 0.366660625 0.077177063
0.527858019 0.361198664 0.079489633
0.578970194 0.362851709 0.088651188
0.612328351 0.374593139 0.107148245
0.640715837 0.389989525 0.127667233
0.670170367 0.402196258 0.145219132
0.702777803 0.409982592 0.158988953
0.738328576 0.414607495 0.169844761
0.775341511 0.418222874 0.177429363
0.828704119 0.412315518 0.149712756
0.105002820 0.433069706 0.091487572
0.110528260 0.433324158 0.091229007
0.125706822 0.435322762 0.084163696
0.161463335 0.437236339 0.078194819
0.223121941 0.437743127 0.078591757
0.298085451 0.438192725 0.080283880
0.379522830 0.438850224 0.082443751
0.461612582 0.439555585 0.087907322
0.530097008 0.432668328 0.086470626
0.590403736 0.427497417 0.088492379
0.636999428 0.426373720 0.094350070
0.666849256 0.435083449 0.111416996
0.690148354 0.450560093 0.134374499
0.713849485 0.467199147 0.157395020
0.741646945 0.479866058 0.176420450
0.773391724 0.489049226 0.189731359
0.822805762 0.488763958 0.165963754
0.119374000 0.494092017 0.103541508
0.124319062 0.494321048 0.103084192
0.138661265 0.495841622 0.096935749
0.167507648 0.498081952 0.087932378
0.223683506 0.498874515 0.086257249
0.295982987 0.499251723 0.087736875
0.375242651 0.499696136 0.089603998
0.455681920 0.500330508 0.092220306
0.531828046 0.500945032 0.098375008
0.591748834 0.495195687 0.096519634
0.641245127 0.491171420 0.098534122
0.682144642 0.488946527 0.102077000
0.712743521 0.494738519 0.116309747
0.736532450 0.507851124 0.139370963
0.757880151 0.525172353 0.166122139
0.782263994 0.540996552 0.187741980
0.825553536 0.547230482 0.166976511
0.134923369 0.549708128 0.115725815
0.139749870 0.549887300 0.115444817
0.153578803 0.550972998 0.110409506
0.178157702 0.553003132 0.100192435
0.226780877 0.554202914 0.095082499
0.295895308 0.554570138 0.095763192
0.373078257 0.554921210 0.097600184
0.451945692 0.555330873 0.099521875
0.527111828 0.555874467 0.102656059
0.593203783 0.556419909 0.109623626
0.642329335 0.552209556 0.107353754
0.683374166 0.549469411 0.109227881
0.721922934 0.548023760 0.112408757
0.754748106 0.550892115 0.122249529
0.779296100 0.561349452 0.144057333
0.801095068 0.575904727 0.167577103
0.840095401 0.585070252 0.140508130
0.152703628 0.598134458 0.128948122
0.157402366 0.598162055 0.129000619
0.170435488 0.598924875 0.124595128
0.192845881 0.600462437 0.114565440
0.233217999 0.601898551 0.105505250
0.297888190 0.602383018 0.104520187
0.373008549 0.602639019 0.106008627
0.450440586 0.602918923 0.108012065
0.524576783 0.603291988 0.109979868
0.590145409 0.603745997 0.113842562
0.643527985 0.604157388 0.121690750
0.684372425 0.601533294 0.118788563
0.722749650 0.600024521 0.120627999
0.759143054 0.599569559 0.124117948
0.792687893 0.600798011 0.129839882
0.818054318 0.608704567 0.147861287
0.856453598 0.615371764 0.120067254
0.173263937 0.638926685 0.144038439
0.177048311 0.639001369 0.143382177
0.189522505 0.639545798 0.139458939
0.210322827 0.640717745 0.130063325
0.243793815 0.642160773 0.118045248
0.302002251 0.642843604 0.114057057
0.374976963 0.643035173 0.115129881
0.450769335 0.643281102 0.116954505
0.523962498 0.643502414 0.119061373
0.588879704 0.643880844 0.121233568
0.641928911 0.644250810 0.126107931
0.685442388 0.644571424 0.134671360
0.723677874 0.643182337 0.130827308
0.760031343 0.642639160 0.132714003
0.794030368 0.643083155 0.136544690
0.825979173 0.644662499 0.141349316
0.864472389 0.649024546 0.136609122
0.193129763 0.675717294 0.157486260
0.197514385 0.675716400 0.157742769
0.210120767 0.676042914 0.154916003
0.230044454 0.676982641 0.146521375
0.259266019 0.678404748 0.133470267
0.309525192 0.679368973 0.125417322
0.378790021 0.679704666 0.125001878
0.452959895 0.679897666 0.126520753
0.524849296 0.680103302 0.128603756
0.589038610 0.680365920 0.130694300
0.641606569 0.680729806 0.133128747
0.684749007 0.681071401 0.139099181
0.724643767 0.681401730 0.148326248
0.760878980 0.680777967 0.143630311
0.794774354 0.681141794 0.145757392
0.826615512 0.682680368 0.149995014
0.865805268 0.686350465 0.155722752
0.219009265 0.711106420 0.175594822
0.222295210 0.711130202 0.175028950
0.232921958 0.711488783 0.171535447
0.251537979 0.712230265 0.163383260
0.278608292 0.713489354 0.150768071
0.320716888 0.714713693 0.138678640
0.384443343 0.715258956 0.135562822
0.457018226 0.715474486 0.136860147
0.527455628 0.715625644 0.138719216
0.590559423 0.715805769 0.141028196
0.642491639 0.716091692 0.143172443
0.685297370 0.716393828 0.146071270
0.724753678 0.716770291 0.153236315
0.761755168 0.717048168 0.162812337
0.795541167 0.717415988 0.157454267
0.827358961 0.718931556 0.159702390
0.867025316 0.722448766 0.164708525
0.240902781 0.745677054 0.189656138
0.244915470 0.745674729 0.189955890
0.257256418 0.745951712 0.188542768
0.275289536 0.746648908 0.181382090
0.300888270 0.747648895 0.169690266
0.336327523 0.748956501 0.154837444
0.393088281 0.749679446 0.147962883
0.462868541 0.749885499 0.148139581
0.531866908 0.750073791 0.149681509
0.593578279 0.750280082 0.151785269
0.644622445 0.750471830 0.154129386
0.686988056 0.750677049 0.156237200
0.726260662 0.751077056 0.159560636
0.762654841 0.751339793 0.168173149
0.796398699 0.751631975 0.178021789
0.828097343 0.752995253 0.174191967
0.868323743 0.756720185 0.178136528
0.273870468 0.778879344 0.212488100
0.276512474 0.778868139 0.211782709
0.285479277 0.779227138 0.208308235
0.301907539 0.779743373 0.201193675
0.326008558 0.780578911 0.189871967
0.357045025 0.781845748 0.173950836
0.405505359 0.782849848 0.162342399
0.470710427 0.783184648 0.160157949
0.538191855 0.783320248 0.161566392
0.598286569 0.783528745 0.163441196
0.648047745 0.783729315 0.165826961
0.689880669 0.783942938 0.168242320
0.728894770 0.784111023 0.170451760
0.765222311 0.784510374 0.174265027
0.798389673 0.784721971 0.185755670
0.828818977 0.784986734 0.199122012
0.869822383 0.788400173 0.215857312
0.322896987 0.811237991 0.248248994
0.325527608 0.811227679 0.247997746
0.334646374 0.811464131 0.245890617
0.347830385 0.812013924 0.238093436
0.366766006 0.812967777 0.225004256
0.391245633 0.814208508 0.205536127
0.425214380 0.815590978 0.182476118
0.481686980 0.816177130 0.173590317
0.547708035 0.816233516 0.174941003
0.605926275 0.816425085 0.176695943
0.653993368 0.816629291 0.178847879
0.695212126 0.816753030 0.181226000
0.734032989 0.816999733 0.183581248
0.769964397 0.817121089 0.186201006
0.802786887 0.817449749 0.193577915
0.832630873 0.817487061 0.228203237
0.871222973 0.817233026 0.292421013
0.058849063 0.055219688 0.057103377
0.070157185 0.055562813 0.061159939
0.105138123 0.056138936 0.061296687
0.155139133 0.057506688 0.062153749
0.211425319 0.060459439 0.064721376
0.273516178 0.064263999 0.068884626
0.339045435 0.068609193 0.074399695
0.405279964 0.074362248 0.080995627
0.470765769 0.081051499 0.088476688
0.532701612 0.088228941 0.096969560
0.588280141 0.096109994 0.106137693
0.635633588 0.104701877 0.115611061
0.675105214 0.114478253 0.126419812
0.711669981 0.125225261 0.139072761
0.747965515 0.136081189 0.151244000
0.785302103 0.143828198 0.160632908
0.843639851 0.099786066 0.132651806
0.059161250 0.071455307 0.062793061
0.070859373 0.071698122 0.062059935
0.103455931 0.072503507 0.062950067
0.150176376 0.073676378 0.064753875
0.207376078 0.075490370 0.067991376
0.270431638 0.078150757 0.072568931
0.336952627 0.081935436 0.078362495
0.404896140 0.087094061 0.084665753
0.471816957 0.092798188 0.091293938
0.534399390 0.098781690 0.098879002
0.589448035 0.106018998 0.108258501
0.635421395 0.114538744 0.119002312
0.674804926 0.123399630 0.129553810
0.712797225 0.132409886 0.139877886
0.748792768 0.143365815 0.152522236
0.784436703 0.152095601 0.164382905
0.845489562 0.101655439 0.129589945
0.061015252 0.115162507 0.063084751
0.073150881 0.115362436 0.064350128
0.107066244 0.116139248 0.064390063
0.155868828 0.116517067 0.065461002
0.203587249 0.121270686 0.069799751
0.264900327 0.122327253 0.074163690
0.333525389 0.122253001 0.078732997
0.403963029 0.122676879 0.083816878
0.472766668 0.123947255 0.089499623
0.537358463 0.125689685 0.095521063
0.595112920 0.127404183 0.101591058
0.642495871 0.131076053 0.109451756
0.680318296 0.138981566 0.120764628
0.716407061 0.148450881 0.133275568
0.752288818 0.157407880 0.145359129
0.788454175 0.162617251 0.154717773
0.849259794 0.109909810 0.114173621
0.066331625 0.171590135 0.066767126
0.077848502 0.171631813 0.068910562
0.106909245 0.173461765 0.066592187
0.163543954 0.174076065 0.067997754
0.228256494 0.171020955 0.069032118
0.282196730 0.175517201 0.075112939
0.334493041 0.182340011 0.083730936
0.396345913 0.184778646 0.090725131
0.463336378 0.184403077 0.096393377
0.528718412 0.184108377 0.101958677
0.587707877 0.184725821 0.107966810
0.637262344 0.185931340 0.114685006
0.678047061 0.188482702 0.122699499
0.716311634 0.192490935 0.131751329
0.753472984 0.197218701 0.141276062
0.790181518 0.199794278 0.148386404
0.849210262 0.158516839 0.107349128
0.074072003 0.234744817 0.072472937
0.084064618 0.235209629 0.074992001
0.108065687 0.237410516 0.070857257
0.161104143 0.238014564 0.071626186
0.232557118 0.238647819 0.073775001
0.305552304 0.233243689 0.074250869
0.370200872 0.233484685 0.079199567
0.417936027 0.242645815 0.090775065
0.467588127 0.251112133 0.102319755
0.523452997 0.254954845 0.111177996
0.580106556 0.255664051 0.118268751
0.630334020 0.255913854 0.125110567
0.672053993 0.257300079 0.132540196
0.710926294 0.259828001 0.140580833
0.748644948 0.263362885 0.149327189
0.786015987 0.265925527 0.155884147
0.844131291 0.239047810 0.117343433
0.083050936 0.301219821 0.080038309
0.092312813 0.301718712 0.082502693
0.112230368 0.304041713 0.077158317
0.160060555 0.304999679 0.076482743
0.228142887 0.305512071 0.077778496
0.308230460 0.306190908 0.080797747
0.383695543 0.299685389 0.080638997
0.453848749 0.296207637 0.083811007
0.503208220 0.302604139 0.095026940
0.543223381 0.314838737 0.110607497
0.584847748 0.325140566 0.124823749
0.627586007 0.330575585 0.135785624
0.667236984 0.332954407 0.144506380
0.705622554 0.334836364 0.152557209
0.743186295 0.338035643 0.161310017
0.780788481 0.341238558 0.168161660
0.837379813 0.325830013 0.132814303
0.093030386 0.368194342 0.088189565
0.102792881 0.368333071 0.091795817
0.119876750 0.370553553 0.085709691
0.160928279 0.372203201 0.082178563
0.225563690 0.372584879 0.083090246
0.302646667 0.373242319 0.084769249
0.385966361 0.373976767 0.088829815
0.459652483 0.367098033 0.088091373
0.527714968 0.361992776 0.090259694
0.577875853 0.364380598 0.099181242
0.611336946 0.376283437 0.116318874
0.640528679 0.390974522 0.135144413
0.670542359 0.402478755 0.151287675
0.703503728 0.409706444 0.163995892
0.738969862 0.414126128 0.174488515
0.776171505 0.417465419 0.181717992
0.830559731 0.409750521 0.149542764
0.105205692 0.433076262 0.097779877
0.114595883 0.433187485 0.101647623
0.130588502 0.434976518 0.096165136
0.164219886 0.437148899 0.089392819
0.224727511 0.437745422 0.089339808
0.299071819 0.438194305 0.090868309
0.379950404 0.438876867 0.092908315
0.461638838 0.439572453 0.097799256
0.530122161 0.432949096 0.096453309
0.590367317 0.428021282 0.098291941
0.636568904 0.427319437 0.103995629
0.666257739 0.436403751 0.120159499
0.689594507 0.451930135 0.141915232
0.713752866 0.467886746 0.163474143
0.741712391 0.480260521 0.181673318
0.773806155 0.488904715 0.193983302
0.824266791 0.487488568 0.165991306
0.118792258 0.494212568 0.108434439
0.127574936 0.494377017 0.111745812
0.143582627 0.495601445 0.107842259
0.171397567 0.497862756 0.098883994
0.225684822 0.498882443 0.096383750
0.297261149 0.499219060 0.097623691
0.376003027 0.499730647 0.099318810
0.456030548 0.500336170 0.101692371
0.531836331 0.500935495 0.107329071
0.591772556 0.495397508 0.105575636
0.641241014 0.491563410 0.107473314
0.682090461 0.489517629 0.110868499
0.712349474 0.495788187 0.124788009
0.736062288 0.508918405 0.146854773
0.757533848 0.526164174 0.172432512
0.782134831 0.541542530 0.192599848
0.826375842 0.546985030 0.167833447
0.134017006 0.549898744 0.119728439
0.144031256 0.549824238 0.124368064
0.158255249 0.550821126 0.120155692
0.182416499 0.552796543 0.110358745
0.229217559 0.554166317 0.104561187
0.297409534 0.554562449 0.104921818
0.374046057 0.554907978 0.106603250
0.452595234 0.555336773 0.108389556
0.527404189 0.555869341 0.111327939
0.593213022 0.556395948 0.117806375
0.642349303 0.552400589 0.115652993
0.683373153 0.549796820 0.117507935
0.721930325 0.548423409 0.120561950
0.754514098 0.551605344 0.130227774
0.779043674 0.562092543 0.151193202
0.800814986 0.576674104 0.173487976
0.840463996 0.585321367 0.142052367
0.151608258 0.598231435 0.132322758
0.161198497 0.598116457 0.136872634
0.175192639 0.598791242 0.133565381
0.197060943 0.600331306 0.123833247
0.236154065 0.601859510 0.114537686
0.299524873 0.602389812 0.113025434
0.374191463 0.602642775 0.114432253
0.451211959 0.602922440 0.116380751
0.525041878 0.603266120 0.118239440
0.590333819 0.603748798 0.121907063
0.643503249 0.604166210 0.129235372
0.684382975 0.601630807 0.126464054
0.722728252 0.600233078 0.128250435
0.759143949 0.599859238 0.131559253
0.792604148 0.601171672 0.137191653
0.817896724 0.609255373 0.154829904
0.856637955 0.615591645 0.123501129
0.171383932 0.639071405 0.146411255
0.179128930 0.639135480 0.149216563
0.193873122 0.639444113 0.147490695
0.214641944 0.640590310 0.138762489
0.247121483 0.642106354 0.126724243
0.304110259 0.642816544 0.122278936
0.376300067 0.643045843 0.123016439
0.451728523 0.643290520 0.124774255
0.524491489 0.643515348 0.126812503
0.589112282 0.643860757 0.128840193
0.642017066 0.644253135 0.133441135
0.685392380 0.644582629 0.141533554
0.723690748 0.643209934 0.137938738
0.760006070 0.642806470 0.139844820
0.794032156 0.643295586 0.143547863
0.825980783 0.644904256 0.148117542
0.864477992 0.649247706 0.142889753
0.192246243 0.675759077 0.160291448
0.200912490 0.675687611 0.164289132
0.214379624 0.675974250 0.162434384
0.234084323 0.676894903 0.154329807
0.262438118 0.678352237 0.141294062
0.311594546 0.679342389 0.132940829
0.380177408 0.679702222 0.132318139
0.454019725 0.679916978 0.133783013
0.525562167 0.680133700 0.135855764
0.589411914 0.680400848 0.137923449
0.641796887 0.680719733 0.140276387
0.684832931 0.681076705 0.146007001
0.724634051 0.681413889 0.154834703
0.760892153 0.680831134 0.150271639
0.794779062 0.681261659 0.152317435
0.826623142 0.682841718 0.156373188
0.865832388 0.686597884 0.162041247
0.217189208 0.711166441 0.177439079
0.222843274 0.711301386 0.178895578
0.236783475 0.711482346 0.178371638
0.255543441 0.712178051 0.170691520
0.282351136 0.713413417 0.158466816
0.323253989 0.714711666 0.146156073
0.386030793 0.715261579 0.142722070
0.458094448 0.715472579 0.143825769
0.528259277 0.715643585 0.145598337
0.591061234 0.715829134 0.147848517
0.642804027 0.716075718 0.149878398
0.685453832 0.716358125 0.152601138
0.724854589 0.716780484 0.159493387
0.761709154 0.717056036 0.168733954
0.795549691 0.717445016 0.163605779
0.827365458 0.718946993 0.165884078
0.867038965 0.722677708 0.170737952
0.240283594 0.745744944 0.192080021
0.247895151 0.745764017 0.195536405
0.260943741 0.745843470 0.194762647
0.278925031 0.746496022 0.187930465
0.304334551 0.747510433 0.176513880
0.338745534 0.748911381 0.161550626
0.394623756 0.749645829 0.154443711
0.463983268 0.749818981 0.154542699
0.532639086 0.750033021 0.156011254
0.594097674 0.750294089 0.158094451
0.644909859 0.750457764 0.160463080
0.687148452 0.750622272 0.162542582
0.726281762 0.751084983 0.165776014
0.762800753 0.751343429 0.174107656
0.796395361 0.751597703 0.183754653
0.828103960 0.753073335 0.179899544
0.868335307 0.756810606 0.183660358
0.272150367 0.778891325 0.213937610
0.276260197 0.779002845 0.214485288
0.288106352 0.779211402 0.213538662
0.305264175 0.779669404 0.207302332
0.329353333 0.780549765 0.196294457
0.360155135 0.781767547 0.180763409
0.407437682 0.782820463 0.168813214
0.471877933 0.783195853 0.166330010
0.539010942 0.783288181 0.167677939
0.598835707 0.783488214 0.169498771
0.648411036 0.783735394 0.171811894
0.690100849 0.783951104 0.174128264
0.729083538 0.784119844 0.176238269
0.765349805 0.784516871 0.179917693
0.798472285 0.784725785 0.191321924
0.828802526 0.784986436 0.204868823
0.869830430 0.788459361 0.220669627
0.323292613 0.811116099 0.250947118
0.328882933 0.811122715 0.253190577
0.338079572 0.811390579 0.251154304
0.351152122 0.811924040 0.243549868
0.369850010 0.812859952 0.230754301
0.394201100 0.814158797 0.211720198
0.427056253 0.815587521 0.188393310
0.482785732 0.816187859 0.179214373
0.548495173 0.816245139 0.180498689
0.606477976 0.816434979 0.182241380
0.654379249 0.816636980 0.184427321
0.695435584 0.816759884 0.186846316
0.734178483 0.817013264 0.189126313
0.770140648 0.817146003 0.191655204
0.802843988 0.817448556 0.199222088
0.832599521 0.817450881 0.235291421
0.871237993 0.817241490 0.295883179
0.060283124 0.055874124 0.085265003
0.073050752 0.055574127 0.093087561
0.103008620 0.056934003 0.099125125
0.160688147 0.057627000 0.098859817
0.226863116 0.059833374 0.097579256
0.293926626 0.062798560 0.097630687
0.358027041 0.066897877 0.099624500
0.421200037 0.072539806 0.103435755
0.483459622 0.079269499 0.108591370
0.542379379 0.086548306 0.115064681
0.595078588 0.094718002 0.122819498
0.640089095 0.103724316 0.131455004
0.678565145 0.113379881 0.141148880
0.714787185 0.123917267 0.152441710
0.750298023 0.135295138 0.164341375
0.786626697 0.143655658 0.174159229
0.845180988 0.097398497 0.146918744
0.059126187 0.070973128 0.098643318
0.072888441 0.071627185 0.098439559
0.104552560 0.073421061 0.100496754
0.160748750 0.073706314 0.100101620
0.225727752 0.075155817 0.099432871
0.290353566 0.077518255 0.100058809
0.354694337 0.080994748 0.102463685
0.418935031 0.085829936 0.106485128
0.481665820 0.091785192 0.111722752
0.541035712 0.098405689 0.118188620
0.594502568 0.105754748 0.125922307
0.639602005 0.113931499 0.134790435
0.677636504 0.123046629 0.144643754
0.714188814 0.133138642 0.155493066
0.749944925 0.144078255 0.167212754
0.785797477 0.151624337 0.177230164
0.846843421 0.098498747 0.144849122
0.060967002 0.115178131 0.104487002
0.072429754 0.115812063 0.102853507
0.107093997 0.116291121 0.102461621
0.158351332 0.116029680 0.103301689
0.217151016 0.115992375 0.104513749
0.280278474 0.116865627 0.106864497
0.346280277 0.119187124 0.110613123
0.413088590 0.122825310 0.115310371
0.478410274 0.127385616 0.120634370
0.539750218 0.132369936 0.126760319
0.594347775 0.137933239 0.133893251
0.639828742 0.144461617 0.142333552
0.677812696 0.152166516 0.152186871
0.713954628 0.161128566 0.163388759
0.749475300 0.170917869 0.175233126
0.786534071 0.175384253 0.182509020
0.852433741 0.103891745 0.133878142
0.063427441 0.173062950 0.101380005
0.074739441 0.173112080 0.102347881
0.111114375 0.172922641 0.105535626
0.163562894 0.174182758 0.105434686
0.224480569 0.174144819 0.106167257
0.277838647 0.178995818 0.109327316
0.340157360 0.179894328 0.113040321
0.408014417 0.178950444 0.116864190
0.475573093 0.178535134 0.121072561
0.539269149 0.179042071 0.125824749
0.596157730 0.180016890 0.130979061
0.643726230 0.181438953 0.136578187
0.683111787 0.184543222 0.143599883
0.720304787 0.189587146 0.152421772
0.755438983 0.197153330 0.163637251
0.791189611 0.201718822 0.171770513
0.854857981 0.138643697 0.119092129
0.070032001 0.236210123 0.103131875
0.081805743 0.236144066 0.105027184
0.116540879 0.236283004 0.109792873
0.163487881 0.238053486 0.107922688
0.232603773 0.238733143 0.109255999
0.304404616 0.235562131 0.109909937
0.364133149 0.238788992 0.113824129
0.414813966 0.246473700 0.121221885
0.470559299 0.250955880 0.128171116
0.530743480 0.251339674 0.133764550
0.587956786 0.250914633 0.139017627
0.636564612 0.251516491 0.144763619
0.677142262 0.253078490 0.151309997
0.715526223 0.255543441 0.158702523
0.752466440 0.259325892 0.167242393
0.789687335 0.261053205 0.172307819
