assets/photofx/luts/cinema-style/Cinema Style 01.cube
TITLE "17x17x17 Adobe/IRIDAS cube 3D LUT exported with GrossGrade v0.2.01 (beta) 64 bit"
DOMAIN_MIN 0 0 0
DOMAIN_MAX 1 1 1
LUT_3D_SIZE 5
-0.036729999 -0.038451001 -0.040270999
0.238115996 0.014234250 -0.004163748
0.468098521 0.096031502 0.078936502
0.690193057 0.153432012 0.129811004
0.874683976 0.211291999 0.183476001
0.055565253 0.231730253 0.119921997
0.250066996 0.235455006 0.051580504
0.473675758 0.231458262 0.075435504
0.694316030 0.250113010 0.123035759
0.880787492 0.286376506 0.182613999
0.129298002 0.460116506 0.264163017
0.180309504 0.473790765 0.179358751
0.491959006 0.466767013 0.111604497
0.711645961 0.462849528 0.121913761
0.883453965 0.472056508 0.170782998
0.197391257 0.667426288 0.406791270
0.234266996 0.672628284 0.371707022
0.414870024 0.684069276 0.208173007
0.723343313 0.675420225 0.174542502
0.904868245 0.680549502 0.180831999
0.110418998 0.803246975 0.517395020
0.239518523 0.804290771 0.501603723
0.556924522 0.801786542 0.476729006
0.764818788 0.802943766 0.452367246
0.915538013 0.810254991 0.295917988
-0.019105500 -0.010794999 0.169892013
0.233144522 0.036646254 0.184617504
0.483159482 0.085276753 0.184864491
0.703395009 0.140029997 0.201846004
0.881348968 0.202179998 0.239924744
0.037911754 0.238665998 0.215344250
0.255443752 0.237551495 0.207195252
0.475326777 0.249182016 0.224094272
0.694024503 0.263351977 0.222083509
0.876505017 0.294948727 0.252626002
0.074530005 0.463820517 0.315988779
0.263143510 0.463345289 0.317570031
0.483245999 0.472201765 0.247207746
0.712360501 0.472427756 0.248046502
0.888934970 0.481973767 0.265995026
0.163271755 0.668675542 0.441275507
0.297489494 0.668640256 0.437579989
0.400604546 0.684854031 0.311336756
0.720339775 0.677453816 0.277201504
0.902564466 0.680275321 0.266925752
0.019213498 0.803922296 0.539399743
0.129815504 0.806255996 0.527349532
0.548598051 0.802469194 0.500834227
0.765406251 0.803135991 0.478963733
0.915878475 0.810369492 0.350112259
0.059909005 0.094922498 0.360148519
0.225966990 0.088150248 0.407114029
0.455355525 0.116062000 0.382347524
0.707574964 0.142865255 0.396311522
0.894861519 0.184820503 0.391268522
0.076678753 0.244776502 0.410021007
0.250101745 0.252263755 0.402874261
0.477978498 0.252341747 0.407546759
0.707131207 0.269602776 0.409935772
0.890591502 0.295504749 0.411445260
0.079163000 0.472407520 0.435943514
0.259582758 0.471256524 0.434900761
0.501807034 0.471285552 0.423167497
0.698189735 0.482446015 0.460487008
0.902294517 0.476858526 0.424345016
0.049041502 0.674175501 0.504242539
0.246789768 0.674215019 0.503622293
0.502930999 0.673831761 0.500415742
0.687560201 0.684064746 0.475217253
0.905485749 0.682921052 0.442990005
0.001497500 0.804683983 0.594198525
0.004951751 0.807504952 0.591236711
0.425935507 0.809196949 0.574158549
0.762361288 0.804367304 0.547999501
0.916757464 0.810550988 0.482017994
0.108465254 0.156468004 0.524037719
0.200574517 0.135746509 0.574059248
0.463237017 0.150618508 0.567968249
0.673154235 0.183452249 0.547015488
0.886973500 0.211634010 0.564466238
0.122258499 0.264197499 0.557197750
0.251296997 0.279342234 0.546899498
0.471897781 0.272845030 0.577177763
0.693148494 0.282470733 0.561965048
0.889598012 0.304123491 0.570563495
0.110562503 0.476183027 0.584782481
0.260883749 0.478366762 0.582230926
0.493950009 0.481401533 0.574848056
0.713266015 0.485746026 0.583322763
0.902962506 0.487142503 0.584694207
0.112831749 0.678893209 0.599452496
0.262497991 0.679016948 0.600590706
0.503996968 0.677737236 0.595862985
0.733146489 0.678976297 0.588350058
0.908401549 0.680027008 0.590183258
0.009962777 0.808429241 0.644243479
0.178026021 0.809313536 0.644252717
0.463382512 0.809819996 0.643674016
0.708386004 0.810645223 0.641160250
0.919156492 0.810988724 0.607780516
0.126395002 0.185803995 0.679076016
0.211421251 0.162860498 0.710573256
0.457719505 0.181710005 0.709612966
0.705029249 0.188461244 0.708335519
0.859761000 0.211842999 0.676844001
0.126497999 0.278095484 0.703509510
0.252940744 0.281257480 0.711489260
0.467751026 0.292755008 0.710507989
0.709126472 0.291536510 0.709787488
0.891865253 0.231692746 0.701335013
0.192198008 0.486036509 0.713992953
0.304052770 0.488650501 0.714066744
0.510654569 0.493203521 0.714289963
0.719058752 0.492689013 0.713029027
0.901265502 0.451631010 0.709792495
0.235606521 0.683644295 0.719106555
0.326422751 0.684922040 0.719185293
0.527094245 0.686217487 0.718791962
0.741730988 0.685766280 0.718741059
0.907304287 0.671802759 0.716157019
0.514527977 0.799842000 0.723490000
0.549350500 0.800240755 0.723604798
0.654534996 0.802222013 0.724030495
0.789587975 0.805839002 0.724686027
0.925175011 0.811879992 0.725692987
