assets/photofx/luts/cinema-style/Cinema Style 15.cube
TITLE "17x17x17 Adobe/IRIDAS cube 3D LUT exported with GrossGrade v0.2.01 (beta) 64 bit"
DOMAIN_MIN 0 0 0
DOMAIN_MAX 1 1 1
LUT_3D_SIZE 5
-0.055132002 -0.055796999 -0.051729001
0.163459256 -0.005184248 0.010494502
0.339626014 0.098431006 0.056934003
0.572576523 0.128541008 0.083714500
0.841391027 0.199256003 0.152759999
0.025472999 0.143894002 0.042617001
0.154044002 0.163118243 0.050922252
0.452479273 0.263176501 0.105535008
0.660900772 0.278822005 0.127006501
0.924246728 0.322766006 0.186557502
0.049049504 0.311247528 0.136806011
0.185724497 0.343828261 0.117315508
0.460667521 0.413493007 0.157003015
0.763565242 0.524974287 0.235575005
0.996857047 0.546745539 0.255154490
0.201515257 0.480025768 0.233532503
0.300696760 0.508555770 0.243646517
0.531182528 0.584591985 0.286877006
0.786432803 0.656269729 0.321283758
1.000000000 0.744858742 0.315624774
0.326303005 0.662553012 0.356633991
0.393205523 0.687234759 0.364712000
0.581601501 0.756281972 0.387210011
0.802491009 0.831828237 0.392607272
0.999536991 0.903724015 0.522904992
-0.048020750 -0.024028249 0.113599509
0.154073238 0.014736005 0.161340758
0.323692262 0.047293004 0.146838501
0.532651246 0.069780752 0.162954763
0.789518714 0.136632502 0.216279253
0.004306750 0.185589001 0.181236997
0.116365768 0.180146247 0.182588503
0.417731524 0.223927766 0.199019998
0.627745748 0.234333515 0.204694018
0.883834720 0.285029501 0.249003515
0.025722003 0.342177272 0.234175012
0.126884013 0.355609775 0.227730751
0.426067740 0.417191029 0.275728256
0.754281521 0.528972745 0.329762757
0.996154785 0.545530498 0.325227231
0.147152245 0.480444759 0.280078769
0.242731512 0.506304741 0.292077005
0.489254475 0.587187469 0.351175010
0.750678241 0.660869479 0.396866739
1.000000000 0.750033021 0.393404514
0.284674495 0.655468225 0.374738753
0.356209517 0.681324720 0.384519011
0.558284760 0.753952742 0.413831472
0.791462481 0.834001780 0.433945507
0.999363005 0.906492233 0.547475755
0.005250500 0.083282009 0.271265030
0.135812014 0.108718261 0.271356255
0.321935028 0.061951004 0.335246503
0.492438257 0.043781251 0.352960527
0.711979985 0.083747998 0.376422524
0.059480753 0.248753250 0.355078995
0.126902506 0.264350504 0.373171747
0.374897510 0.242986262 0.408817530
0.565524459 0.184447512 0.390076756
0.801083207 0.216761261 0.401345491
0.018556504 0.408273518 0.427211523
0.106260009 0.410566032 0.419853777
0.385311007 0.450103551 0.453227520
0.682232261 0.498266757 0.471793532
0.968893051 0.527165055 0.483305514
0.098668754 0.520589232 0.429508269
0.162719011 0.530369997 0.426852494
0.399249017 0.591484249 0.472151786
0.679094315 0.671933293 0.534543037
0.998875737 0.758482456 0.555464745
0.200002000 0.664208531 0.467877001
0.262894273 0.681756973 0.473778248
0.480341524 0.748553514 0.509580493
0.752238989 0.836427987 0.558423281
0.998591006 0.918784499 0.597553492
0.021630503 0.171650752 0.418712765
0.125407755 0.200857505 0.441536725
0.349007785 0.214058504 0.488554537
0.455263019 0.140613511 0.483822256
0.612548470 0.179864258 0.519291520
0.094654247 0.297535747 0.470187008
0.126723990 0.317723274 0.490415990
0.395682007 0.324279010 0.516481519
0.509964287 0.295304000 0.547955036
0.687839746 0.303006530 0.571598470
0.084832504 0.457215250 0.549096227
0.160163015 0.462480009 0.555466235
0.381803513 0.501291513 0.599929214
0.603420734 0.522836745 0.640474200
0.855325520 0.520371735 0.648238778
0.127558768 0.573635221 0.597129464
0.168229491 0.579658031 0.595928252
0.368469000 0.619552732 0.612597764
0.611264288 0.677634478 0.664489985
0.977912247 0.751194537 0.706338704
0.225579515 0.706604481 0.607038021
0.269421488 0.715965033 0.607594490
0.438675523 0.755542278 0.629343748
0.699052989 0.828453541 0.688139260
0.996314287 0.916833282 0.733828008
0.037804998 0.264317989 0.547307014
0.127190247 0.285443723 0.557466269
0.371179521 0.309870005 0.566395044
0.495170772 0.321599245 0.625230014
0.600687981 0.308705986 0.631931007
0.118320256 0.354448259 0.562356472
0.143799514 0.366641253 0.573356509
0.365717024 0.378617227 0.614971995
0.544629216 0.404608727 0.664036989
0.650721252 0.398935974 0.678665757
0.188746989 0.491280019 0.636325479
0.204223752 0.495404243 0.642748952
0.355854511 0.524488449 0.686331511
0.616726995 0.553492546 0.710374713
0.736115456 0.565761507 0.730350494
0.191658258 0.617257953 0.699813008
0.218144253 0.623630524 0.704823494
0.402441531 0.661530733 0.718733013
0.600648522 0.701654792 0.739684999
0.832256794 0.735313237 0.763937235
0.338120997 0.766143978 0.741322994
0.371286511 0.773207545 0.743618786
0.492569029 0.800570965 0.755168974
0.709664047 0.847099483 0.780154228
0.982209980 0.907441974 0.812906027
