assets/photofx/luts/cinema-style/Cinema Style 02.cube
TITLE "17x17x17 Adobe/IRIDAS cube 3D LUT exported with GrossGrade v0.2.01 (beta) 64 bit"
DOMAIN_MIN 0 0 0
DOMAIN_MAX 1 1 1
LUT_3D_SIZE 5
0.024421999 0.030507000 0.018315000
0.153776258 0.073375002 0.054059248
0.402944505 0.130657002 0.107827008
0.655049026 0.210103005 0.181126505
0.885755002 0.294303000 0.255726010
0.037746251 0.188043505 0.068523750
0.208048001 0.245388761 0.085841998
0.472303510 0.234149754 0.130016506
0.682373047 0.284999758 0.194283247
0.882744968 0.363688767 0.255924761
0.094110005 0.395971537 0.148405507
0.188618004 0.393566281 0.141756013
0.528308511 0.514788032 0.191043511
0.769654512 0.513746738 0.255619526
0.986496508 0.508042514 0.280763507
0.204709262 0.643014789 0.263988256
0.280755013 0.639435947 0.249456257
0.536994755 0.690329492 0.294993281
0.799401820 0.750165462 0.320785254
0.997125268 0.774284005 0.367364258
0.366567999 0.893685997 0.424398988
0.428928256 0.895319521 0.399593234
0.663830519 0.898849964 0.424825490
0.878709257 0.934512258 0.613130748
1.000028968 0.951822996 0.920033991
0.030788250 0.063652501 0.084721752
0.158660516 0.086842000 0.192859247
0.438316762 0.133393511 0.209316745
0.673038542 0.196421504 0.251087517
0.896214247 0.262578756 0.318731010
0.036812998 0.225616515 0.220672503
0.235022008 0.271217525 0.269942999
0.476339519 0.272662014 0.250234008
0.697400212 0.317400515 0.286659479
0.951114774 0.319679260 0.292754740
0.095648751 0.411161751 0.248172760
0.231834531 0.472241253 0.288785994
0.546257794 0.530144751 0.318551749
0.755336046 0.526001513 0.346371263
0.994468212 0.498686761 0.307891250
0.207240254 0.645233512 0.353912771
0.308573484 0.676842272 0.373084486
0.536438346 0.693428755 0.361226976
0.803506494 0.753973782 0.410437286
0.997876704 0.777055979 0.443676263
0.369175017 0.893785000 0.524971724
0.399232745 0.904394984 0.459699243
0.645338297 0.904473484 0.439803749
0.880358756 0.934662223 0.652697980
1.000877500 0.953195751 0.929746985
0.050393000 0.109889001 0.247343510
0.137765020 0.132114008 0.312886238
0.403685540 0.168945998 0.409737021
0.716213226 0.243025258 0.446550518
0.931311965 0.300370991 0.493315518
0.072275259 0.215260744 0.346728265
0.192320004 0.254103005 0.406053782
0.459648013 0.281421751 0.445435286
0.718612313 0.320437253 0.451365262
0.976123750 0.322975993 0.506967306
0.092033505 0.479493529 0.479170531
0.210876763 0.479334265 0.475665987
0.576578975 0.556979001 0.564594030
0.770971060 0.551478565 0.529199243
0.998437524 0.484687030 0.499885023
0.197704017 0.680389285 0.535714269
0.306509018 0.694181323 0.548772216
0.569680572 0.739830256 0.581044793
0.821105301 0.769553006 0.613345504
1.000108719 0.772663713 0.614086986
0.350962520 0.901014507 0.676358461
0.381823778 0.908610702 0.670630217
0.489971042 0.931432009 0.538254499
0.869559526 0.936920762 0.705142975
1.005249500 0.957746983 0.956169009
0.088935003 0.172472745 0.382310510
0.173712507 0.181436002 0.438861787
0.370912760 0.241477996 0.541070998
0.657027304 0.272732496 0.631750762
0.971730709 0.349202275 0.693405032
0.114018753 0.246536493 0.466028750
0.224677518 0.284221977 0.538659692
0.425033271 0.316813499 0.594056010
0.692217827 0.356844515 0.658368826
0.993409991 0.390692502 0.722989500
0.156316996 0.464844763 0.607064724
0.261866510 0.489541292 0.628962040
0.497080505 0.526857495 0.691645026
0.759384334 0.555333018 0.711348534
0.997654200 0.585730493 0.763836741
0.189828008 0.721640706 0.737357020
0.284734011 0.719298005 0.732569516
0.548308253 0.740504265 0.755850017
0.831779480 0.778753459 0.812061787
1.006867051 0.751193285 0.786656022
0.316720754 0.926957250 0.843460023
0.346699774 0.932416558 0.843848526
0.499778748 0.943971038 0.835679531
0.815718532 0.945947766 0.815645754
1.013795257 0.966669738 0.985125542
0.127471000 0.252532989 0.531913996
0.184631258 0.254086256 0.617421508
0.402016521 0.302316010 0.683179021
0.667111516 0.361590743 0.774162054
0.929410994 0.407808989 0.865303993
0.143709004 0.310317516 0.600007534
0.204274505 0.340399504 0.687808990
0.467984021 0.357765228 0.771752238
0.718397737 0.406469762 0.838357985
0.968985260 0.436529994 0.908818722
0.177522495 0.469061524 0.746601999
0.207729995 0.489575773 0.791571259
0.424971521 0.518099546 0.961163044
0.799893498 0.537829280 0.978176713
0.992279530 0.597752988 0.957813025
0.230655253 0.728754282 0.902191043
0.250560254 0.736674011 0.928883791
0.335830480 0.743891835 0.992930710
0.789593339 0.746545255 0.996734977
0.999215007 0.784961224 0.989546776
0.312593013 0.948569000 0.999365985
0.368259728 0.951861739 0.999848485
0.632260561 0.953665972 1.000031471
0.892600536 0.954458952 1.000707030
1.027693987 0.981836021 1.026116967
