assets/photofx/luts/cinema-style/Cinema Style 08.cube
TITLE "17x17x17 Adobe/IRIDAS cube 3D LUT exported with GrossGrade v0.2.01 (beta) 64 bit"
DOMAIN_MIN 0 0 0
DOMAIN_MAX 1 1 1
LUT_3D_SIZE 17
0.000000000 0.000000000 0.000000000
0.014905313 0.007002187 0.004322812
0.036440499 0.015650250 0.009223999
0.073480509 0.024338689 0.011403187
0.125136763 0.032765500 0.012816750
0.185123503 0.039659999 0.015568313
0.247888505 0.046105001 0.019772377
0.312015980 0.053507127 0.025572877
0.376462996 0.061368503 0.032861002
0.441189170 0.068833500 0.041183811
0.507337868 0.076705500 0.050375625
0.575187266 0.086129561 0.060507812
0.644452274 0.096724749 0.071494251
0.715305388 0.108130388 0.083271891
0.788035691 0.120692767 0.095732391
0.862526178 0.133786023 0.109160140
0.942207992 0.148350999 0.123741999
0.014132813 0.030761249 0.027179062
0.027883125 0.035670936 0.020888437
0.049804185 0.042713374 0.021097001
0.086703576 0.049892064 0.018081438
0.139430434 0.055407252 0.016290374
0.198767319 0.060109500 0.017388875
0.260195076 0.064960003 0.020906441
0.322615355 0.070380062 0.026645379
0.385145009 0.076044068 0.033880379
0.448248923 0.081857502 0.042075437
0.513217509 0.088795505 0.051211126
0.580078244 0.097456120 0.061277501
0.648465753 0.107221186 0.072196938
0.718577445 0.118220888 0.083957762
0.790674746 0.130316764 0.096457765
0.864734054 0.142790899 0.109804198
0.943839192 0.156741619 0.124294184
0.029516876 0.064586751 0.057162501
0.041777063 0.068971440 0.048093751
0.071735874 0.080237128 0.040972754
0.111965641 0.091401003 0.029466936
0.168108389 0.097944751 0.023715250
0.227997005 0.102979749 0.022491876
0.288115144 0.107847616 0.025115877
0.348118216 0.112526625 0.030484566
0.408005267 0.116784498 0.037423503
0.468646735 0.121334061 0.045260437
0.531167865 0.126960382 0.054256625
0.595517635 0.134087682 0.064372122
0.661537170 0.142533243 0.075190507
0.729453743 0.152029574 0.086803511
0.799542665 0.162473008 0.099167392
0.871911943 0.173454329 0.112290956
0.949655592 0.185728878 0.126642749
0.052386507 0.102768384 0.078784943
0.061489314 0.107188694 0.071743190
0.090772122 0.117593013 0.064248249
0.138413340 0.136644691 0.041794565
0.199322686 0.148004949 0.032773752
0.260267884 0.155062765 0.030803315
0.319109261 0.160652891 0.032588318
0.377000660 0.165651262 0.037168756
0.434793591 0.170232520 0.043444190
0.493262559 0.174846828 0.050948504
0.553230643 0.179983765 0.059714690
0.614904702 0.186001644 0.069629431
0.678558707 0.193327576 0.080285184
0.744250715 0.201431155 0.091761515
0.811931491 0.209898978 0.103985272
0.882031441 0.218951464 0.116757013
0.957575500 0.229103640 0.130721062
0.076996997 0.145557761 0.094903752
0.083527438 0.149524316 0.090985380
0.114367753 0.159206375 0.087042630
0.162485331 0.177971572 0.057234433
0.228063256 0.198358268 0.041417502
0.289583564 0.209994882 0.040308125
0.347198129 0.217716008 0.042770006
0.403205097 0.223112494 0.046857253
0.458977997 0.227666244 0.052436501
0.515563965 0.232261270 0.059387874
0.573697209 0.237379745 0.067689627
0.633367002 0.243027568 0.077092439
0.694883525 0.249536514 0.087351002
0.758476496 0.256570399 0.098441765
0.823979139 0.263723999 0.110221393
0.892202556 0.271361768 0.122610077
0.965919256 0.280041009 0.136188000
0.102043562 0.192056939 0.110459939
0.109116629 0.195278198 0.109843813
0.140945688 0.204452559 0.109069750
0.190911576 0.222825557 0.074914992
0.252872646 0.243155822 0.050181501
0.317393214 0.263093054 0.048105501
0.371989131 0.274876833 0.053099256
0.425329179 0.282522619 0.058889568
0.479127347 0.287647873 0.064752311
0.534166574 0.292061061 0.071022622
0.590803564 0.296720207 0.078457877
0.648990691 0.301844239 0.087029129
0.708767235 0.307530820 0.096552819
0.770652533 0.313675046 0.106994197
0.834760308 0.320026189 0.118139580
0.901495039 0.326794386 0.129960760
0.973286867 0.334726274 0.143087938
0.132600769 0.241402268 0.130347133
0.141283587 0.244180396 0.131887138
0.173640028 0.254007399 0.128722996
0.223816901 0.271875262 0.093057245
0.282628536 0.291655868 0.061864004
0.344034463 0.310375273 0.054793630
0.398257256 0.329925269 0.061562382
0.446101636 0.340927184 0.070226192
0.496285409 0.347978771 0.077945627
0.549066961 0.353145003 0.085074373
0.604252458 0.357551634 0.091976628
0.661271632 0.361999571 0.099581003
0.720028162 0.366823375 0.108049259
0.780771971 0.372133762 0.117485389
0.843871474 0.377818286 0.127786264
0.909617364 0.384003192 0.138967201
0.979654372 0.391623765 0.151572630
0.176007777 0.294738352 0.154540449
0.184744343 0.297460437 0.154797330
0.215424910 0.307924807 0.142578512
0.262128413 0.324459285 0.109202303
0.316895097 0.343431860 0.075695880
0.374687254 0.361180216 0.064827383
0.425774217 0.378879458 0.068694510
0.469985187 0.396717101 0.079367951
0.513185561 0.406378537 0.089742504
0.561801791 0.413018167 0.098462008
0.614586949 0.418449402 0.106519505
0.670421362 0.422948033 0.114058256
0.728486657 0.427250206 0.121705256
0.788732886 0.431827605 0.130001202
0.851208925 0.436893493 0.139299706
0.916280985 0.442609340 0.149724334
0.984952748 0.450173646 0.161670998
0.229718029 0.352967501 0.171666995
0.237705320 0.355724245 0.168986753
0.264708996 0.365342855 0.153135255
0.305498242 0.379812688 0.123233303
0.354476005 0.396702528 0.092328757
0.405587792 0.413389027 0.078281879
0.453889489 0.429540396 0.079050377
0.495103121 0.445850641 0.086879447
0.533870935 0.461621016 0.098861516
0.575416327 0.470574558 0.109912440
0.623990297 0.477370024 0.119309753
0.677474618 0.483128250 0.128038377
0.734588981 0.487993777 0.136267990
0.794373512 0.492411017 0.144160703
0.856772184 0.497030258 0.152560502
0.921565175 0.502394974 0.162065029
0.989032507 0.509915531 0.173204497
0.286300004 0.413964331 0.180680558
0.292877704 0.416252047 0.177041754
0.314983130 0.423744321 0.162709564
0.349463046 0.435497850 0.137965366
0.391453952 0.449649632 0.112138122
0.435493439 0.465250641 0.095781498
0.479773164 0.480479181 0.093149498
0.519542038 0.495467186 0.097256571
0.555947363 0.510293007 0.106199317
0.593285561 0.524767935 0.118495494
0.635417759 0.533962011 0.130079821
0.684993029 0.541287720 0.140037820
0.739837646 0.547456622 0.149292693
0.798630714 0.552917719 0.158285007
0.860666037 0.557745099 0.166704327
0.925415099 0.563073814 0.175625518
0.991852701 0.570603251 0.185969114
0.338375121 0.472863138 0.191358507
0.343276560 0.474430650 0.188384935
0.360703111 0.479880124 0.176325127
0.389156073 0.489087820 0.156029314
0.424777895 0.501073003 0.135509878
0.463514864 0.515442252 0.118740126
0.502608240 0.530732393 0.111412376
0.541831017 0.545118153 0.112032071
0.578074872 0.559312463 0.116856508
0.613603234 0.573273063 0.125803694
0.651437759 0.587109268 0.138048381
0.695009947 0.596934557 0.150064930
0.746267915 0.604991853 0.160572514
0.802932739 0.611809969 0.170266449
0.863714814 0.617961407 0.179827631
0.927883327 0.623924494 0.189165890
0.993638635 0.631930768 0.199290246
0.381851673 0.527514994 0.208548188
0.385810435 0.528671265 0.205846310
0.400183439 0.532894731 0.195894748
0.423783988 0.540386200 0.179417193
0.454224795 0.551127791 0.162678376
0.489264876 0.564520419 0.147817001
0.525088012 0.579526365 0.136968881
0.560984731 0.594376802 0.132717699
0.597870827 0.608198881 0.132937923
0.633712769 0.621890008 0.137224376
0.670209944 0.635480165 0.145717129
0.709531188 0.649058938 0.157527432
0.755156994 0.659725010 0.169747874
0.808359325 0.668695092 0.180624828
0.867031813 0.676337063 0.190659136
0.929886937 0.683658361 0.200696886
0.994788289 0.692635119 0.211128369
0.418615997 0.580668271 0.235637248
0.421847880 0.581512988 0.233339250
0.433954149 0.584804654 0.224810630
0.454140335 0.591001511 0.210880071
0.480629981 0.600552499 0.195383266
0.511940479 0.612842917 0.182035252
0.545543134 0.627040029 0.170725256
0.579609096 0.642015696 0.162136197
0.614587486 0.656588554 0.157392263
0.651262105 0.670199275 0.155655950
0.688145995 0.683592618 0.157812268
0.726448059 0.697088957 0.165205181
0.768124998 0.710619569 0.176414758
0.816257477 0.722214520 0.188707083
0.871714950 0.732277393 0.199889138
0.932571530 0.741124272 0.210249081
0.995516539 0.751349032 0.220595509
0.448588461 0.633314967 0.274787098
0.451253206 0.634002864 0.272839367
0.461231083 0.636469364 0.265575200
0.478823960 0.641388237 0.253097802
0.502446711 0.649310112 0.237537727
0.530596614 0.660088599 0.223205730
0.562049508 0.673173130 0.211391240
0.595603406 0.687784791 0.201030165
0.629921913 0.702874422 0.191741988
0.665183604 0.717410743 0.184694469
0.702631831 0.730937958 0.179856405
0.741867840 0.744308531 0.178379223
0.782990932 0.757961094 0.183525696
0.827633440 0.771666944 0.194732964
0.878807425 0.784247816 0.207464904
0.936127782 0.795882285 0.219773471
0.995995939 0.808632553 0.231835768
0.476015657 0.686281085 0.317748666
0.478249401 0.686771274 0.316063792
0.486745030 0.688554704 0.309313536
0.502014518 0.692186058 0.297328591
0.522760391 0.698187172 0.281966805
0.548130393 0.707028806 0.265741050
0.577253699 0.718615949 0.251338065
0.609627366 0.732417107 0.239452466
0.644064784 0.747426271 0.228679657
0.679370761 0.762638867 0.218114153
0.715940118 0.777472973 0.208846912
0.755054176 0.791617751 0.201675341
0.796707034 0.805529058 0.198951527
0.840524971 0.819776416 0.204107776
0.886660933 0.834043205 0.217563048
0.939931035 0.848919809 0.233091652
0.996337891 0.864868164 0.247834519
0.501367331 0.738189399 0.359764785
0.503285885 0.738590896 0.358254582
0.510628402 0.740020216 0.352380097
0.523909032 0.742892683 0.341342241
0.542244792 0.747510076 0.326612353
0.565046787 0.754465282 0.309786528
0.591921806 0.764256835 0.292876214
0.622450292 0.777028143 0.277610272
0.655771077 0.792037129 0.264866084
0.691061676 0.807916999 0.253480852
0.728130400 0.823864639 0.242228836
0.767094135 0.839662194 0.232056618
0.808206677 0.855244696 0.226260051
0.851528943 0.870860100 0.228217810
0.896387637 0.886432171 0.239148259
0.943072855 0.900947511 0.256804943
0.996374369 0.920356512 0.273119271
0.524052024 0.793784022 0.400261015
0.525766671 0.794149637 0.398910075
0.532152116 0.795574009 0.393777370
0.543740511 0.798101783 0.384088635
0.559940457 0.801969767 0.370269507
0.580451488 0.807637453 0.353394300
0.605160236 0.815870285 0.335413367
0.634020269 0.827164710 0.318309069
0.666525483 0.841345489 0.303299487
0.701775610 0.857269764 0.290114760
0.739319146 0.873965502 0.278643519
0.779183507 0.891170502 0.269271016
0.821320295 0.908821225 0.264200985
0.865315676 0.927253067 0.269764513
0.909047425 0.944901526 0.282580405
0.953707874 0.960287452 0.298263937
0.996935010 0.981024027 0.351512015
0.001467188 0.005495625 0.017545313
0.012150000 0.010183126 0.023140313
0.033756062 0.017732188 0.024245748
0.071206577 0.025301313 0.026107501
0.123152450 0.032004252 0.026801439
0.183197379 0.037829936 0.028260438
0.245677263 0.043539062 0.031238005
0.309432954 0.050551377 0.035896067
0.373907924 0.058581006 0.042292815
0.438903987 0.066659808 0.050130874
0.504937649 0.075021185 0.058963686
0.572686315 0.084404558 0.068648435
0.642554820 0.094801500 0.079240747
0.713574409 0.106290080 0.090602197
0.786241412 0.118803583 0.102712333
0.861459255 0.132434025 0.115748137
0.941586435 0.147364751 0.130109489
0.011763750 0.032437503 0.044766560
0.022270314 0.037090309 0.042718124
0.047130499 0.045848623 0.039221939
0.087190829 0.053362750 0.037344940
0.141359448 0.058393192 0.034456499
0.201108247 0.062192619 0.034000874
0.261967272 0.065929376 0.036089566
0.323553413 0.070857257 0.040469564
0.385616064 0.076850623 0.046832316
0.448295623 0.083194308 0.054553561
0.512540460 0.090138935 0.063203625
0.578944087 0.098335810 0.072714061
0.647457600 0.108008012 0.083088003
0.717501879 0.119463459 0.094315074
0.789813042 0.131481692 0.106233709
0.864328444 0.144221574 0.119062893
0.943609536 0.158173189 0.133079484
0.027006064 0.064937375 0.069416881
0.037939623 0.069588438 0.066686809
0.067634188 0.081316121 0.057666190
0.111926757 0.093815625 0.048432373
0.170314103 0.100368567 0.042189501
0.231124684 0.104945622 0.039434560
0.290913582 0.108925879 0.040274128
0.350146711 0.113003567 0.044409629
0.409217179 0.117020190 0.050561313
0.469002277 0.121248126 0.057860624
0.530792952 0.126682818 0.066295005
0.594925642 0.134162247 0.075799316
0.660995066 0.143054307 0.086075939
0.728575110 0.152520701 0.097079068
0.799035728 0.163230583 0.108902454
0.871705890 0.174626201 0.121528827
0.949284196 0.186824441 0.135375559
0.049729068 0.102783822 0.090845242
0.059686441 0.107557438 0.087015942
0.088109449 0.119127385 0.077406071
0.137665510 0.138212904 0.058450185
0.200989380 0.150471509 0.050284624
0.262753457 0.157284513 0.047188628
0.321676314 0.162387505 0.047555879
0.379220068 0.166935697 0.050994001
0.436402172 0.171169579 0.056540687
0.494191676 0.175435826 0.063527875
0.553661108 0.180418015 0.071705557
0.615112901 0.186571196 0.080960751
0.678627431 0.193921521 0.091107748
0.744019091 0.201872841 0.101998761
0.811850786 0.210705400 0.113659516
0.881974161 0.220040470 0.125961140
0.957524598 0.230024889 0.139447689
0.076002315 0.144672945 0.104060315
0.083198562 0.149358183 0.101286627
0.111997753 0.160225496 0.096998878
0.162165120 0.179105625 0.069427691
0.228765070 0.199861437 0.054843251
0.291279823 0.212085754 0.055064250
0.349067062 0.219631374 0.057123821
0.404925048 0.224690318 0.060382377
0.460392714 0.228946179 0.065198250
0.516614199 0.233356819 0.071530186
0.574427307 0.238361865 0.079302251
0.633891582 0.244017318 0.088139057
0.695233583 0.250460684 0.097914688
0.758657277 0.257386178 0.108494394
0.824306726 0.264681071 0.119775765
0.892420173 0.272365808 0.131695002
0.966024995 0.280925632 0.144893244
0.100244008 0.190523177 0.115823306
0.107646689 0.194708616 0.115860566
0.137569189 0.204520062 0.116617061
0.190053269 0.223288566 0.084501125
0.253425300 0.244194537 0.060172625
0.318687320 0.264396608 0.059262559
0.373448014 0.276620001 0.065710932
0.426520079 0.284000933 0.071461126
0.480112880 0.288868576 0.076860994
0.534941256 0.293131441 0.082629681
0.591406465 0.297744930 0.089572065
0.649474204 0.302845478 0.097671941
0.709225357 0.308495194 0.106748246
0.771035194 0.314594448 0.116709448
0.835052609 0.320988297 0.127425089
0.901774704 0.327722102 0.138871893
0.973522186 0.335549772 0.151635319
0.128024831 0.239061028 0.132099643
0.136033267 0.242460072 0.134252146
0.168475822 0.252420604 0.135788888
0.220735580 0.270916373 0.101822376
0.281457335 0.291839123 0.069889128
0.344043225 0.311014056 0.063501820
0.398934782 0.330847472 0.071535818
0.446959287 0.342211813 0.081291206
0.496941209 0.349142045 0.089172438
0.549552798 0.354128331 0.096057191
0.604663014 0.358453244 0.102545947
0.661616266 0.362853944 0.109704129
0.720281839 0.367658406 0.117785439
0.781002998 0.372966677 0.126817629
0.844054639 0.378674507 0.136771888
0.909864306 0.384768128 0.147629946
0.979823470 0.392322510 0.159825131
0.169770405 0.291920751 0.156646445
0.178380787 0.294868082 0.157364011
0.209806845 0.305454224 0.149507120
0.258495629 0.322812796 0.117097870
0.314991206 0.342757940 0.082622878
0.373952776 0.361243784 0.071791820
0.425658524 0.379264891 0.076578200
0.470175683 0.397327572 0.088370010
0.513572097 0.407260805 0.099544570
0.562086821 0.413880587 0.108491451
0.614771068 0.419159055 0.116434313
0.670631468 0.423652589 0.123662561
0.728676260 0.427949399 0.130992576
0.788884938 0.432498842 0.138944566
0.851404786 0.437569320 0.147937581
0.916505694 0.443257511 0.158030823
0.985027790 0.450691700 0.169593990
0.223291889 0.349935561 0.175993368
0.232129633 0.352810502 0.173883066
0.259820431 0.362789899 0.159836307
0.302158862 0.378073096 0.130167633
0.352668881 0.395699143 0.098508812
0.404727906 0.413115084 0.084005691
0.453682989 0.429627597 0.085406199
0.495080411 0.446124136 0.094063126
0.533886909 0.461983502 0.106956437
0.575539827 0.471175909 0.118709117
0.624071777 0.477977186 0.128325939
0.677588761 0.483681649 0.137026608
0.734725237 0.488577187 0.145069301
0.794543803 0.492951512 0.152678594
0.856951416 0.497545898 0.160774007
0.921726644 0.502939761 0.169974521
0.989005923 0.510349214 0.180794626
0.281571805 0.411577702 0.185509190
0.289084822 0.413916230 0.182466120
0.311639547 0.421734005 0.168518499
0.346929789 0.434042960 0.143630072
0.389858752 0.448704243 0.117529437
0.434699446 0.464709580 0.100833625
0.479392111 0.480410248 0.098419994
0.519492924 0.495556235 0.103217445
0.555952013 0.510483086 0.112800628
0.593234062 0.525007427 0.125845820
0.635434568 0.534373820 0.138008505
0.684987962 0.541720808 0.148168117
0.739906967 0.547900498 0.157422125
0.798734069 0.553311527 0.166294068
0.860735834 0.558174074 0.174462378
0.925414979 0.563484251 0.183142513
0.991788447 0.570974827 0.193205744
0.335687310 0.471428007 0.195439994
0.341356188 0.472976565 0.192883819
0.358926743 0.478575289 0.181043133
0.387715936 0.488072872 0.160607517
0.423686594 0.500338912 0.139876947
0.462946385 0.514931202 0.123140246
0.502359211 0.530506670 0.115920871
0.541762173 0.545116067 0.117027812
0.578137040 0.559395850 0.122389503
0.613651872 0.573414445 0.131878629
0.651401758 0.587287545 0.144735560
0.695004940 0.597210705 0.157190740
0.746214390 0.605297267 0.167874694
0.802958131 0.612127066 0.177620202
0.863766849 0.618300080 0.187100068
0.927799404 0.624272466 0.196256265
0.993627429 0.632232785 0.206123501
0.379914492 0.526446283 0.212218195
0.384743869 0.527652562 0.209926948
0.399140924 0.531966209 0.200016573
0.422901362 0.539568484 0.183464229
0.453454971 0.550428629 0.166493446
0.488791645 0.564010561 0.151719049
0.524915814 0.579242229 0.141029820
0.560932398 0.594298184 0.137065381
0.597923815 0.608222842 0.137704000
0.633810282 0.621946514 0.142311007
0.670201898 0.635564268 0.151303008
0.709486187 0.649169266 0.163588375
0.755149901 0.659968972 0.176233441
0.808361471 0.668995082 0.187274650
0.867035329 0.676601768 0.197310075
0.929911852 0.683940470 0.207276702
0.994739592 0.692930102 0.217498064
0.417583674 0.580132544 0.239056885
0.421716928 0.581066906 0.237208396
0.433785319 0.584360778 0.228580013
0.453875959 0.590517104 0.214553267
0.480307132 0.600018680 0.198923826
0.511695981 0.612430632 0.185658678
0.545459747 0.626773596 0.174600571
0.579626143 0.641876757 0.166292265
0.614621937 0.656567633 0.161884442
0.651327193 0.670215905 0.160364822
0.688230634 0.683635890 0.162654623
0.726401269 0.697195172 0.170374379
0.768085301 0.710797071 0.181957573
0.816247344 0.722433805 0.194589451
0.871673763 0.732474387 0.205868706
0.932601750 0.741246760 0.216218516
0.995384753 0.751599133 0.226471186
0.447992772 0.633108854 0.278326333
0.451399654 0.633869946 0.276975960
0.461319327 0.636310279 0.269676685
0.478815824 0.641221583 0.257049650
0.502436221 0.649075031 0.241221547
0.530602932 0.659899950 0.226768419
0.562075973 0.673044384 0.215127796
0.595646918 0.687730074 0.205131158
0.629997611 0.702880859 0.196198657
0.665259123 0.717436373 0.189397722
0.702683270 0.730973780 0.184613094
0.741932988 0.744459748 0.183136329
0.782996893 0.758143842 0.188303828
0.827622950 0.771822512 0.199796408
0.878814101 0.784370661 0.212737337
0.936130404 0.795927823 0.225120008
0.996007740 0.808821380 0.237191319
0.475770831 0.686310351 0.321051419
0.478811204 0.686888754 0.319951296
0.487269729 0.688706636 0.313202262
0.502439499 0.692211807 0.301056862
0.523125887 0.698224187 0.285540164
0.548380315 0.707045555 0.269274861
0.577409506 0.718524933 0.254924983
0.609717131 0.732340157 0.243295610
0.644121647 0.747489929 0.232918650
0.679427266 0.762815714 0.222697139
0.715990186 0.777625978 0.213622674
0.755092800 0.791788518 0.206468970
0.796724379 0.805787206 0.203634903
0.840500057 0.819948792 0.208608478
0.886702657 0.834156096 0.222175121
0.939924002 0.848916233 0.237851351
0.996279836 0.865035176 0.252626449
0.501310110 0.738459468 0.363060266
0.503994167 0.739052534 0.362199724
0.511283398 0.740376949 0.356370479
0.524494290 0.743136048 0.345236182
0.542764187 0.747721195 0.330370337
0.565458894 0.754640102 0.313433200
0.592196882 0.764375448 0.296466619
0.622659445 0.777114987 0.281259179
0.655966997 0.792092621 0.268749148
0.691225588 0.808062732 0.257713288
0.728213787 0.824066222 0.246747851
0.767135441 0.839847326 0.236695603
0.808259010 0.855466962 0.230881482
0.851566017 0.871043205 0.232785612
0.896402299 0.886586785 0.243618757
0.943070829 0.901232600 0.261082858
0.996384621 0.920422852 0.277439207
0.524244189 0.794160843 0.403204739
0.526626408 0.794788957 0.402581334
0.532982051 0.796118855 0.397422403
0.544541478 0.798580587 0.387757748
0.560610652 0.802337408 0.373925358
0.581019819 0.807931483 0.357040375
0.605559945 0.816064954 0.338972420
0.634307861 0.827351630 0.321822286
0.666786671 0.841428518 0.306924433
0.702055514 0.857421458 0.294050306
0.739556670 0.874261796 0.282972693
0.779322624 0.891419530 0.273881018
0.821420729 0.909128726 0.268873274
0.865351081 0.927481413 0.274305582
0.909162521 0.945117235 0.287083209
0.953758359 0.960519075 0.302903235
0.996957481 0.981126189 0.355332315
0.002160000 0.011122500 0.035723250
0.009963186 0.015586875 0.042699002
0.024677124 0.021519501 0.047172248
0.061764639 0.027795438 0.046113312
0.114737883 0.033092625 0.050146624
0.176654130 0.036953248 0.054351814
0.240708396 0.040953252 0.058578875
0.305154622 0.046502754 0.063762940
0.369655669 0.053786125 0.069999754
0.434433043 0.062045313 0.077343568
0.500107229 0.070960626 0.085492499
0.566973567 0.080471873 0.094262309
0.635804236 0.090259135 0.104016006
0.706903696 0.100886710 0.114673696
0.780576587 0.113271639 0.126098260
0.856468201 0.126921192 0.138387829
0.937954009 0.142181128 0.152241871
0.009590062 0.035039499 0.062216502
0.019053623 0.040300436 0.063598938
0.035890311 0.046172686 0.060846440
0.077158198 0.053476688 0.058717813
0.133618757 0.057886690 0.059098065
0.195571110 0.060159814 0.061028436
0.257811278 0.062293939 0.063895941
0.320037365 0.066051684 0.068295255
0.382358074 0.071730249 0.074108630
0.445208937 0.078569315 0.081159875
0.509245396 0.086166874 0.089042939
0.574571729 0.094321318 0.097633123
0.641929150 0.103107750 0.107265875
0.711967885 0.113769829 0.117752954
0.784595132 0.125841886 0.129028648
0.859451711 0.138438627 0.141131580
0.940280735 0.153223187 0.154793620
0.025928499 0.068452001 0.086097002
0.034097064 0.071871944 0.087677188
0.055127252 0.080064997 0.085363626
0.103429005 0.096117437 0.078974627
0.167131141 0.104519621 0.075983621
0.232187197 0.108871624 0.075540058
0.294453502 0.112273753 0.076974496
0.354590535 0.115737692 0.080419183
0.413342506 0.119141132 0.085250251
0.472108454 0.123147123 0.091435000
0.532412887 0.128601253 0.098793998
0.594766736 0.135552183 0.107029192
0.659485579 0.143541127 0.116159871
0.726585507 0.152806386 0.126000524
0.796579123 0.163226381 0.136721775
0.869212866 0.174139380 0.148258895
0.947710514 0.187266365 0.161567256
0.047271505 0.105769068 0.110777140
0.054690570 0.109944507 0.111964136
0.078313068 0.120739073 0.107226126
0.131231904 0.140148446 0.093173683
0.198118895 0.155664518 0.088496447
0.263972491 0.162570015 0.086617999
0.325322449 0.167260259 0.086245939
0.383760214 0.171220213 0.088185437
0.440844446 0.174976259 0.092136748
0.497740239 0.178754330 0.097730756
0.555959702 0.183070198 0.104738124
0.616187394 0.188479826 0.112650305
0.678665578 0.195171639 0.121367626
0.743341386 0.202683449 0.130999953
0.810848415 0.211312979 0.141549453
0.881032825 0.220559269 0.152947888
0.956802905 0.231105015 0.165752634
0.074436881 0.147064760 0.129354507
0.081450008 0.151594236 0.128612444
0.103775375 0.165115371 0.121903881
0.160085693 0.183408260 0.104573064
0.227168769 0.204259261 0.089992747
0.292487055 0.217433259 0.092821941
0.351797789 0.224700391 0.094459996
0.408336848 0.229501814 0.096686006
0.463844270 0.233407125 0.100222751
0.519612253 0.237285748 0.105158128
0.576697707 0.241657764 0.111662373
0.635525048 0.246732324 0.119219311
0.696357369 0.252662033 0.127708748
0.759246647 0.259139895 0.137262702
0.824407339 0.266175151 0.147651255
0.892428875 0.273822069 0.158905759
