assets/photofx/luts/cinema-style/Cinema Style 03.cube
TITLE "17x17x17 Adobe/IRIDAS cube 3D LUT exported with GrossGrade v0.2.01 (beta) 64 bit"
DOMAIN_MIN 0 0 0
DOMAIN_MAX 1 1 1
LUT_3D_SIZE 5
0.058639999 0.054839998 0.047644001
0.203747749 0.061354749 0.054502249
0.470348507 0.080422997 0.080462009
0.675987005 0.113067001 0.120030254
0.843622983 0.101212002 0.128043994
0.073691003 0.234783262 0.061925501
0.232472748 0.238629252 0.061012998
0.466924012 0.250677526 0.093352258
0.670631766 0.258533269 0.126553014
0.841484010 0.246465504 0.118010752
0.119374000 0.494092017 0.103541508
0.223683506 0.498874515 0.086257249
0.531828046 0.500945032 0.098375008
0.712743521 0.494738519 0.116309747
0.825553536 0.547230482 0.166976511
0.193129763 0.675717294 0.157486260
0.259266019 0.678404748 0.133470267
0.524849296 0.680103302 0.128603756
0.724643767 0.681401730 0.148326248
0.865805268 0.686350465 0.155722752
0.322896987 0.811237991 0.248248994
0.366766006 0.812967777 0.225004256
0.547708035 0.816233516 0.174941003
0.734032989 0.816999733 0.183581248
0.871222973 0.817233026 0.292421013
0.064366251 0.058013000 0.173077002
0.219799995 0.065269746 0.200223252
0.522362530 0.073624752 0.190655500
0.695428550 0.106087998 0.201014251
0.851979733 0.086288504 0.208674505
0.068268754 0.237339258 0.209101766
0.232818753 0.239004493 0.208294511
0.501393557 0.238243759 0.211850017
0.687750816 0.249884486 0.229705751
0.858553529 0.196902737 0.208483741
0.104795247 0.496573508 0.205403998
0.262313008 0.496686041 0.225942999
0.532256782 0.501120508 0.224284500
0.703215778 0.510707259 0.238150746
0.844075263 0.530694485 0.183782756
0.189652264 0.676039219 0.235372752
0.315324754 0.676688254 0.257567257
0.534076512 0.680212796 0.241558254
0.724818289 0.681474984 0.252915502
0.865848005 0.688475549 0.258708507
0.351219773 0.810088277 0.321209490
0.440941989 0.810431242 0.342567235
0.557538509 0.816332042 0.270846248
0.736129284 0.817043543 0.277265757
0.871438980 0.817317963 0.355169266
0.086067498 0.070089996 0.370198011
0.252409011 0.064301997 0.367628515
0.503806472 0.100785509 0.411687493
0.718934536 0.096785501 0.411062002
0.860157490 0.123572499 0.419035494
0.067876995 0.222097754 0.407222033
0.267409027 0.235733017 0.402765751
0.515598774 0.253962755 0.418936282
0.719622254 0.254530728 0.419680297
0.860725224 0.262891769 0.427624762
0.094326496 0.498807013 0.428333521
0.252554238 0.498719722 0.430139780
0.532714963 0.501954079 0.428240001
0.713980258 0.501299024 0.431596041
0.861503482 0.476833999 0.420741975
0.132780254 0.679324269 0.421895266
0.280442506 0.679344535 0.429429531
0.554494023 0.679052293 0.440951020
0.725016236 0.681726813 0.440285265
0.864846528 0.691400528 0.432762742
0.275788993 0.813154995 0.454914510
0.429748982 0.811273515 0.475418270
0.611826539 0.812028527 0.479947031
0.737191558 0.817213237 0.452922016
0.871779025 0.817612529 0.484166533
0.127441749 0.094879754 0.527277231
0.330253541 0.085685499 0.490508974
0.517555535 0.086009748 0.568500757
0.704747498 0.147285745 0.571548283
0.860533237 0.130199000 0.586081266
0.070551991 0.248570740 0.523415506
0.293420970 0.245753497 0.549063265
0.538713694 0.244484752 0.568874240
0.708400548 0.281154752 0.574664712
0.861093998 0.272331774 0.588538527
0.095352262 0.483012557 0.582358778
0.249920994 0.492655516 0.581380010
0.570930779 0.494037747 0.570365727
0.715467274 0.513127744 0.580368042
0.862923265 0.513310254 0.591121554
0.133591250 0.680040777 0.585296512
0.278022766 0.680054069 0.586002767
0.551382303 0.679746270 0.589105010
0.725290537 0.682333052 0.587013721
0.866238475 0.677991986 0.585093737
0.189226002 0.816200972 0.593750298
0.316330492 0.816359282 0.595826268
0.566059530 0.816523015 0.597717285
0.741873026 0.815274239 0.599884987
0.872275531 0.818166494 0.601741791
0.183100000 0.112242997 0.674750984
0.385210514 0.110759251 0.639856756
0.609781981 0.065310001 0.671677470
0.722954035 0.113361262 0.724527001
0.854282022 0.184416994 0.720516980
0.073441997 0.271073759 0.670637488
0.326466262 0.226209491 0.718198001
0.660825253 0.121443763 0.715739250
0.727368772 0.260247529 0.725003242
0.855206251 0.307392240 0.721149743
0.068576500 0.497561991 0.717992485
0.165803522 0.511380553 0.724829495
0.592786074 0.485648513 0.721147001
0.736098528 0.502879262 0.726167738
0.858241498 0.527652502 0.723604500
0.267787009 0.677052498 0.727630258
0.349418044 0.681650281 0.727792263
0.549688578 0.687111020 0.728504002
0.754718781 0.673157573 0.727549255
0.863882780 0.688310266 0.728084028
0.194904000 0.816658974 0.732793987
0.321061492 0.816668272 0.732888758
0.565192461 0.817155480 0.733380556
0.733047485 0.817568481 0.734382987
0.872905016 0.819034994 0.735773027
