assets/photofx/luts/cinema-style/Cinema Style 06.cube
TITLE "17x17x17 Adobe/IRIDAS cube 3D LUT exported with GrossGrade v0.2.01 (beta) 64 bit"
DOMAIN_MIN 0 0 0
DOMAIN_MAX 1 1 1
LUT_3D_SIZE 5
0.000855000 0.000907000 0.000899000
0.185183004 0.085798256 0.072195247
0.404384524 0.173115507 0.130230993
0.611926794 0.259104252 0.191550002
0.839299023 0.356204003 0.264189005
0.057658751 0.178654507 0.088298000
0.160888240 0.228579506 0.128307506
0.421075046 0.272216260 0.170031264
0.618988514 0.327769279 0.215970516
0.846664250 0.409071237 0.283480257
0.146149516 0.444059014 0.222898006
0.197043508 0.470165491 0.237688750
0.459144533 0.498998046 0.288222015
0.659940243 0.535362780 0.323964268
0.868654490 0.575283527 0.357335508
0.238979265 0.676999807 0.423927754
0.254914522 0.688885033 0.431297511
0.460086286 0.721452236 0.395197511
0.722297251 0.738340020 0.479517758
0.905717254 0.783038020 0.505264759
0.449757993 0.908349991 0.619849026
0.481446743 0.916696787 0.609904528
0.596405029 0.932683468 0.578284502
0.767070532 0.950451732 0.588149786
0.942780972 0.944981992 0.708824992
0.018783750 0.063955501 0.111027502
0.116286501 0.086572006 0.175178751
0.394101262 0.166267768 0.205197006
0.617498040 0.264922023 0.254614770
0.840786517 0.368240267 0.320680737
0.044292502 0.193473756 0.177937001
0.119722754 0.232117742 0.229864001
0.412389010 0.284746766 0.242990762
0.619359195 0.349709243 0.289798498
0.848017514 0.428217500 0.345712245
0.136511251 0.449765533 0.296763003
0.182824507 0.476326764 0.320613503
0.431433052 0.504313529 0.368949503
0.656564474 0.539491773 0.376348734
0.868237734 0.581734717 0.407437980
0.232787520 0.683342576 0.457709521
0.265456498 0.696575522 0.472970754
0.467682064 0.726182818 0.458432525
0.722160816 0.742522478 0.512744725
0.905548036 0.787014008 0.536240518
0.459653497 0.912147999 0.642757237
0.494347751 0.920704961 0.635721505
0.602435708 0.935729504 0.607122004
0.767378747 0.951826274 0.613227308
0.943583250 0.946705520 0.731013000
0.047092006 0.168693006 0.297411025
0.104351759 0.145750999 0.341340512
0.299146503 0.153627008 0.411147535
0.614465833 0.256715238 0.413580000
0.843978047 0.360074997 0.451871037
0.054504752 0.260087252 0.316816509
0.099557996 0.271514237 0.384607494
0.339078307 0.289939255 0.437344044
0.628306746 0.362097502 0.448240787
0.847009778 0.436183512 0.476850778
0.114523508 0.481989026 0.440459520
0.160502762 0.495103270 0.468005776
0.416550040 0.524960041 0.522045970
0.649920762 0.553532541 0.508701801
0.855904460 0.602950990 0.543550968
0.262163520 0.700804234 0.560940027
0.320584297 0.711689830 0.572508752
0.497999519 0.737513304 0.590753496
0.713272035 0.750818491 0.609667480
0.900274515 0.794429004 0.629646540
0.491409004 0.923424006 0.722267509
0.520670772 0.929402471 0.721088529
0.611886501 0.942746997 0.705709517
0.765447259 0.955881000 0.698512971
0.945883512 0.953684509 0.801828980
0.091622502 0.273757517 0.536365271
0.147063494 0.242489010 0.563633025
0.289581507 0.217786252 0.572938800
0.612128735 0.296951741 0.608419299
0.827557504 0.391561508 0.646720767
0.089017257 0.365998268 0.530903816
0.145138264 0.370075762 0.565000772
0.347430527 0.357111275 0.612066507
0.634615481 0.386326998 0.629560471
0.837308049 0.457807273 0.657314062
0.152385518 0.556957006 0.593617499
0.205984280 0.567671537 0.608664751
0.433116496 0.579963744 0.648306966
0.662381291 0.593781531 0.668577313
0.862925231 0.629404783 0.690025508
0.351461500 0.733269989 0.689049482
0.394345999 0.742670238 0.699898839
0.535017967 0.765951335 0.728719532
0.713226318 0.781272292 0.749438465
0.892912209 0.806637049 0.753950953
0.555841267 0.934208751 0.840008259
0.578049779 0.938748479 0.842140019
0.651593745 0.948325515 0.844173014
0.777580321 0.958209753 0.841136992
0.952816486 0.965668738 0.896153271
0.185005993 0.433807999 0.715597987
0.271829486 0.419037014 0.742415011
0.410360515 0.368119985 0.760500491
0.672191501 0.360155523 0.777351737
0.834724009 0.440398008 0.811362028
0.216834009 0.510728717 0.728896737
0.304049253 0.508831024 0.746922016
0.453466028 0.469449997 0.799713790
0.686073720 0.419925004 0.811309457
0.844259977 0.504340470 0.824565768
0.311865509 0.654677987 0.753273487
0.369499743 0.663213015 0.763684213
0.535581946 0.676012516 0.813476503
0.688889503 0.629295230 0.846846998
0.875154495 0.660432458 0.861634493
0.449822277 0.819395006 0.854365230
0.484821260 0.828325748 0.861755967
0.585181952 0.843827009 0.882104278
0.723894000 0.846168280 0.895308971
0.906503022 0.830753267 0.914185762
0.649698019 0.948559999 0.927609980
0.664454043 0.950135231 0.928374231
0.718726516 0.955312014 0.931515992
0.826370299 0.961358488 0.936821461
0.971383989 0.970389009 0.954078019
