assets/photofx/luts/cinema-style/Cinema Style 12.cube
TITLE "17x17x17 Adobe/IRIDAS cube 3D LUT exported with GrossGrade v0.2.01 (beta) 64 bit"
DOMAIN_MIN 0 0 0
DOMAIN_MAX 1 1 1
LUT_3D_SIZE 5
-0.044337001 -0.036763001 -0.033950999
0.145689502 0.015074752 0.013466251
0.474376500 0.109200507 0.078904510
0.717626512 0.228194505 0.190855756
0.858714998 0.281574011 0.238851994
-0.013374999 0.233291999 0.043403000
0.199673504 0.236715734 0.077627003
0.557828546 0.310819238 0.153996021
0.807983518 0.396010756 0.247203499
0.923220754 0.421227485 0.279163241
0.065570511 0.507179499 0.139856502
0.328580260 0.524635077 0.198868245
0.593102574 0.584339023 0.283539534
0.880024314 0.576970458 0.325130522
0.942590475 0.564232469 0.334996521
0.142245516 0.734746039 0.239393011
0.383931518 0.758093238 0.295619249
0.593456030 0.808339775 0.373562992
0.846951723 0.868739009 0.459641755
0.923054755 0.734021246 0.406102508
0.206660002 0.904347003 0.314377993
0.383867741 0.918859005 0.355079740
0.560787499 0.940039515 0.419144511
0.767743528 0.952908516 0.477793515
0.910893977 0.978682995 0.529199004
-0.039538000 0.022518750 0.161128253
0.161941499 0.045073755 0.176745251
0.545563579 0.150278255 0.218044013
0.776996255 0.254816234 0.296264499
0.892122507 0.292479515 0.318397254
-0.029843250 0.223977759 0.190622494
0.103253752 0.244563252 0.216897756
0.552317739 0.310203791 0.256857008
0.798942327 0.384809017 0.330235720
0.934124470 0.424376756 0.362791002
0.054811250 0.526615500 0.277964503
0.241845489 0.546708941 0.271888256
0.586094499 0.597909808 0.364715010
0.870915473 0.593273997 0.393950999
0.941637754 0.590711772 0.411432505
0.092635013 0.692086518 0.322322011
0.341425240 0.772243023 0.359520525
0.581558824 0.801987708 0.449135274
0.846019030 0.864272296 0.516532481
0.925179005 0.742544770 0.462233275
0.209633008 0.897970557 0.374328732
0.378463507 0.955400467 0.430264026
0.553195477 0.943053246 0.476671219
0.764878750 0.952430725 0.545621037
0.916591227 0.973878264 0.588539481
-0.019582994 0.103043504 0.312963009
0.116733506 0.120363005 0.338578284
0.558701038 0.202641994 0.347834021
0.834542215 0.295696497 0.397895753
0.941485524 0.327719510 0.402229488
0.005982756 0.284473240 0.323905498
0.127633005 0.291570246 0.351303041
0.552183270 0.357404500 0.402024269
0.840403557 0.431985766 0.446929753
0.949729562 0.459272981 0.456905484
0.068590999 0.504022956 0.406815052
0.170418248 0.530484319 0.441873759
0.459988505 0.581010044 0.543234587
0.795093536 0.657529771 0.586620569
0.934157014 0.686792970 0.600201964
0.129393756 0.782575250 0.548213482
0.208852261 0.771404207 0.522833526
0.499326527 0.808813751 0.559805989
0.843803227 0.855465531 0.633020759
0.951447487 0.813260019 0.629813492
0.160215005 0.917390466 0.503903985
0.257979989 0.920724511 0.493963003
0.536098480 0.967164040 0.578240514
0.790110469 0.957194507 0.644159257
0.952929497 0.975396514 0.684238493
0.049410507 0.169032753 0.456360251
0.160960749 0.178390756 0.470477760
0.480075508 0.234948993 0.491051257
0.821022749 0.329983532 0.534891248
0.947708011 0.354949504 0.508993983
0.072996750 0.330879748 0.473878741
0.178190738 0.339059502 0.499335974
0.406396031 0.378007501 0.577216566
0.798260987 0.466390997 0.620509505
0.939018726 0.489771754 0.580695271
0.111361004 0.512589753 0.544135332
0.207737759 0.533280492 0.576039016
0.311439216 0.587101996 0.655332804
0.760591269 0.647432804 0.691259980
0.925300956 0.697619021 0.667385995
0.146744251 0.730438471 0.620608687
0.233311757 0.745578289 0.637849748
0.314730704 0.774927855 0.677872241
0.781013966 0.853341758 0.711972773
0.937995493 0.883232474 0.729178786
0.171590254 0.871646225 0.649346471
0.257352978 0.895754039 0.670918286
0.321662486 0.914214492 0.687684774
0.774643540 0.965330958 0.729788244
0.955306530 0.975219786 0.745550513
0.090567999 0.203501001 0.540624022
0.180555493 0.208741993 0.546151757
0.303148031 0.243997008 0.588973522
0.631043255 0.307288527 0.606487513
0.903603017 0.385560006 0.693731010
0.104425751 0.346262991 0.558179498
0.203291506 0.370994508 0.586376548
0.272579491 0.388092518 0.624577999
0.630314231 0.444179505 0.695752263
0.910626292 0.513914764 0.743550003
0.139472499 0.489271522 0.608358502
0.231865257 0.513859272 0.635669768
0.324171007 0.594008982 0.692172527
0.537929058 0.639628053 0.771745741
0.890781999 0.686398506 0.762673020
0.157547250 0.655786991 0.647769213
0.241774499 0.672711551 0.664480507
0.325967252 0.712579727 0.706357479
0.733565271 0.850304008 0.771693289
0.939736724 0.883271217 0.754841983
0.180435002 0.828055978 0.689957976
0.267657012 0.844237745 0.707599759
0.331393480 0.859834492 0.732304454
0.732031763 0.935633004 0.792181790
0.954033971 0.966564000 0.774939001
