assets/photofx/luts/cinema-style/Cinema Style 01.cube
TITLE "17x17x17 Adobe/IRIDAS cube 3D LUT exported with GrossGrade v0.2.01 (beta) 64 bit"
DOMAIN_MIN 0 0 0
DOMAIN_MAX 1 1 1
LUT_3D_SIZE 17
-0.036729999 -0.038451001 -0.040270999
0.050805315 -0.035986312 -0.038390376
0.117206760 -0.030528251 -0.033512875
0.177531570 -0.019514993 -0.024085809
0.238115996 0.014234250 -0.004163748
0.295797050 0.046545811 0.031793438
0.354293644 0.065936133 0.053163756
0.411882401 0.080836006 0.065847948
0.468098521 0.096031502 0.078936502
0.524873734 0.110034809 0.090954497
0.581318796 0.123807997 0.103133745
0.636061907 0.138993636 0.116838433
0.690193057 0.153432012 0.129811004
0.741829991 0.166410580 0.141700387
0.787931681 0.181688756 0.155799389
0.830206275 0.198558897 0.171555698
0.874683976 0.211291999 0.183476001
-0.033389688 0.049648680 -0.021759124
0.055216249 0.051569626 -0.037203498
0.122826070 0.051903687 -0.033854626
0.180090398 0.053428188 -0.024432741
0.239988953 0.060328696 0.009415562
0.298773885 0.071290061 0.034509748
0.356285214 0.082929254 0.052169066
0.413494319 0.094395071 0.065205760
0.470606714 0.105921574 0.077631071
0.527122080 0.118088253 0.090415999
0.582627296 0.131477311 0.103669249
0.637860596 0.145080194 0.116617814
0.692508161 0.157802939 0.129072130
0.742986321 0.171265706 0.142206088
0.788523078 0.186369643 0.156570449
0.832217395 0.200664341 0.170067206
0.875766814 0.214287311 0.183329746
-0.015649501 0.113520503 0.020529127
0.036865316 0.118783057 -0.017574251
0.125087127 0.116254620 -0.018086752
0.186576635 0.115234807 0.007215129
0.242239758 0.114792757 0.022067878
0.299418211 0.117739566 0.038429435
0.356524408 0.122537874 0.051191382
0.413876653 0.128983498 0.063165076
0.471120030 0.136867136 0.075612381
0.528342247 0.145620495 0.088325255
0.585099638 0.155285120 0.101254754
0.641126990 0.165715188 0.114296496
0.695790768 0.176435754 0.127553388
0.746667445 0.187645704 0.140962958
0.792975664 0.199772269 0.154527396
0.836367190 0.212510213 0.168194130
0.878863871 0.226498991 0.183202744
0.028335191 0.173421696 0.079031818
0.045852505 0.176583767 0.062168010
0.104735866 0.179793820 0.032561511
0.187758714 0.176322758 0.028125193
0.247636825 0.174005076 0.034693316
0.303991944 0.173047572 0.042892564
0.359226525 0.173664391 0.053106632
0.415011913 0.176241934 0.063962884
0.471116513 0.180269331 0.074928939
0.527382851 0.185722947 0.086417437
0.584093034 0.192587316 0.098891065
0.640684724 0.200622320 0.112254880
0.695694327 0.209517881 0.126171127
0.746848881 0.218944281 0.140086070
0.793635964 0.228972718 0.153973892
0.837497771 0.239752769 0.168243632
0.880640686 0.251775086 0.183437869
0.055565253 0.231730253 0.119921997
0.065750435 0.233603925 0.111359067
0.091545500 0.238956124 0.078842878
0.172985569 0.238876700 0.057997316
0.250066996 0.235455006 0.051580504
0.308875263 0.232397065 0.051133692
0.365369141 0.231117994 0.056466255
0.419627249 0.230479881 0.064982884
0.473675758 0.231458262 0.075435504
0.528506517 0.234082878 0.086603880
0.584067881 0.238221243 0.098184004
0.639722049 0.243568867 0.110233128
0.694316030 0.250113010 0.123035759
0.745725214 0.257863820 0.136919200
0.793066859 0.266665995 0.151932135
0.837302804 0.276028961 0.167022273
0.880787492 0.286376506 0.182613999
0.073019564 0.289748132 0.154931560
0.083547436 0.290671259 0.150576621
0.099585496 0.295507014 0.124859557
0.142658517 0.300545275 0.083459184
0.238587454 0.297273874 0.074908435
0.311607718 0.294073492 0.067184687
0.369324565 0.290296316 0.065106250
0.425566912 0.288733184 0.069019444
0.480008960 0.287888438 0.076211192
0.533050895 0.287905812 0.086100563
0.586429834 0.289399683 0.097481690
0.640630126 0.292550325 0.109546065
0.694509923 0.297136694 0.122001946
0.745292425 0.302747428 0.134822652
0.792135000 0.309425741 0.148408577
0.836337328 0.317146063 0.162752256
0.880350053 0.326708257 0.179367885
0.094352379 0.346971899 0.191511258
0.100719251 0.347801894 0.187903449
0.113886759 0.351491272 0.169533134
0.136066511 0.357811511 0.127732381
0.209132627 0.359533757 0.095681630
0.301943630 0.354918510 0.090622507
0.372206777 0.352152884 0.082001254
0.429534346 0.348354876 0.079076067
0.485726625 0.346786380 0.082178004
0.540470421 0.345977962 0.088198319
0.593254566 0.345568657 0.096959628
0.645042658 0.346043438 0.107825130
0.696683288 0.348320246 0.120277129
0.746198893 0.352268279 0.133421451
0.792613029 0.357472003 0.146783397
0.836450994 0.363620251 0.160592690
0.880068481 0.371440142 0.175621003
0.111045696 0.403978080 0.227612138
0.117090315 0.404528767 0.225056529
0.129172698 0.407318532 0.211881384
0.145668939 0.412871480 0.178287446
0.183669195 0.418525159 0.129920527
0.278530985 0.417001039 0.112433888
0.363984168 0.412134141 0.106161013
0.432354510 0.409784585 0.096640132
0.489407539 0.406103462 0.093052074
0.545795619 0.404940158 0.095788062
0.600564957 0.404289722 0.101116888
0.653486848 0.404093236 0.108860373
0.703429163 0.404172897 0.119008131
0.750342607 0.405702591 0.131141454
0.794782281 0.408912718 0.144577146
0.837503970 0.413620472 0.158717573
0.880973160 0.420338094 0.173333123
0.129298002 0.460116506 0.264163017
0.133966386 0.460586458 0.262135863
0.144299373 0.462784648 0.252045512
0.159637123 0.467288941 0.226367325
0.180309504 0.473790765 0.179358751
0.242669433 0.477182746 0.135971263
0.345318407 0.473492891 0.129736632
0.425210774 0.468962699 0.121753126
0.491959006 0.466767013 0.111604497
0.548913598 0.463449448 0.107379884
0.605435371 0.462849498 0.109814130
0.659919262 0.462575346 0.114847630
0.711645961 0.462849528 0.121913761
0.758055329 0.463165283 0.131146818
0.800494194 0.464257151 0.142622769
0.841319084 0.466936648 0.155953944
0.883453965 0.472056508 0.170782998
0.147214308 0.515525162 0.300711244
0.150940746 0.515941799 0.299012244
0.160460994 0.517693102 0.290906936
0.174129486 0.521359265 0.271030098
0.190698057 0.527156651 0.232692510
0.223263189 0.533320725 0.178111181
0.311545163 0.533518076 0.150082886
0.409798712 0.529076219 0.146672308
0.485931337 0.525224566 0.137433246
0.551099777 0.523011804 0.126806870
0.608216763 0.520509601 0.122211248
0.664069593 0.520224392 0.124251120
0.716761708 0.520499945 0.129034117
0.764431775 0.521124542 0.135639206
0.807778418 0.522136509 0.144201756
0.848335862 0.523714960 0.155103520
0.888802648 0.526780546 0.168077558
0.163162500 0.570235252 0.336551875
0.167058170 0.570477724 0.335393876
0.176174879 0.571827650 0.329268992
0.189071000 0.574818552 0.313044578
0.205008119 0.579563379 0.283141136
0.224380121 0.585944116 0.232664198
0.276375413 0.590224624 0.180042744
0.382242620 0.587817490 0.168740064
0.472730130 0.583477855 0.163538009
0.546226442 0.580440998 0.153346375
0.609976649 0.578356743 0.142310113
0.666623831 0.576617360 0.137311056
0.720021009 0.576660514 0.139036611
0.768490553 0.577525437 0.143585831
0.812810063 0.578737557 0.150129393
0.854680479 0.580566525 0.158138633
0.895953536 0.583418131 0.168538630
0.182657197 0.621850252 0.372533113
0.185194060 0.622082174 0.371435910
0.192874998 0.623170972 0.366545945
0.204265878 0.625547826 0.353022009
0.219459862 0.629259527 0.328929573
0.236193568 0.634401619 0.288267642
0.262722641 0.640042245 0.228386059
0.341009378 0.641535878 0.189569250
0.449890345 0.638194799 0.187293440
0.534583807 0.634325266 0.180382684
0.606008172 0.632183671 0.169632316
0.667964101 0.630438030 0.158337623
0.722317278 0.629433692 0.152780935
0.771172047 0.629875362 0.154222503
0.816369534 0.631379962 0.158651561
0.858751118 0.633094907 0.165084273
0.901344419 0.636226535 0.173329875
0.197391257 0.667426288 0.406791270
0.200768739 0.667514443 0.406110197
0.209261373 0.668256640 0.401985377
0.220018506 0.669928908 0.391296923
0.234266996 0.672628284 0.371707022
0.250697672 0.676366985 0.339445442
0.268343866 0.681144774 0.286860645
0.314235598 0.684798121 0.229395181
0.414870024 0.684069276 0.208173007
0.515719533 0.681251645 0.205604255
0.595880330 0.678173006 0.197311372
0.664943278 0.676786423 0.186205685
0.723343313 0.675420225 0.174542502
0.773174107 0.675219297 0.168690071
0.818551302 0.675958872 0.169890761
0.861804068 0.677866936 0.174322009
0.904868245 0.680549502 0.180831999
0.218170390 0.705321550 0.440725207
0.220031142 0.705450535 0.439938664
0.226348087 0.706010818 0.436718166
0.235910833 0.707262516 0.427852899
0.249329075 0.709275842 0.411412895
0.265258700 0.712092876 0.385336101
0.282111257 0.715723932 0.343896121
0.305944979 0.719890952 0.282778025
0.374333888 0.721661448 0.235106021
0.486328244 0.719821393 0.228148147
0.579999387 0.717545271 0.223977044
0.656318069 0.715260029 0.214719728
0.721170902 0.714217603 0.203155965
0.774081171 0.713266075 0.191280290
0.820485055 0.713621378 0.184954092
0.863852739 0.714918852 0.186092079
0.907687664 0.717467725 0.190679699
0.232343361 0.738555908 0.472219288
0.235433117 0.738604188 0.471803069
0.243527740 0.738920331 0.469135135
0.252595514 0.739862204 0.462055385
0.264993787 0.741423547 0.448779523
0.280306518 0.743658841 0.427433729
0.297040552 0.746584535 0.394641787
0.313838005 0.750391901 0.342489094
0.352827162 0.753683507 0.280532539
0.444165915 0.753841817 0.248485163
0.554837883 0.751687646 0.247855410
0.642617106 0.749563575 0.242303610
0.714379668 0.747960329 0.232388303
0.772576928 0.747200787 0.220290825
0.821095765 0.746389031 0.208208412
0.865786910 0.747425556 0.201795399
0.909672081 0.749490142 0.203159392
0.243927300 0.768959880 0.501963794
0.245354801 0.769037068 0.501357675
0.251014084 0.769476354 0.499079525
0.261031032 0.770265937 0.493108511
0.278907508 0.771481335 0.482706666
0.298721969 0.773266435 0.465801597
0.319332242 0.775599003 0.440625101
0.339765549 0.778554976 0.402121812
0.363947064 0.782109201 0.344630241
0.425165236 0.784039974 0.295771122
0.529622316 0.783056855 0.280941904
0.627381802 0.781309962 0.277974159
0.706619203 0.779681802 0.270761490
0.769303381 0.778522253 0.258684754
0.821155727 0.777955890 0.244366482
0.866509616 0.777674139 0.228911191
0.912008345 0.779794753 0.222556815
0.110418998 0.803246975 0.517395020
0.112826496 0.803433537 0.516599059
0.122870125 0.803900123 0.513300598
0.149821341 0.804514229 0.507019460
0.239518523 0.804290771 0.501603723
0.335768491 0.803472042 0.496030927
0.419435382 0.802692413 0.489776880
0.492717922 0.802059948 0.483179688
0.556924522 0.801786542 0.476729006
0.614896297 0.801808774 0.471729934
0.669860601 0.801873088 0.468036741
0.720575631 0.802135646 0.462657362
0.764818788 0.802943766 0.452367246
0.803885937 0.804467380 0.433197021
0.839680791 0.806415498 0.399252206
0.876740515 0.808338761 0.357318550
0.915538013 0.810254991 0.295917988
-0.035605002 -0.036770064 0.029266194
0.049184378 -0.034888502 0.035025254
0.121542804 -0.032072060 0.036159497
0.185073495 -0.023647616 0.035662629
0.243174925 0.011494129 0.041997809
0.299329430 0.043967687 0.053593814
0.355863631 0.064731129 0.065695629
0.412587792 0.080711320 0.076295629
0.468918264 0.095667571 0.087055571
0.524914324 0.110156499 0.097938254
0.580535948 0.124886692 0.110014252
0.635872185 0.139462367 0.122677185
0.690265715 0.153397128 0.134577498
0.740957737 0.167958945 0.147257507
0.787025928 0.183506891 0.161232382
0.830576301 0.198124647 0.174746707
0.874328673 0.212312013 0.187595367
-0.033873439 0.051377442 0.042511195
0.056657184 0.052067436 0.041017748
0.118866488 0.055362497 0.047191996
0.180775255 0.059105374 0.046252377
0.239460930 0.064912878 0.049460307
0.297509938 0.074896805 0.056955874
0.354815513 0.086126126 0.067780316
0.412244827 0.097043134 0.077436566
0.468623072 0.109072879 0.088329136
0.524368882 0.122206882 0.100484937
0.580617487 0.135060444 0.112434693
0.636717200 0.147524878 0.123936251
0.690663576 0.161092505 0.136637822
0.740512431 0.175961256 0.150691196
0.787264287 0.189579204 0.163247585
0.831795216 0.202401400 0.175282940
0.874500215 0.217545122 0.189562246
-0.017316248 0.114726879 0.067101687
0.058844246 0.115117632 0.065937243
0.119209565 0.118282810 0.052084498
0.185242757 0.117681690 0.051576816
0.243721768 0.118565693 0.054486383
0.300592959 0.121094696 0.061272249
0.356585592 0.125111997 0.067997873
0.412673473 0.130891383 0.075881071
0.469452888 0.138330564 0.085453562
0.526637733 0.147166178 0.096636742
0.583441913 0.157066628 0.108823180
0.639663100 0.167412817 0.121040754
0.694645584 0.177943319 0.133302942
0.745642245 0.189314127 0.146308064
0.791702926 0.202255324 0.160476133
0.834768713 0.215527058 0.174519077
0.877952576 0.228677928 0.188595250
0.024405630 0.173890382 0.097024813
0.064136624 0.174369454 0.094586313
0.104805432 0.179553509 0.068671197
0.185515940 0.177692443 0.060391933
0.247499451 0.175870135 0.061580561
0.304894179 0.175658137 0.066250004
0.360967398 0.176584333 0.072510689
0.416629046 0.178882584 0.079584315
0.471738636 0.182299331 0.087188244
0.526980817 0.187128752 0.096031189
0.583001494 0.193616882 0.106662810
0.639406562 0.201535016 0.118776813
0.694725811 0.210387573 0.131739944
0.746189833 0.219763413 0.144931197
0.792976677 0.229977980 0.158657879
0.836747169 0.240864083 0.172650501
0.880152881 0.252639502 0.187255874
0.052067064 0.231959939 0.130361617
0.077707686 0.232325375 0.127913252
0.104095131 0.237268433 0.104933813
0.168086335 0.239677638 0.077422187
0.248826861 0.236191317 0.072238497
0.308511555 0.233588189 0.071621880
0.364746779 0.232097059 0.074878938
0.420100629 0.232190058 0.081414819
0.475072384 0.233618766 0.089714944
0.529950738 0.236182079 0.098654628
0.584974408 0.239956573 0.108146250
0.639970124 0.244853616 0.118294872
0.694053769 0.250988930 0.129576936
0.745137513 0.258475423 0.142378643
0.792487144 0.267225891 0.156672627
0.836813331 0.276584625 0.171195447
0.880512416 0.286902040 0.186204240
0.073524497 0.289639771 0.163209990
0.094731316 0.289783508 0.162106380
0.113239624 0.293877810 0.143474072
0.145824775 0.300094306 0.102775373
0.235471383 0.298111558 0.089620873
0.310993880 0.294712633 0.083219938
0.369273901 0.291463703 0.081693746
0.424853444 0.289331615 0.084281065
0.479850382 0.288886279 0.090399563
0.533667684 0.289340109 0.098855183
0.587591708 0.291115522 0.108723558
0.641933262 0.294292122 0.119276933
0.695513129 0.298599482 0.130273059
0.745748997 0.303840399 0.141840130
0.792201996 0.310252249 0.154235572
0.836148977 0.317749381 0.167600080
0.880039990 0.327155411 0.183282569
0.092985190 0.347048163 0.197530955
0.106797375 0.347375631 0.196015328
0.125706121 0.350273281 0.182604879
0.145449400 0.356674194 0.145195827
0.205871880 0.360044450 0.108100571
0.300491810 0.355873615 0.103042141
0.372141421 0.353027254 0.095191881
0.428992093 0.348570019 0.091949128
0.484514803 0.346475810 0.094014376
0.539539278 0.346036136 0.099568442
0.593062103 0.346248448 0.107868627
0.645707667 0.347315639 0.118109502
0.697704256 0.349792063 0.129576638
0.747110963 0.353602618 0.141597524
0.793307483 0.358652234 0.153808519
0.836824834 0.364580393 0.166646585
0.880273759 0.372132957 0.180789441
0.111397445 0.403913051 0.232558012
0.123661444 0.404067546 0.231642276
0.138377115 0.406385541 0.221630439
0.155274183 0.411837786 0.191400573
0.186960012 0.418129146 0.143428028
0.275463283 0.417597413 0.121929146
0.363094807 0.412792921 0.116641127
0.432338387 0.410490721 0.107829198
0.488819659 0.406137615 0.103883505
0.544541597 0.404362887 0.105614133
0.599255443 0.403838992 0.110466190
0.652696013 0.404096961 0.117968068
0.703210115 0.404639423 0.127649069
0.750444889 0.406443805 0.139171138
0.795319140 0.409945041 0.152108327
0.838156879 0.414707661 0.165629029
0.881421864 0.421209037 0.179448813
0.129186749 0.460117698 0.268084496
0.138547003 0.460298210 0.267252743
0.152700126 0.462110609 0.259382874
0.167775244 0.466433287 0.236150444
0.187203005 0.473032683 0.191690147
0.241772994 0.477275848 0.145805880
0.343470693 0.473978460 0.138061747
0.424439162 0.469325066 0.130700305
0.491966724 0.467327893 0.121131316
0.548458040 0.463477910 0.116674811
0.604442775 0.462334901 0.118362561
0.658718586 0.462016910 0.122865006
0.710665464 0.462502182 0.129602686
0.757330716 0.463153303 0.138484314
0.800366461 0.464677185 0.149817213
0.841595054 0.467588127 0.162792638
0.883717299 0.472779304 0.177070439
0.146875992 0.515582800 0.303880244
0.154123560 0.515787840 0.303053766
0.167352930 0.517260075 0.296560198
0.181168690 0.520725429 0.278467566
0.197760865 0.526443005 0.242417186
0.226262942 0.532985568 0.188266486
0.309245706 0.533817470 0.157294512
0.408487469 0.529507399 0.154037252
0.485292047 0.525496662 0.145275682
0.551168323 0.523518443 0.135141939
0.607737660 0.520299375 0.130069315
0.663432419 0.519914865 0.131799936
0.715954363 0.520082593 0.136218444
0.763658106 0.520855546 0.142526969
0.807320058 0.522058129 0.150752261
0.848042607 0.523810506 0.161334887
0.888663888 0.527118385 0.174206197
0.163752183 0.570200324 0.339345604
0.170600995 0.570292652 0.338824004
0.182500944 0.571439326 0.333821774
0.195158809 0.574319899 0.318921238
0.211069822 0.579032362 0.290426821
0.229499996 0.585440755 0.241681859
0.277197659 0.590120018 0.188328445
0.380404711 0.588066339 0.174700499
0.471819371 0.583791316 0.170057207
0.545756042 0.580624998 0.160322070
0.610017657 0.578724980 0.149697825
0.666291058 0.576557755 0.144336253
0.719602764 0.576465070 0.145790815
0.767924905 0.577264786 0.150043696
0.812384665 0.578505754 0.156250626
0.854204535 0.580445945 0.163917944
0.895471990 0.583432198 0.174303129
0.182140931 0.621907115 0.374684989
0.186788112 0.622018397 0.373965949
0.198286057 0.622859299 0.370025247
0.209726378 0.625159919 0.357676864
0.224790633 0.628835559 0.334653735
0.241536364 0.633955717 0.295574069
0.266037017 0.639723539 0.236731052
0.340151429 0.641577840 0.195918009
0.448604524 0.638381779 0.192724183
0.533951998 0.634527624 0.186241195
0.605624497 0.632309794 0.175883621
0.668003201 0.630741119 0.164806068
0.722027600 0.629422843 0.159057617
0.770873845 0.629768848 0.160309300
0.816030562 0.631221473 0.164565265
0.858333468 0.632953882 0.170691133
0.900837600 0.636132181 0.178607360
0.198410630 0.667392612 0.408711880
0.203822315 0.667347312 0.408430606
0.214042187 0.668008447 0.405035257
0.224838495 0.669718325 0.395067304
0.238934383 0.672355413 0.376193881
0.255349994 0.676065385 0.344987482
0.272521943 0.680885375 0.293931067
0.315443784 0.684668601 0.236010179
0.413132429 0.684198141 0.212735757
0.514730394 0.681344211 0.210529745
0.595320106 0.678253353 0.202604264
0.664562106 0.676859498 0.191886514
0.723320067 0.675648332 0.180411339
0.773070276 0.675225794 0.174404010
0.818307698 0.675882578 0.175454691
0.861555099 0.677775323 0.179677308
0.904568851 0.680468023 0.185894370
0.217603385 0.705341458 0.442111015
0.220801756 0.705449283 0.441650689
0.230174720 0.705894411 0.439028740
0.240218714 0.707181096 0.430916965
0.253556281 0.709103346 0.415121108
0.269445568 0.711861610 0.389720708
0.286338985 0.715555847 0.349557102
0.309156656 0.719726801 0.289582580
0.374319375 0.721682250 0.240531772
0.485003144 0.719945133 0.232356340
0.579245567 0.717583895 0.228493154
0.655920088 0.715267062 0.219480708
0.721001387 0.714249253 0.208179399
0.774004698 0.713357031 0.196513027
0.820406497 0.713662684 0.190123335
0.863674581 0.714813530 0.191139698
0.907689750 0.717488229 0.195577577
0.233655617 0.738445222 0.473568588
0.238280743 0.738519132 0.473476380
0.247468740 0.738720477 0.471115202
0.256512403 0.739820123 0.464548349
0.268762767 0.741332412 0.451701343
0.283985287 0.743558466 0.430810601
0.300734282 0.746499956 0.398899287
0.317476898 0.750198722 0.348160148
0.354054481 0.753528833 0.285836011
0.442637414 0.753885388 0.252137512
0.553867877 0.751754463 0.251722127
0.642115712 0.749644637 0.246469110
0.714032531 0.747979999 0.236778557
0.772450447 0.747264683 0.224929720
0.821046770 0.746472359 0.212999299
0.865679145 0.747524083 0.206560537
0.909691691 0.749496639 0.207835391
0.243144989 0.768903136 0.502955616
0.245392740 0.769050360 0.502579868
0.253300935 0.769383073 0.500543952
0.264171034 0.770246089 0.495004505
0.282025814 0.771383584 0.485056102
0.301854640 0.773156762 0.468515605
0.322477698 0.775487661 0.443826199
0.342987537 0.778452039 0.406251639
0.366645098 0.782002151 0.349823356
0.425898820 0.784006178 0.300542116
0.528594732 0.783162832 0.284411073
0.626598477 0.781371474 0.281413496
0.706164122 0.779646873 0.274408072
0.769042730 0.778580904 0.262511343
0.821183145 0.778050005 0.248397350
0.866441607 0.777728438 0.233121634
0.911993682 0.779811382 0.227612510
0.107635565 0.803276062 0.518477798
0.110088058 0.803437293 0.517829120
0.119960189 0.803981781 0.514442205
0.147012085 0.804584384 0.508183241
0.236816645 0.804271936 0.502756119
0.334116966 0.803484678 0.497101694
0.418605059 0.802739263 0.490816861
0.492366195 0.802114844 0.484211117
0.556850135 0.801827788 0.477799594
0.614859104 0.801733732 0.472806185
0.669807911 0.801727474 0.469105124
0.720643759 0.802084386 0.463825196
0.764967263 0.802937984 0.453700066
0.803999543 0.804466069 0.434744835
0.839792728 0.806413054 0.401097149
0.876831830 0.808338821 0.359477103
0.915567994 0.810255945 0.298633933
-0.032593500 -0.031415876 0.077546120
0.048499878 -0.031313188 0.089308567
0.115077876 -0.025550999 0.085682377
0.183216825 -0.019233555 0.087068006
0.245740384 0.013642501 0.086420752
0.304981291 0.041093748 0.087734126
0.361984164 0.060436256 0.093212500
0.418235600 0.076224998 0.100196443
0.473918378 0.091521002 0.108346127
0.529407740 0.106409371 0.117266938
0.584563673 0.121308744 0.127054125
0.639271617 0.136237055 0.137613237
0.692780614 0.151032746 0.148641497
0.742798805 0.165974766 0.160400569
0.788795590 0.181098521 0.172782511
0.832088351 0.196133450 0.185428202
0.874866784 0.211964384 0.198904619
-0.030457690 0.053977132 0.094177373
0.055022441 0.055453744 0.090634689
0.121288933 0.056247685 0.093215749
0.183068261 0.059922941 0.093627244
0.243413866 0.065844625 0.092754126
0.302236378 0.075072818 0.093887374
0.359712511 0.085586883 0.098461315
0.416310340 0.096777193 0.105134316
0.472296834 0.108801186 0.113293692
0.527948856 0.121005125 0.121825255
0.583330452 0.133677125 0.130974680
0.638258874 0.147119001 0.141405568
0.691875517 0.160887882 0.152660429
0.742155492 0.174632072 0.164062321
0.788258135 0.188638195 0.175822467
0.831636488 0.203169957 0.188401818
0.874465168 0.218330607 0.201734245
-0.012382875 0.116689250 0.099897377
0.058346495 0.117348634 0.100251064
0.126582995 0.117457613 0.098055869
0.182378888 0.119983248 0.107582875
0.242050767 0.123273127 0.105915248
0.300801039 0.126257628 0.104183003
0.357860386 0.130176872 0.104756869
0.413806468 0.136157632 0.108668685
0.469400018 0.143508747 0.114704750
0.524989247 0.152104244 0.122441687
0.581120491 0.161808252 0.131892741
0.637067676 0.172482297 0.142782554
0.690999269 0.184433758 0.154970750
0.741490066 0.197148949 0.167696774
0.788035810 0.209747136 0.180194005
0.831616461 0.222304955 0.192471713
0.873886883 0.236941621 0.206909761
0.015113752 0.176008031 0.120212004
0.059045810 0.176009014 0.119586572
0.126702741 0.176229075 0.118307024
0.176907212 0.179792702 0.115526110
0.247548074 0.178667322 0.110065743
0.306680322 0.179891646 0.109650627
0.362617284 0.181484640 0.110860877
0.417651355 0.183690012 0.113625251
0.472434282 0.187132508 0.118013933
0.526821673 0.191598251 0.123524815
0.581433773 0.197315767 0.130540371
0.636821926 0.204618186 0.139537439
0.691819608 0.213345259 0.150395870
0.743591905 0.222834960 0.162249446
0.790827155 0.233076021 0.174601942
0.834843338 0.243852720 0.187225208
0.878060102 0.255497754 0.200598001
0.036281124 0.233697265 0.148738757
0.068644993 0.233655423 0.148313642
0.129007265 0.233861879 0.147559389
0.168626577 0.239311874 0.127175003
0.243913263 0.238518879 0.118386999
0.309509635 0.237413749 0.114583001
0.367192030 0.237130493 0.116294123
0.423013806 0.237594426 0.119574629
0.477565289 0.238586888 0.123656631
0.531549633 0.240595385 0.128642365
0.585356653 0.243754253 0.134630740
0.639238298 0.248063326 0.141717061
0.692488968 0.253642261 0.150153637
0.743082523 0.260614574 0.160265937
0.790386856 0.269054145 0.172371760
